; generated by Slic3r 1.3.0 on 2022-06-11 at 00:29:04

; external perimeters extrusion width = 0.44mm (2.03mm^3/s)
; perimeters extrusion width = 0.56mm (3.77mm^3/s)
; infill extrusion width = 0.50mm (6.70mm^3/s)
; solid infill extrusion width = 0.56mm (7.54mm^3/s)
; top infill extrusion width = 0.56mm (6.28mm^3/s)
; support material extrusion width = 0.44mm (5.80mm^3/s)

M107
M190 S50 ; set bed temperature and wait for it to be reached
M104 S205 ; set temperature
G28 ; home all axes
G1 Z5 F5000 ; lift nozzle

; Filament gcode

M109 S205 ; set temperature and wait for it to be reached
G21 ; set units to millimeters
G90 ; use absolute coordinates
M82 ; use absolute distances for extrusion
G92 E0
G1 E-1.00000 F1800.00000
G92 E0
G1 Z0.350 F7800.000
G1 X66.751 Y78.890 F7800.000
G1 E1.00000 F1800.00000
G1 F1080
G1 X68.725 Y77.722 E1.20854
G1 X71.059 Y77.297 E1.42434
G1 X106.937 Y77.297 E4.68663
G1 X109.113 Y77.665 E4.88733
G1 X133.260 Y86.063 E7.21206
G1 X135.263 Y87.180 E7.42060
G1 X136.766 Y88.913 E7.62914
G1 X137.707 Y92.180 E7.93829
G1 X137.714 Y105.941 E9.18962
G1 X137.317 Y108.200 E9.39816
G1 X136.174 Y110.188 E9.60671
G1 X134.421 Y111.667 E9.81525
G1 X133.217 Y112.215 E9.93555
G1 X105.580 Y121.587 E12.58914
G1 X103.452 Y121.938 E12.78522
G1 X92.452 Y121.938 E13.78544
G1 X90.193 Y121.541 E13.99398
G1 X87.440 Y119.646 E14.29793
G1 X62.748 Y91.079 E17.73133
G1 X61.572 Y89.111 E17.93987
G1 X61.136 Y86.859 E18.14842
G1 X61.495 Y84.594 E18.35696
G1 X62.605 Y82.587 E18.56550
G1 X63.451 Y81.715 E18.67599
G1 X66.705 Y78.929 E19.06549
G1 E18.06549 F1800.00000
G92 E0
G1 X92.894 Y105.941 F7800.000
G1 E1.00000 F1800.00000
G1 F1080
G1 X131.089 Y105.941 E3.02802
G1 X131.089 Y105.199 E3.06746
G1 X92.894 Y105.199 E5.09548
G1 X92.894 Y104.456 E5.13492
G1 X131.089 Y104.456 E7.16294
G1 X131.089 Y103.713 E7.20237
G1 X92.894 Y103.713 E9.23040
G1 X92.894 Y102.971 E9.26983
G1 X131.089 Y102.971 E11.29786
G1 X131.089 Y102.228 E11.33729
G1 X92.894 Y102.228 E13.36531
G1 X92.894 Y101.485 E13.40475
G1 X131.089 Y101.485 E15.43277
G1 X131.089 Y100.743 E15.47220
G1 X92.894 Y100.743 E17.50023
G1 X92.894 Y100.000 E17.53966
G1 X131.089 Y100.000 E19.56769
G1 X131.089 Y99.257 E19.60712
G1 X92.894 Y99.257 E21.63515
G1 X92.894 Y98.515 E21.67458
G1 X131.089 Y98.515 E23.70260
G1 X131.089 Y97.772 E23.74204
G1 X92.894 Y97.772 E25.77006
G1 X92.894 Y97.029 E25.80949
G1 X131.089 Y97.029 E27.83752
G1 X131.089 Y96.287 E27.87695
G1 X92.894 Y96.287 E29.90498
G1 X92.894 Y95.544 E29.94441
G1 X131.089 Y95.544 E31.97243
G1 X131.089 Y94.801 E32.01187
G1 X92.894 Y94.801 E34.03989
G1 X92.894 Y94.059 E34.07933
G1 X131.089 Y94.059 E36.10735
G1 X131.089 Y93.316 E36.14678
G1 X92.894 Y93.316 E38.17481
G1 X92.894 Y92.573 E38.21424
G1 X131.089 Y92.573 E40.24227
G1 E39.24227 F1800.00000
G92 E0
G1 X108.748 Y87.787 F7800.000
G1 E1.00000 F1800.00000
G1 F1080
G1 X108.748 Y87.059 E1.06618
G1 X107.499 Y87.059 E1.17982
G1 X107.499 Y89.032 E1.35916
G1 X107.182 Y89.347 E1.39980
G1 X106.249 Y89.971 E1.50186
G1 X106.249 Y87.059 E1.76661
G1 X105.635 Y87.059 E1.82240
G1 X105.472 Y86.722 E1.85652
G1 X105.356 Y86.553 E1.87516
G1 X105.241 Y86.435 E1.89008
G1 X105.141 Y86.366 E1.90117
G1 X104.999 Y86.309 E1.91505
G1 X104.999 Y89.875 E2.23928
G1 X103.749 Y89.875 E2.35293
G1 X103.749 Y87.277 E2.58920
G1 X102.500 Y87.277 E2.70285
G1 X102.500 Y89.875 E2.93912
G1 X101.250 Y89.875 E3.05277
G1 X101.250 Y87.277 E3.28904
G1 X100.000 Y87.277 E3.40269
G1 X100.000 Y89.875 E3.63896
G1 X98.750 Y89.875 E3.75261
G1 X98.750 Y87.277 E3.98888
G1 X97.500 Y87.277 E4.10252
G1 X97.500 Y89.875 E4.33880
G1 X96.251 Y89.875 E4.45244
G1 X96.251 Y87.277 E4.68872
G1 X95.001 Y87.277 E4.80236
G1 X95.001 Y89.875 E5.03864
G1 X93.751 Y89.875 E5.15228
G1 X93.751 Y87.277 E5.38856
G1 X92.501 Y87.277 E5.50220
G1 X92.501 Y89.875 E5.73848
G1 X91.252 Y89.875 E5.85212
G1 X91.252 Y87.277 E6.08840
G1 X90.002 Y87.277 E6.20204
G1 X90.002 Y89.875 E6.43832
G1 X88.752 Y89.875 E6.55196
G1 X88.752 Y87.277 E6.78824
G1 X87.502 Y87.277 E6.90188
G1 X87.502 Y89.875 E7.13816
G1 X86.252 Y89.875 E7.25180
G1 X86.252 Y87.277 E7.48808
G1 X85.003 Y87.277 E7.60172
G1 X85.003 Y89.875 E7.83800
G1 X83.753 Y89.875 E7.95164
G1 X83.753 Y87.277 E8.18792
G1 X82.503 Y87.277 E8.30156
G1 X82.503 Y89.875 E8.53784
G1 X81.253 Y89.875 E8.65148
G1 X81.253 Y87.277 E8.88776
G1 X80.004 Y87.277 E9.00140
G1 X80.004 Y89.875 E9.23768
G1 X78.754 Y89.875 E9.35132
G1 X78.754 Y87.277 E9.58760
G1 X77.504 Y87.277 E9.70124
G1 X77.504 Y89.875 E9.93752
G1 X76.254 Y89.875 E10.05116
G1 X76.254 Y87.277 E10.28744
G1 X75.004 Y87.277 E10.40108
G1 X75.004 Y89.875 E10.63736
G1 X73.755 Y89.875 E10.75100
G1 X73.755 Y87.277 E10.98728
G1 X73.505 Y87.277 E11.00997
G1 X73.518 Y86.818 E11.05173
G1 X73.472 Y86.722 E11.06141
G1 X73.356 Y86.553 E11.08005
G1 X73.241 Y86.435 E11.09497
G1 X73.141 Y86.366 E11.10606
G1 X72.998 Y86.309 E11.12004
G1 X72.855 Y86.366 E11.13403
G1 X72.755 Y86.435 E11.14512
G1 X72.640 Y86.553 E11.16004
G1 X72.505 Y86.762 E11.18274
G1 X72.505 Y90.478 E11.52056
G1 X71.255 Y89.642 E11.65726
G1 X71.255 Y87.059 E11.89209
G1 X70.005 Y87.059 E12.00574
G1 X70.005 Y88.542 E12.14052
G1 X68.756 Y87.297 E12.30090
G1 X68.756 Y87.059 E12.32251
G1 E11.32251 F1800.00000
G92 E0
G1 X72.505 Y84.234 F7800.000
G1 E1.00000 F1800.00000
G1 F1080
G1 X71.437 Y84.234 E1.09707
G1 X71.562 Y84.887 E1.15746
G1 X72.505 Y84.887 E1.24319
G1 X72.505 Y84.234 E1.30251
G1 X72.998 Y84.234 E1.34736
G1 X73.755 Y84.234 E1.41616
G1 X73.755 Y84.887 E1.47548
G1 E0.47548 F1800.00000
G92 E0
G1 X103.749 Y84.234 F7800.000
G1 E1.00000 F1800.00000
G1 F1080
G1 X103.749 Y84.887 E1.05932
G1 X104.972 Y84.887 E1.17048
G1 X104.999 Y84.887 E1.17297
G1 X104.999 Y84.234 E1.23229
G1 X106.249 Y84.234 E1.34593
G1 X106.249 Y84.887 E1.40526
G1 E0.40526 F1800.00000
G92 E0
G1 X102.500 Y109.199 F7800.000
G1 E1.00000 F1800.00000
G1 F1080
G1 X102.500 Y106.945 E1.20496
G1 X101.250 Y106.945 E1.31860
G1 X101.250 Y109.199 E1.52356
G1 X100.000 Y109.199 E1.63720
G1 X100.000 Y106.945 E1.84216
G1 X98.750 Y106.945 E1.95580
G1 X98.750 Y109.199 E2.16076
G1 X97.500 Y109.199 E2.27440
G1 X97.500 Y106.945 E2.47936
G1 X96.251 Y106.945 E2.59300
G1 X96.251 Y109.199 E2.79796
G1 X95.001 Y109.199 E2.91160
G1 X95.001 Y106.945 E3.11656
G1 E2.11656 F1800.00000
G92 E0
G1 X93.751 Y110.484 F7800.000
G1 E1.00000 F1800.00000
G1 F1080
G1 X93.200 Y110.484 E1.05013
G1 X93.200 Y109.579 E1.13244
G1 X92.945 Y109.579 E1.15559
G1 X92.945 Y106.945 E1.39507
G1 X92.765 Y106.945 E1.41149
G1 X92.765 Y115.001 E2.14398
G1 X93.751 Y115.001 E2.23367
G1 X93.751 Y110.484 E2.64438
G1 X95.001 Y110.484 E2.75802
G1 X95.001 Y115.001 E3.16872
G1 X96.251 Y115.001 E3.28236
G1 X96.251 Y110.484 E3.69306
G1 X97.500 Y110.484 E3.80670
G1 X97.500 Y115.001 E4.21740
G1 X98.750 Y115.001 E4.33105
G1 X98.750 Y110.484 E4.74175
G1 X100.000 Y110.484 E4.85539
G1 X100.000 Y115.001 E5.26609
G1 X101.250 Y115.001 E5.37973
G1 X101.250 Y110.484 E5.79043
G1 X102.500 Y110.484 E5.90408
G1 X102.500 Y115.001 E6.31478
M106 S255
M104 S200 ; set temperature
M140 S45 ; set bed temperature
G1 E5.31478 F1800.00000
G92 E0
G1 Z0.650 F7800.000
G1 X93.119 Y92.320 F7800.000
G1 E1.00000 F1800.00000
G1 F2119.7
G1 X92.899 Y92.320 E1.01031
G1 X92.899 Y106.005 E1.65143
G1 X93.119 Y106.005 E1.66174
G1 X93.119 Y92.320 E2.30287
G1 X93.884 Y92.320 E2.33868
G1 X93.884 Y106.005 E2.97981
G1 X94.648 Y106.005 E3.01563
G1 X94.648 Y92.320 E3.65676
G1 X95.413 Y92.320 E3.69257
G1 X95.413 Y106.005 E4.33370
G1 X96.177 Y106.005 E4.36952
G1 X96.177 Y92.320 E5.01064
G1 X96.942 Y92.320 E5.04646
G1 X96.942 Y106.005 E5.68759
G1 X97.706 Y106.005 E5.72340
G1 X97.706 Y92.320 E6.36453
G1 X98.471 Y92.320 E6.40035
G1 X98.471 Y106.005 E7.04148
G1 X99.235 Y106.005 E7.07729
G1 X99.235 Y92.320 E7.71842
G1 X100.000 Y92.320 E7.75424
G1 X100.000 Y106.005 E8.39536
G1 X100.765 Y106.005 E8.43118
G1 X100.765 Y92.320 E9.07231
G1 X101.529 Y92.320 E9.10812
G1 X101.529 Y106.005 E9.74925
G1 X102.294 Y106.005 E9.78507
G1 X102.294 Y92.320 E10.42619
G1 X103.058 Y92.320 E10.46201
G1 X103.058 Y106.005 E11.10314
G1 X103.823 Y106.005 E11.13896
G1 X103.823 Y92.320 E11.78008
G1 X104.587 Y92.320 E11.81590
G1 X104.587 Y106.005 E12.45703
G1 X105.352 Y106.005 E12.49284
G1 X105.352 Y92.320 E13.13397
G1 X106.116 Y92.320 E13.16979
G1 X106.116 Y106.005 E13.81091
G1 X106.881 Y106.005 E13.84673
G1 X106.881 Y92.320 E14.48786
G1 X107.645 Y92.320 E14.52367
G1 X107.645 Y106.005 E15.16480
G1 X108.410 Y106.005 E15.20062
G1 X108.410 Y92.320 E15.84175
G1 X109.174 Y92.320 E15.87756
G1 X109.174 Y106.005 E16.51869
G1 X109.939 Y106.005 E16.55451
G1 X109.939 Y92.320 E17.19563
G1 X110.703 Y92.320 E17.23145
G1 X110.703 Y106.005 E17.87258
G1 X111.468 Y106.005 E17.90839
G1 X111.468 Y92.320 E18.54952
G1 X112.232 Y92.320 E18.58534
G1 X112.232 Y106.005 E19.22647
G1 X112.997 Y106.005 E19.26228
G1 X112.997 Y92.320 E19.90341
G1 X113.761 Y92.320 E19.93923
G1 X113.761 Y106.005 E20.58035
G1 X114.526 Y106.005 E20.61617
G1 X114.526 Y92.320 E21.25730
G1 X115.290 Y92.320 E21.29311
G1 X115.290 Y106.005 E21.93424
G1 X116.055 Y106.005 E21.97006
G1 X116.055 Y92.320 E22.61119
G1 X116.819 Y92.320 E22.64700
G1 X116.819 Y106.005 E23.28813
G1 X117.584 Y106.005 E23.32395
G1 X117.584 Y92.320 E23.96507
G1 X118.348 Y92.320 E24.00089
G1 X118.348 Y106.005 E24.64202
G1 X119.113 Y106.005 E24.67783
G1 X119.113 Y92.320 E25.31896
G1 X119.877 Y92.320 E25.35478
G1 X119.877 Y106.005 E25.99590
G1 X120.642 Y106.005 E26.03172
G1 X120.642 Y92.320 E26.67285
G1 X121.406 Y92.320 E26.70867
G1 X121.406 Y106.005 E27.34979
G1 X122.171 Y106.005 E27.38561
G1 X122.171 Y92.320 E28.02674
G1 X122.935 Y92.320 E28.06255
G1 X122.935 Y106.005 E28.70368
G1 X123.700 Y106.005 E28.73950
G1 X123.700 Y92.320 E29.38062
G1 X124.464 Y92.320 E29.41644
G1 X124.464 Y106.005 E30.05757
G1 X125.229 Y106.005 E30.09339
G1 X125.229 Y92.320 E30.73451
G1 X125.993 Y92.320 E30.77033
G1 X125.993 Y106.005 E31.41146
G1 X126.758 Y106.005 E31.44727
G1 X126.758 Y92.320 E32.08840
G1 X127.522 Y92.320 E32.12422
G1 X127.522 Y106.005 E32.76534
G1 X128.287 Y106.005 E32.80116
G1 X128.287 Y92.320 E33.44229
G1 X129.051 Y92.320 E33.47810
G1 X129.051 Y106.005 E34.11923
G1 X129.816 Y106.005 E34.15505
G1 X129.816 Y92.320 E34.79618
G1 X130.580 Y92.320 E34.83199
G1 X130.580 Y106.005 E35.47312
G1 E34.47312 F1800.00000
G92 E0
G1 X102.469 Y107.968 F7800.000
G1 E1.00000 F1800.00000
G1 F2119.7
G1 X102.469 Y107.202 E1.03591
G1 X100.670 Y107.202 E1.12019
G1 X101.112 Y107.968 E1.16166
G1 X102.469 Y107.968 E1.22521
G1 X102.469 Y108.943 F7800.000
G1 F2119.7
G1 X102.469 Y108.355 E1.25277
G1 X101.112 Y108.355 E1.31632
G1 X100.773 Y108.943 E1.34816
G1 X102.469 Y108.943 E1.42762
G1 X102.883 Y113.741 F7800.000
G1 F2119.7
G1 X102.883 Y110.741 E1.56818
G1 X99.735 Y110.741 E1.71569
G1 X99.669 Y110.855 E1.72186
G1 X96.113 Y110.855 E1.88845
G1 X96.047 Y110.741 E1.89461
G1 X93.021 Y110.741 E2.03639
G1 X93.021 Y113.741 E2.17696
G1 X94.670 Y113.741 E2.25420
G1 X96.113 Y111.241 E2.38944
G1 X99.669 Y111.241 E2.55603
G1 X101.112 Y113.741 E2.69127
G1 X102.883 Y113.741 E2.77425
G1 X102.883 Y114.745 F7800.000
G1 F2119.7
G1 X102.883 Y114.127 E2.80317
G1 X101.112 Y114.127 E2.88614
G1 X100.756 Y114.745 E2.91954
G1 X102.883 Y114.745 E3.01920
G1 X95.026 Y114.745 F7800.000
G1 F2119.7
G1 X94.670 Y114.127 E3.05260
G1 X93.021 Y114.127 E3.12984
G1 X93.021 Y114.745 E3.15877
G1 X95.026 Y114.745 E3.25271
G1 E2.25271 F1800.00000
G92 E0
G1 X93.512 Y109.512 F7800.000
G1 E1.00000 F1800.00000
G1 F2119.7
G1 X102.392 Y109.512 E1.41602
G1 X102.392 Y110.172 E1.44694
G1 X93.512 Y110.172 E1.86296
G1 X93.512 Y109.512 E1.89388
G1 X93.258 Y109.267 F7800.000
G1 F2119.7
G1 X93.258 Y106.633 E2.01727
G1 X92.452 Y106.633 E2.05500
G1 X92.452 Y115.313 E2.46168
G1 X103.452 Y115.313 E2.97702
G1 X103.452 Y109.267 E3.26031
G1 X103.038 Y109.267 E3.27974
G1 X103.038 Y106.633 E3.40312
G1 X93.918 Y106.633 E3.83039
G1 X93.918 Y109.267 E3.95377
G1 X93.258 Y109.267 E3.98469
G1 X95.010 Y108.943 F7800.000
G1 F2119.7
G1 X94.670 Y108.355 E4.01653
G1 X94.486 Y108.355 E4.02512
G1 X94.486 Y108.943 E4.05268
G1 X95.010 Y108.943 E4.07719
G1 X94.670 Y107.968 F7800.000
G1 F2119.7
G1 X95.112 Y107.202 E4.11866
G1 X94.486 Y107.202 E4.14798
G1 X94.486 Y107.968 E4.18389
G1 X94.670 Y107.968 E4.19248
G1 E3.19248 F1800.00000
G92 E0
G1 X105.019 Y86.593 F7800.000
G1 E1.00000 F1800.00000
G1 F2119.7
G1 X104.998 Y86.585 E1.00108
G1 X104.921 Y86.632 E1.00531
G1 X104.840 Y86.716 E1.01078
G1 X104.736 Y86.873 E1.01961
G1 X104.754 Y87.533 E1.05054
G1 X99.802 Y87.533 E1.28255
G1 X99.669 Y87.764 E1.29503
G1 X96.113 Y87.764 E1.46162
G1 X95.980 Y87.533 E1.47410
G1 X89.804 Y87.533 E1.76346
G1 X89.670 Y87.764 E1.77594
G1 X86.115 Y87.764 E1.94253
G1 X85.981 Y87.533 E1.95501
G1 X79.805 Y87.533 E2.24436
G1 X79.672 Y87.764 E2.25684
G1 X76.116 Y87.764 E2.42344
G1 X75.983 Y87.533 E2.43592
G1 X73.242 Y87.533 E2.56434
G1 X73.260 Y86.873 E2.59527
G1 X73.157 Y86.716 E2.60410
G1 X73.075 Y86.632 E2.60958
G1 X72.998 Y86.585 E2.61380
G1 X72.921 Y86.632 E2.61803
G1 X72.840 Y86.716 E2.62351
G1 X72.747 Y86.851 E2.63119
G1 X72.521 Y87.316 E2.65540
G1 X69.932 Y87.316 E2.77671
G1 X69.673 Y87.764 E2.80094
G1 X69.587 Y87.764 E2.80496
G1 X70.977 Y89.148 E2.89686
G1 X72.455 Y90.136 E2.98011
G1 X72.551 Y89.619 E3.00473
G1 X75.268 Y89.619 E3.13203
G1 X76.116 Y88.150 E3.21149
G1 X79.672 Y88.150 E3.37808
G1 X80.520 Y89.619 E3.45753
G1 X85.267 Y89.619 E3.67991
G1 X86.115 Y88.150 E3.75937
G1 X89.670 Y88.150 E3.92596
G1 X90.518 Y89.619 E4.00541
G1 X95.265 Y89.619 E4.22779
G1 X96.113 Y88.150 E4.30725
G1 X99.669 Y88.150 E4.47384
G1 X100.517 Y89.619 E4.55330
G1 X105.264 Y89.619 E4.77568
G1 X106.112 Y88.150 E4.85513
G1 X108.021 Y88.150 E4.94456
G1 X108.409 Y87.764 E4.97021
G1 X106.112 Y87.764 E5.07782
G1 X105.853 Y87.316 E5.10206
G1 X105.475 Y87.316 E5.11978
G1 X105.249 Y86.851 E5.14399
G1 X105.157 Y86.716 E5.15167
G1 X105.019 Y86.593 E5.16028
G1 X104.811 Y84.630 F7800.000
G1 F2119.7
G1 X104.892 Y84.491 E5.16784
G1 X103.747 Y84.491 E5.22145
G1 X103.774 Y84.630 E5.22811
G1 X104.811 Y84.630 E5.27669
G1 X106.692 Y85.199 F7800.000
G1 F2119.7
G1 X106.937 Y83.922 E5.33762
G1 X103.060 Y83.922 E5.51925
G1 X103.304 Y85.199 E5.58017
G1 X106.692 Y85.199 E5.73893
G1 E4.73893 F1800.00000
G92 E0
G1 X74.937 Y83.922 F7800.000
G1 E1.00000 F1800.00000
G1 F2119.7
G1 X71.060 Y83.922 E1.18163
G1 X71.304 Y85.199 E1.24256
G1 X73.010 Y85.199 E1.32250
G1 X74.692 Y85.199 E1.40131
G1 X74.937 Y83.922 E1.46223
G1 X74.249 Y84.491 F7800.000
G1 F2119.7
G1 X71.747 Y84.491 E1.57942
G1 X71.774 Y84.630 E1.58608
G1 X73.024 Y84.630 E1.64465
G1 X74.222 Y84.630 E1.70076
G1 X74.249 Y84.491 E1.70743
G1 E0.70743 F1800.00000
G92 E0
G1 X72.254 Y86.565 F7800.000
G1 E1.00000 F1800.00000
G1 F2119.7
G1 X72.165 Y86.747 E1.00950
G1 X67.760 Y86.747 E1.21586
G1 X70.615 Y89.590 E1.40462
G1 X72.856 Y91.088 E1.53088
G1 X73.023 Y90.188 E1.57378
G1 X104.973 Y90.188 E3.07059
G1 X105.140 Y91.088 E3.11349
G1 X107.381 Y89.590 E3.23976
G1 X110.236 Y86.747 E3.42851
G1 X105.831 Y86.747 E3.63488
G1 X105.742 Y86.565 E3.64437
G1 X105.599 Y86.354 E3.65632
G1 X105.444 Y86.195 E3.66670
G1 X105.289 Y86.088 E3.67552
G1 X104.998 Y85.973 E3.69019
G1 X104.707 Y86.088 E3.70486
G1 X104.552 Y86.195 E3.71368
G1 X104.398 Y86.354 E3.72406
G1 X104.254 Y86.565 E3.73601
G1 X104.164 Y86.750 E3.74566
G1 X104.170 Y86.964 E3.75570
G1 X73.826 Y86.964 E5.17726
G1 X73.832 Y86.750 E5.18731
G1 X73.742 Y86.565 E5.19696
G1 X73.599 Y86.354 E5.20890
G1 X73.444 Y86.195 E5.21929
G1 X73.289 Y86.088 E5.22810
G1 X72.998 Y85.973 E5.24278
G1 X72.707 Y86.088 E5.25745
G1 X72.552 Y86.195 E5.26627
