; generated by Slic3r 1.3.0 on 2023-05-28 at 08:54:02

; external perimeters extrusion width = 0.44mm (1.67mm^3/s)
; perimeters extrusion width = 0.56mm (3.10mm^3/s)
; infill extrusion width = 0.50mm (5.48mm^3/s)
; solid infill extrusion width = 0.56mm (6.20mm^3/s)
; top infill extrusion width = 0.56mm (5.17mm^3/s)
; support material extrusion width = 0.44mm (4.76mm^3/s)

M107
M190 S65 ; set bed temperature and wait for it to be reached
M104 S205 ; set temperature
G28 ; home all axes
G29; Automatic (Bilinear) Bed Leveling probes the bed at some fixed number of points and produces a mesh representing the imperfections across the bed.
G1 Z5 F5000 ; lift nozzle
G92 E0.0 # Set the current position to the values specified.
; Filament gcode

M109 S205 ; set temperature and wait for it to be reached
G21 ; set units to millimeters
G90 ; use absolute coordinates
M82 ; use absolute distances for extrusion
G92 E0
;BEFORE_LAYER_CHANGE
;G92 E0.0 # Set the current position to the values specified.
G1 E-1.00000 F1800.00000
G92 E0
G1 Z-0.500 F7800.000
;AFTER_LAYER_CHANGE
G1 X92.503 Y92.539 F7800.000
G1 E1.00000 F1800.00000
G1 F600
G1 X92.817 Y92.243 E1.00320
G1 X94.048 Y91.246 E1.01496
G1 X94.327 Y91.055 E1.01747
G1 X94.743 Y90.815 E1.02104
G1 X95.582 Y90.413 E1.02794
G1 X96.957 Y90.100 E1.03841
G1 X103.043 Y90.100 E1.08358
G1 X104.663 Y90.544 E1.09605
G1 X106.081 Y91.384 E1.10829
G1 X106.481 Y91.665 E1.11191
G1 X107.183 Y92.243 E1.11866
G1 X107.497 Y92.539 E1.12187
G1 X107.908 Y92.999 E1.12644
G1 X108.566 Y93.839 E1.13437
G1 X108.938 Y94.347 E1.13904
G1 X109.279 Y94.902 E1.14388
G1 X109.462 Y95.272 E1.14694
G1 X110.222 Y97.098 E1.16162
G1 X110.458 Y98.102 E1.16928
G1 X110.573 Y99.770 E1.18169
G1 X110.569 Y100.253 E1.18527
G1 X110.472 Y101.419 E1.19396
G1 X110.387 Y101.927 E1.19778
G1 X110.224 Y102.568 E1.20269
G1 X109.979 Y103.409 E1.20919
G1 X109.862 Y103.742 E1.21181
G1 X109.512 Y104.582 E1.21856
G1 X109.264 Y105.060 E1.22257
G1 X108.618 Y106.069 E1.23146
G1 X108.200 Y106.644 E1.23673
G1 X107.717 Y107.199 E1.24220
G1 X107.487 Y107.424 E1.24458
G1 X106.535 Y108.264 E1.25401
G1 X105.952 Y108.730 E1.25955
G1 X105.673 Y108.920 E1.26205
G1 X105.256 Y109.160 E1.26562
G1 X104.366 Y109.587 E1.27295
G1 X102.991 Y109.900 E1.28342
G1 X97.009 Y109.900 E1.32783
G1 X95.407 Y109.467 E1.34014
G1 X93.967 Y108.626 E1.35252
G1 X93.465 Y108.264 E1.35711
G1 X92.513 Y107.424 E1.36653
G1 X90.282 Y105.303 E1.38939
G1 X89.901 Y104.869 E1.39367
G1 X89.573 Y104.417 E1.39782
G1 X88.966 Y102.549 E1.41240
G1 X88.966 Y102.317 E1.41412
G1 X89.009 Y101.797 E1.41799
G1 X89.532 Y98.640 E1.44175
G1 X89.696 Y97.745 E1.44850
G1 X89.905 Y96.885 E1.45507
G1 X90.053 Y96.437 E1.45857
G1 X90.538 Y95.272 E1.46794
G1 X90.721 Y94.902 E1.47100
G1 X91.062 Y94.347 E1.47584
G1 X91.434 Y93.839 E1.48051
G1 X92.092 Y92.999 E1.48843
G1 X92.462 Y92.583 E1.49257
G1 E0.49257 F1800.00000
G92 E0
G1 X100.000 Y100.486 F7800.000
G1 E1.00000 F1800.00000
G1 F600
G1 X99.501 Y99.988 E1.00524
G1 X100.000 Y99.489 E1.01047
G1 X100.499 Y99.988 E1.01571
G1 X100.042 Y100.444 E1.02050
G1 X100.000 Y100.739 F7800.000
G1 F600
G1 X99.249 Y99.988 E1.02839
G1 X100.000 Y99.236 E1.03627
G1 X100.751 Y99.988 E1.04416
G1 X100.042 Y100.697 E1.05160
G1 X100.000 Y100.991 F7800.000
G1 F540
G1 X98.996 Y99.988 E1.06214
G1 X100.000 Y98.984 E1.07267
G1 X101.004 Y99.988 E1.08321
G1 X100.042 Y100.949 E1.09330
G1 X99.800 Y100.645 F7800.000
G1 X99.930 Y100.303 F7800.000
G1 F600
G1 X100.316 Y99.918 E1.09816
G1 X100.164 Y99.767 E1.10006
G1 X99.779 Y100.152 E1.10492
G1 X99.684 Y100.057 E1.10611
G1 X99.931 Y99.811 E1.10921
G1 X100.025 Y99.906 E1.11041
;BEFORE_LAYER_CHANGE
;G92 E0.0 # Set the current position to the values specified.
G1 E0.11041 F1800.00000
G92 E0
G1 Z-0.500 F7800.000
;AFTER_LAYER_CHANGE
G1 X103.043 Y93.279 F7800.000
G1 E1.00000 F1800.00000
G1 F600
G1 X96.957 Y93.279 E1.10590
G1 X96.118 Y93.681 E1.12209
G1 X95.839 Y93.871 E1.12796
G1 X95.539 Y94.119 E1.13474
G1 X98.798 Y94.119 E1.19146
G1 X100.000 Y93.997 E1.21248
G1 X101.202 Y94.119 E1.23350
G1 X104.461 Y94.119 E1.29021
G1 X105.163 Y94.697 E1.30604
G1 X105.406 Y94.959 E1.31225
G1 X103.169 Y94.959 E1.35117
G1 X103.607 Y95.212 E1.35996
G1 X103.833 Y95.398 E1.36506
G1 X104.216 Y95.799 E1.37470
G1 X106.064 Y95.799 E1.40687
G1 X106.367 Y96.215 E1.41582
G1 X106.527 Y96.494 E1.42141
G1 X106.588 Y96.639 E1.42416
G1 X104.955 Y96.639 E1.45258
G1 X105.394 Y97.480 E1.46908
G1 X106.938 Y97.480 E1.49593
G1 X107.287 Y98.320 E1.51177
G1 X105.715 Y98.320 E1.53914
G1 X105.887 Y98.866 E1.54910
G1 X105.918 Y99.160 E1.55425
G1 X107.332 Y99.160 E1.57886
G1 X107.401 Y100.000 E1.59353
G1 X105.989 Y100.000 E1.61810
G1 X105.915 Y100.840 E1.63278
G1 X107.330 Y100.840 E1.65740
G1 X107.304 Y101.154 E1.66288
G1 X107.172 Y101.680 E1.67233
G1 X105.707 Y101.680 E1.69782
G1 X105.533 Y102.230 E1.70785
G1 X105.382 Y102.520 E1.71355
G1 X106.927 Y102.520 E1.74045
G1 X106.578 Y103.361 E1.75629
G1 X104.942 Y103.361 E1.78476
G1 X104.775 Y103.590 E1.78970
G1 X104.192 Y104.201 E1.80439
G1 X106.046 Y104.201 E1.83665
G1 X105.629 Y104.775 E1.84901
G1 X105.383 Y105.041 E1.85530
G1 X103.127 Y105.041 E1.89457
G1 X102.441 Y105.438 E1.90835
G1 X101.233 Y105.853 E1.93057
G1 X100.985 Y105.881 E1.93492
G1 X104.431 Y105.881 E1.99488
G1 X104.161 Y106.104 E2.00098
G1 X103.882 Y106.294 E2.00685
G1 X102.991 Y106.721 E2.02404
G1 X97.009 Y106.721 E2.12815
G1 X95.569 Y105.881 F7800.000
G1 F600
G1 X99.015 Y105.881 E2.18811
G1 X98.767 Y105.853 E2.19245
G1 X97.559 Y105.438 E2.21468
G1 X96.873 Y105.041 E2.22846
G1 X94.617 Y105.041 E2.26772
G1 X94.371 Y104.775 E2.27401
G1 X93.954 Y104.201 E2.28637
G1 X95.808 Y104.201 E2.31864
G1 X95.225 Y103.590 E2.33333
G1 X95.058 Y103.361 E2.33827
G1 X93.422 Y103.361 E2.36674
G1 X93.073 Y102.520 E2.38257
G1 X94.618 Y102.520 E2.40947
G1 X94.467 Y102.230 E2.41517
G1 X94.293 Y101.680 E2.42521
G1 X92.828 Y101.680 E2.45070
G1 X92.696 Y101.154 E2.46015
G1 X92.670 Y100.840 E2.46562
G1 X94.085 Y100.840 E2.49025
G1 X94.011 Y100.000 E2.50492
G1 X92.599 Y100.000 E2.52950
G1 X92.668 Y99.160 E2.54417
G1 X94.082 Y99.160 E2.56878
G1 X94.113 Y98.866 E2.57392
G1 X94.285 Y98.320 E2.58389
G1 X92.822 Y98.320 E2.60936
G1 X92.988 Y97.658 E2.62122
G1 X93.062 Y97.480 E2.62459
G1 X94.606 Y97.480 E2.65145
G1 X95.045 Y96.639 E2.66795
G1 X93.412 Y96.639 E2.69636
G1 X93.473 Y96.494 E2.69911
G1 X93.633 Y96.215 E2.70470
G1 X93.936 Y95.799 E2.71365
G1 X95.784 Y95.799 E2.74582
G1 X96.167 Y95.398 E2.75546
G1 X96.393 Y95.212 E2.76056
G1 X96.831 Y94.959 E2.76935
G1 X94.594 Y94.959 E2.80827
G1 X94.837 Y94.697 E2.81449
G1 X95.539 Y94.119 E2.83031
G1 E1.83031 F1800.00000
G92 E0
G1 X92.144 Y102.549 F7800.000
G1 E1.00000 F1800.00000
G1 F600
G1 X92.473 Y103.001 E1.00414
G1 X92.285 Y102.550 E1.00777
G1 X92.226 Y102.317 E1.00955
G1 X92.144 Y102.317 E1.01016
G1 X92.144 Y102.549 E1.01188
M106 S255
M104 S200 ; set temperature
M140 S60 ; set bed temperature
;BEFORE_LAYER_CHANGE
;G92 E0.0 # Set the current position to the values specified.
G1 E0.01188 F1800.00000
G92 E0
G1 Z-0.300 F7800.000
;AFTER_LAYER_CHANGE
G1 X100.000 Y100.976 F7800.000
G1 E1.00000 F1800.00000
G1 F600
G1 X99.558 Y100.828 E1.02003
G1 X99.155 Y100.422 E1.04465
G1 X99.011 Y99.988 E1.06431
G1 X99.155 Y99.554 E1.08397
G1 X99.558 Y99.147 E1.10860
G1 X100.000 Y98.999 E1.12863
G1 X100.442 Y99.147 E1.14865
G1 X100.845 Y99.554 E1.17328
G1 X100.989 Y99.988 E1.19294
G1 X100.845 Y100.422 E1.21260
G1 X100.442 Y100.828 E1.23723
G1 X100.057 Y100.957 E1.25468
G1 X98.474 Y99.988 F7800.000
M106 S255

G1 F3600
G1 X98.702 Y99.276 E1.29374
G1 X99.278 Y98.696 E1.33643
G1 X100.000 Y98.462 E1.37609
G1 X100.722 Y98.696 E1.41574
G1 X101.298 Y99.276 E1.45843
G1 X101.526 Y99.988 E1.49750
G1 X101.298 Y100.700 E1.53656
G1 X100.722 Y101.280 E1.57925
G1 X100.000 Y101.513 E1.61891
G1 X99.278 Y101.280 E1.65856
G1 X98.702 Y100.700 E1.70125
G1 X98.486 Y100.047 E1.73721
M106 S255

G1 X98.025 Y99.899 F7800.000
M106 S255

G1 F3600
G1 X98.302 Y99.030 E1.78488
G1 X99.030 Y98.297 E1.83885
G1 X99.822 Y98.032 E1.88249
G1 X100.000 Y97.996 E1.89197
G1 X100.178 Y98.032 E1.90146
G1 X100.970 Y98.297 E1.94509
G1 X101.698 Y99.030 E1.99907
G1 X101.957 Y99.813 E2.04215
G1 X101.992 Y99.988 E2.05148
G1 X101.957 Y100.163 E2.06080
G1 X101.698 Y100.945 E2.10388
G1 X100.970 Y101.679 E2.15786
G1 X100.178 Y101.944 E2.20149
G1 X100.000 Y101.979 E2.21098
G1 X99.822 Y101.944 E2.22047
G1 X99.030 Y101.679 E2.26410
G1 X98.302 Y100.945 E2.31808
G1 X98.043 Y100.163 E2.36116
G1 X98.014 Y99.958 E2.37195
M106 S255

G1 X99.786 Y100.101 F7800.000
G1 F600
G1 X99.757 Y100.189 E2.37674
G1 X99.808 Y100.345 E2.38522
G1 X100.040 Y100.578 E2.40216
G1 X100.201 Y100.632 E2.41094
G1 X100.288 Y100.603 E2.41566
G1 X99.384 Y99.699 E2.48164
G1 X99.406 Y99.631 E2.48534
G1 X99.638 Y99.397 E2.50228
G1 X99.799 Y99.344 E2.51106
G1 X99.960 Y99.397 E2.51982
G1 X100.381 Y99.818 E2.55053
;BEFORE_LAYER_CHANGE
;G92 E0.0 # Set the current position to the values specified.
G1 E1.55053 F1800.00000
G92 E0
G1 Z-0.300 F7800.000
;AFTER_LAYER_CHANGE
G1 X100.775 Y94.281 F7800.000
G1 E1.00000 F1800.00000
G1 F600
G1 X100.441 Y94.249 E1.01106
G1 X100.124 Y94.799 E1.03201
G1 X99.586 Y94.799 E1.04976
G1 X99.555 Y94.852 E1.05180
G1 X98.895 Y94.852 E1.07359
G1 X98.629 Y94.391 E1.09118
G1 X97.878 Y94.649 E1.11741
G1 X98.020 Y94.895 E1.12677
G1 X97.690 Y95.466 E1.14856
G1 X97.030 Y95.466 E1.17035
G1 X96.865 Y95.181 E1.18123
G1 X96.513 Y95.385 E1.19465
G1 X96.211 Y95.655 E1.20804
G1 X96.460 Y96.086 E1.22447
G1 X96.130 Y96.658 E1.24626
G1 X95.470 Y96.658 E1.26805
G1 X95.388 Y96.517 E1.27341
G1 X95.235 Y96.727 E1.28201
G1 X95.013 Y97.152 E1.29783
G1 X95.044 Y97.152 E1.29885
G1 X95.374 Y97.723 E1.32064
G1 X95.044 Y98.295 E1.34243
G1 X94.513 Y98.295 E1.35998
G1 X94.319 Y98.909 E1.38124
G1 X94.303 Y99.063 E1.38635
G1 X94.580 Y99.063 E1.39550
G1 X94.910 Y99.634 E1.41729
G1 X94.580 Y100.206 E1.43908
G1 X94.239 Y100.206 E1.45035
G1 X94.313 Y101.012 E1.47708
G1 X94.812 Y101.012 E1.49355
G1 X95.142 Y101.583 E1.51534
G1 X94.812 Y102.155 E1.53713
G1 X94.663 Y102.155 E1.54204
G1 X94.998 Y102.795 E1.56589
G1 X95.651 Y102.795 E1.58745
G1 X95.981 Y103.367 E1.60924
G1 X95.725 Y103.811 E1.62617
G1 X96.279 Y104.391 E1.65266
G1 X96.416 Y104.154 E1.66170
G1 X97.076 Y104.154 E1.68349
G1 X97.406 Y104.725 E1.70528
G1 X97.240 Y105.012 E1.71620
G1 X97.646 Y105.246 E1.73167
G1 X97.984 Y105.363 E1.74347
G1 X98.205 Y104.980 E1.75805
G1 X98.865 Y104.980 E1.77984
G1 X99.195 Y105.552 E1.80163
G1 X99.119 Y105.683 E1.80661
G1 X99.849 Y105.753 E1.83081
G1 X99.830 Y105.721 E1.83203
G1 X100.160 Y105.150 E1.85383
G1 X100.820 Y105.150 E1.87562
G1 X101.113 Y105.656 E1.89492
G1 X101.187 Y105.648 E1.89739
G1 X101.847 Y105.421 E1.92043
G1 X101.733 Y105.224 E1.92794
G1 X102.063 Y104.652 E1.94973
G1 X102.723 Y104.652 E1.97152
G1 X102.888 Y104.937 E1.98240
G1 X103.487 Y104.591 E2.00525
G1 X103.583 Y104.512 E2.00936
G1 X103.343 Y104.096 E2.02522
G1 X103.673 Y103.524 E2.04701
G1 X104.333 Y103.524 E2.06880
G1 X104.414 Y103.665 E2.07417
G1 X104.614 Y103.456 E2.08371
G1 X104.765 Y103.248 E2.09219
G1 X104.855 Y103.077 E2.09858
G1 X104.824 Y103.077 E2.09961
G1 X104.494 Y102.505 E2.12140
G1 X104.824 Y101.933 E2.14319
G1 X105.408 Y101.933 E2.16247
G1 X105.640 Y101.197 E2.18796
G1 X105.396 Y101.197 E2.19601
G1 X105.066 Y100.626 E2.21780
G1 X105.396 Y100.054 E2.23959
G1 X105.774 Y100.054 E2.25207
G1 X105.716 Y99.236 E2.27915
G1 X105.274 Y99.236 E2.29373
G1 X104.944 Y98.664 E2.31552
G1 X105.274 Y98.093 E2.33732
G1 X105.424 Y98.093 E2.34226
G1 X105.339 Y97.826 E2.35150
G1 X105.128 Y97.422 E2.36655
G1 X104.499 Y97.422 E2.38731
G1 X104.169 Y96.850 E2.40910
G1 X104.456 Y96.354 E2.42803
G1 X103.927 Y95.799 E2.45334
G1 X103.830 Y95.967 E2.45972
G1 X103.170 Y95.967 E2.48152
G1 X102.840 Y95.395 E2.50331
G1 X103.007 Y95.107 E2.51431
G1 X102.354 Y94.729 E2.53921
G1 X102.286 Y94.705 E2.54158
G1 X102.065 Y95.088 E2.55616
G1 X101.405 Y95.088 E2.57795
G1 X101.075 Y94.516 E2.59974
G1 X101.184 Y94.327 E2.60693
G1 X100.775 Y94.281 E2.62055
G1 E1.62055 F1800.00000
G92 E0
G1 X106.377 Y98.587 F7800.000
G1 E1.00000 F1800.00000
G1 F600
G1 X106.377 Y98.356 E1.00762
G1 X106.446 Y98.261 E1.01150
G1 X106.377 Y98.041 E1.01914
G1 X106.377 Y97.048 E1.05193
G1 X105.999 Y96.326 E1.07884
G1 X105.580 Y95.748 E1.10240
G1 X105.580 Y96.614 E1.13099
G1 X105.406 Y96.509 E1.13771
G1 X105.337 Y95.938 E1.15669
G1 X104.782 Y95.357 E1.18321
G1 X104.782 Y94.852 E1.19989
G1 X103.985 Y94.196 E1.23398
G1 X103.985 Y94.861 E1.25594
G1 X103.901 Y94.871 E1.25876
G1 X103.801 Y94.498 E1.27152
G1 X103.188 Y94.144 E1.29488
G1 X103.188 Y93.540 E1.31481
G1 X102.391 Y92.884 E1.34890
G1 X102.391 Y93.764 E1.37796
G1 X102.273 Y93.723 E1.38210
G1 X101.972 Y93.836 E1.39271
G1 X101.785 Y93.466 E1.40641
G1 X101.594 Y93.444 E1.41275
G1 X101.594 Y93.159 E1.42216
G1 X101.331 Y93.084 E1.43120
G1 X100.797 Y93.033 E1.44891
G1 X100.797 Y93.353 E1.45946
G1 X100.258 Y93.303 E1.47733
G1 X100.000 Y93.437 E1.48692
G1 X100.000 Y92.958 E1.50272
G1 X99.203 Y93.033 E1.52915
G1 X99.203 Y93.619 E1.54848
G1 X98.642 Y93.409 E1.56825
G1 X98.406 Y93.490 E1.57650
G1 X98.406 Y93.159 E1.58745
G1 X97.609 Y93.386 E1.61481
G1 X97.609 Y93.764 E1.62731
G1 X97.165 Y93.917 E1.64280
G1 X97.033 Y94.269 E1.65522
G1 X96.812 Y94.210 E1.66279
G1 X96.812 Y93.733 E1.67852
G1 X96.015 Y94.196 E1.70895
G1 X96.015 Y94.605 E1.72246
G1 X95.701 Y94.856 E1.73571
G1 X95.330 Y95.240 E1.75334
G1 X95.290 Y95.574 E1.76446
G1 X95.218 Y95.565 E1.76686
G1 X95.218 Y94.852 E1.79041
G1 X95.047 Y94.992 E1.79769
G1 X94.723 Y95.332 E1.81319
G1 X94.420 Y95.748 E1.83019
G1 X94.420 Y96.290 E1.84808
G1 X93.952 Y97.185 E1.88142
G1 X94.109 Y97.444 E1.89143
G1 X93.722 Y97.728 E1.90729
G1 X93.623 Y98.041 E1.91811
G1 X93.623 Y97.048 E1.95090
G1 E0.95090 F1800.00000
G92 E0
G1 X93.623 Y102.088 F7800.000
G1 E1.00000 F1800.00000
G1 F600
G1 X93.801 Y101.794 E1.01132
G1 X93.623 Y101.635 E1.01920
G1 X93.623 Y102.088 E1.03416
G1 X93.623 Y102.161 F7800.000
G1 F600
G1 X93.623 Y102.928 E1.05946
G1 X94.001 Y103.650 E1.08637
G1 X94.420 Y104.227 E1.10993
G1 X94.420 Y103.526 E1.13307
G1 X94.740 Y103.720 E1.14541
G1 X94.783 Y103.720 E1.14682
G1 X94.844 Y104.226 E1.16368
G1 X95.218 Y104.618 E1.18155
G1 X95.218 Y105.123 E1.19823
G1 X96.015 Y105.779 E1.23232
G1 X96.015 Y105.354 E1.24637
G1 X96.364 Y105.312 E1.25797
G1 X96.446 Y105.620 E1.26851
G1 X96.812 Y105.832 E1.28246
G1 X96.812 Y106.242 E1.29600
G1 X97.366 Y106.521 E1.31649
G1 X97.609 Y106.590 E1.32482
G1 X97.609 Y106.211 E1.33731
G1 X97.997 Y106.345 E1.35088
G1 X98.351 Y106.212 E1.36335
G1 X98.406 Y106.321 E1.36737
G1 X98.406 Y106.817 E1.38373
G1 X98.669 Y106.892 E1.39277
G1 X99.203 Y106.942 E1.41048
G1 X99.203 Y106.621 E1.42108
G1 X100.000 Y106.696 E1.44751
G1 X100.000 Y107.017 E1.45811
G1 X100.797 Y106.942 E1.48454
G1 X100.797 Y106.532 E1.49808
G1 X100.943 Y106.606 E1.50347
G1 X101.342 Y106.560 E1.51672
G1 X101.594 Y106.485 E1.52542
G1 X101.594 Y106.817 E1.53636
G1 X102.391 Y106.590 E1.56373
G1 X102.391 Y106.211 E1.57622
G1 X102.560 Y106.153 E1.58211
G1 X102.678 Y105.838 E1.59322
G1 X103.019 Y105.929 E1.60489
G1 X103.188 Y105.832 E1.61134
G1 X103.188 Y106.242 E1.62488
G1 X103.980 Y105.784 E1.65507
G1 X103.985 Y105.370 E1.66873
G1 X104.432 Y105.010 E1.68769
G1 X104.505 Y104.607 E1.70121
G1 X104.764 Y104.638 E1.70980
G1 X104.782 Y104.618 E1.71070
G1 X104.782 Y105.123 E1.72737
G1 X104.953 Y104.983 E1.73466
G1 X105.277 Y104.643 E1.75016
G1 X105.580 Y104.227 E1.76715
G1 X105.580 Y103.685 E1.78504
G1 X105.915 Y103.043 E1.80896
G1 X105.774 Y102.811 E1.81793
G1 X106.198 Y102.500 E1.83529
G1 X106.377 Y101.935 E1.85487
G1 X106.377 Y102.928 E1.88766
G1 E0.88766 F1800.00000
G92 E0
G1 X92.826 Y103.302 F7800.000
G1 E1.00000 F1800.00000
G1 F600
G1 X92.999 Y103.539 E1.00968
G1 X92.826 Y103.209 E1.02196
G1 X92.826 Y103.302 E1.02501
;BEFORE_LAYER_CHANGE
;G92 E0.0 # Set the current position to the values specified.
G1 E0.02501 F1800.00000
G92 E0
G1 Z-0.100 F7800.000
;AFTER_LAYER_CHANGE
G1 X98.113 Y99.917 F7800.000
G1 E1.00000 F1800.00000
G1 F600
G1 X98.222 Y99.360 E1.02440
G1 X98.641 Y98.650 E1.05980
G1 X99.352 Y98.218 E1.09558
