; generated by Slic3r 1.3.0 on 2022-06-10 at 06:59:27

; external perimeters extrusion width = 0.44mm (2.03mm^3/s)
; perimeters extrusion width = 0.56mm (3.77mm^3/s)
; infill extrusion width = 0.50mm (6.70mm^3/s)
; solid infill extrusion width = 0.56mm (7.54mm^3/s)
; top infill extrusion width = 0.56mm (6.28mm^3/s)
; support material extrusion width = 0.44mm (5.80mm^3/s)

M107
M190 S50 ; set bed temperature and wait for it to be reached
M104 S205 ; set temperature
G28 ; home all axes
G1 Z5 F5000 ; lift nozzle

; Filament gcode

M109 S205 ; set temperature and wait for it to be reached
G21 ; set units to millimeters
G90 ; use absolute coordinates
M82 ; use absolute distances for extrusion
G92 E0
G1 E-1.00000 F1800.00000
G92 E0
G1 Z1.500 F7800.000
G1 X87.238 Y80.179 F7800.000
G1 E1.00000 F1800.00000
G1 F1080
G1 X89.046 Y78.695 E1.43418
G1 X91.247 Y77.900 E1.86836
G1 X92.452 Y77.794 E2.09296
G1 X103.038 Y77.794 E4.05732
G1 X105.203 Y78.143 E4.46429
G1 X133.271 Y87.430 E9.95053
G1 X135.335 Y88.531 E10.38471
G1 X136.912 Y90.259 E10.81889
G1 X137.820 Y92.416 E11.25307
G1 X137.998 Y93.973 E11.54403
G1 X137.998 Y107.449 E14.04465
G1 X137.936 Y108.394 E14.22040
G1 X137.291 Y110.643 E14.65458
G1 X135.930 Y112.546 E15.08875
G1 X133.357 Y114.152 E15.65175
G1 X109.209 Y122.586 E20.39821
G1 X106.937 Y122.971 E20.82595
G1 X71.059 Y122.971 E27.48371
G1 X68.754 Y122.574 E27.91789
G1 X66.576 Y121.314 E28.38471
G1 X63.277 Y118.489 E29.19073
G1 X61.784 Y116.687 E29.62490
G1 X60.980 Y114.490 E30.05908
G1 X60.956 Y112.151 E30.49326
G1 X61.717 Y109.938 E30.92744
G1 X62.546 Y108.746 E31.19687
G1 X87.198 Y80.225 E38.19266
G1 E37.19266 F1800.00000
G92 E0
G1 X92.878 Y107.449 F7800.000
G1 E1.00000 F1800.00000
G1 F1080
G1 X131.105 Y107.449 E3.64382
G1 X131.105 Y106.772 E3.69065
G1 X92.878 Y106.772 E6.33447
G1 X92.878 Y106.094 E6.38130
G1 X131.105 Y106.094 E9.02512
G1 X131.105 Y105.417 E9.07195
G1 X92.878 Y105.417 E11.71577
G1 X92.878 Y104.740 E11.76260
G1 X131.105 Y104.740 E14.40642
G1 X131.105 Y104.063 E14.45325
G1 X92.878 Y104.063 E17.09707
G1 X92.878 Y103.386 E17.14390
G1 X131.105 Y103.386 E19.78772
G1 X131.105 Y102.709 E19.83455
G1 X92.878 Y102.709 E22.47836
G1 X92.878 Y102.031 E22.52520
G1 X131.105 Y102.031 E25.16901
G1 X131.105 Y101.354 E25.21585
G1 X92.878 Y101.354 E27.85966
G1 X92.878 Y100.677 E27.90650
G1 X131.105 Y100.677 E30.55031
G1 X131.105 Y100.000 E30.59715
G1 X92.878 Y100.000 E33.24096
G1 X92.878 Y99.323 E33.28779
G1 X131.105 Y99.323 E35.93161
G1 X131.105 Y98.646 E35.97844
G1 X92.878 Y98.646 E38.62226
G1 X92.878 Y97.969 E38.66909
G1 X131.105 Y97.969 E41.31291
G1 X131.105 Y97.291 E41.35974
G1 X92.878 Y97.291 E44.00356
G1 X92.878 Y96.614 E44.05039
G1 X131.105 Y96.614 E46.69421
G1 X131.105 Y95.937 E46.74104
G1 X92.878 Y95.937 E49.38486
G1 X92.878 Y95.260 E49.43169
G1 X131.105 Y95.260 E52.07551
G1 X131.105 Y94.583 E52.12234
G1 X92.878 Y94.583 E54.76616
G1 X92.878 Y93.973 E54.80830
G1 X131.105 Y93.973 E57.45212
G1 X131.105 Y94.583 E57.49427
G1 E56.49427 F1800.00000
G92 E0
G1 X108.927 Y112.807 F7800.000
G1 E1.00000 F1800.00000
G1 F1080
G1 X108.927 Y112.580 E1.04213
G1 X107.142 Y110.802 E1.50972
G1 X107.142 Y112.807 E1.88180
G1 X105.551 Y112.807 E2.17688
G1 X105.356 Y113.209 E2.25988
G1 X105.356 Y109.593 E2.93088
G1 X105.119 Y109.435 E2.98377
G1 X105.119 Y110.259 E3.13666
G1 X103.571 Y110.259 E3.42401
G1 X103.571 Y112.589 E3.85651
G1 X101.785 Y112.589 E4.18783
G1 X101.785 Y110.259 E4.62033
G1 X100.000 Y110.259 E4.95165
G1 X100.000 Y112.589 E5.38415
G1 X98.215 Y112.589 E5.71547
G1 X98.215 Y110.259 E6.14797
G1 X96.429 Y110.259 E6.47929
G1 X96.429 Y112.589 E6.91179
G1 X94.644 Y112.589 E7.24311
G1 X94.644 Y110.259 E7.67561
G1 X92.858 Y110.259 E8.00693
G1 X92.858 Y112.589 E8.43943
G1 X91.073 Y112.589 E8.77075
G1 X91.073 Y110.259 E9.20325
G1 X89.288 Y110.259 E9.53457
G1 X89.288 Y112.589 E9.96707
G1 X87.502 Y112.589 E10.29839
G1 X87.502 Y110.259 E10.73089
G1 X85.717 Y110.259 E11.06221
G1 X85.717 Y112.589 E11.49471
G1 X83.931 Y112.589 E11.82603
G1 X83.931 Y110.259 E12.25853
G1 X82.146 Y110.259 E12.58985
G1 X82.146 Y112.589 E13.02235
G1 X80.361 Y112.589 E13.35367
G1 X80.361 Y110.259 E13.78617
G1 X78.575 Y110.259 E14.11749
G1 X78.575 Y112.589 E14.54999
G1 X76.790 Y112.589 E14.88131
G1 X76.790 Y110.259 E15.31381
G1 X75.004 Y110.259 E15.64513
G1 X75.004 Y112.589 E16.07763
G1 X73.430 Y112.589 E16.36982
G1 X73.382 Y113.155 E16.47519
G1 X73.219 Y113.396 E16.52917
G1 X73.219 Y110.259 E17.11134
G1 X72.653 Y110.259 E17.21646
G1 X72.541 Y109.659 E17.32958
G1 X71.434 Y110.400 E17.57675
G1 X71.434 Y112.807 E18.02341
G1 X69.648 Y112.807 E18.35472
G1 X69.648 Y112.003 E18.50388
G1 E17.50388 F1800.00000
G92 E0
G1 X73.219 Y115.632 F7800.000
G1 E1.00000 F1800.00000
G1 F1080
G1 X74.397 Y115.632 E1.21856
G1 X74.323 Y115.247 E1.29122
G1 X73.219 Y115.247 E1.49613
G1 X73.219 Y115.632 E1.56750
G1 E0.56750 F1800.00000
G92 E0
G1 X105.356 Y115.632 F7800.000
G1 E1.00000 F1800.00000
G1 F1080
G1 X106.397 Y115.632 E1.19310
G1 X106.323 Y115.247 E1.26577
G1 X105.356 Y115.247 E1.44523
G1 X105.356 Y115.632 E1.51661
G1 E0.51661 F1800.00000
G92 E0
G1 X101.785 Y92.921 F7800.000
G1 E1.00000 F1800.00000
G1 F1080
G1 X101.785 Y91.603 E1.24455
G1 X100.000 Y91.603 E1.57586
G1 X100.000 Y92.921 E1.82041
G1 X98.215 Y92.921 E2.15173
G1 X98.215 Y91.603 E2.39628
G1 X96.429 Y91.603 E2.72759
G1 X96.429 Y92.921 E2.97214
G1 X94.644 Y92.921 E3.30346
G1 X94.644 Y91.603 E3.54801
G1 E2.54801 F1800.00000
G92 E0
G1 X94.644 Y85.133 F7800.000
G1 E1.00000 F1800.00000
G1 F1080
G1 X94.644 Y89.830 E1.87168
G1 X96.429 Y89.830 E2.20300
G1 X96.429 Y85.133 E3.07468
G1 X98.215 Y85.133 E3.40600
G1 X98.215 Y89.830 E4.27768
G1 X100.000 Y89.830 E4.60900
G1 X100.000 Y85.133 E5.48068
G1 X101.785 Y85.133 E5.81199
G1 X101.785 Y89.830 E6.68368
M106 S255
M104 S200 ; set temperature
M140 S45 ; set bed temperature
G1 E5.68368 F1800.00000
G92 E0
G1 Z1.800 F7800.000
G1 X93.119 Y93.995 F7800.000
G1 E1.00000 F1800.00000
G1 F2106.68
G1 X92.899 Y93.995 E1.01031
G1 X92.899 Y107.680 E1.65143
G1 X93.119 Y107.680 E1.66174
G1 X93.119 Y93.995 E2.30287
G1 X93.884 Y93.995 E2.33868
G1 X93.884 Y107.680 E2.97981
G1 X94.648 Y107.680 E3.01563
G1 X94.648 Y93.995 E3.65676
G1 X95.413 Y93.995 E3.69257
G1 X95.413 Y107.680 E4.33370
G1 X96.177 Y107.680 E4.36952
G1 X96.177 Y93.995 E5.01064
G1 X96.942 Y93.995 E5.04646
G1 X96.942 Y107.680 E5.68759
G1 X97.706 Y107.680 E5.72340
G1 X97.706 Y93.995 E6.36453
G1 X98.471 Y93.995 E6.40035
G1 X98.471 Y107.680 E7.04147
G1 X99.235 Y107.680 E7.07729
G1 X99.235 Y93.995 E7.71842
G1 X100.000 Y93.995 E7.75424
G1 X100.000 Y107.680 E8.39536
G1 X100.765 Y107.680 E8.43118
G1 X100.765 Y93.995 E9.07231
G1 X101.529 Y93.995 E9.10812
G1 X101.529 Y107.680 E9.74925
G1 X102.294 Y107.680 E9.78507
G1 X102.294 Y93.995 E10.42619
G1 X103.058 Y93.995 E10.46201
G1 X103.058 Y107.680 E11.10314
G1 X103.823 Y107.680 E11.13895
G1 X103.823 Y93.995 E11.78008
G1 X104.587 Y93.995 E11.81590
G1 X104.587 Y107.680 E12.45703
G1 X105.352 Y107.680 E12.49284
G1 X105.352 Y93.995 E13.13397
G1 X106.116 Y93.995 E13.16979
G1 X106.116 Y107.680 E13.81091
G1 X106.881 Y107.680 E13.84673
G1 X106.881 Y93.995 E14.48786
G1 X107.645 Y93.995 E14.52367
G1 X107.645 Y107.680 E15.16480
G1 X108.410 Y107.680 E15.20062
G1 X108.410 Y93.995 E15.84174
G1 X109.174 Y93.995 E15.87756
G1 X109.174 Y107.680 E16.51869
G1 X109.939 Y107.680 E16.55451
G1 X109.939 Y93.995 E17.19563
G1 X110.703 Y93.995 E17.23145
G1 X110.703 Y107.680 E17.87258
G1 X111.468 Y107.680 E17.90839
G1 X111.468 Y93.995 E18.54952
G1 X112.232 Y93.995 E18.58534
G1 X112.232 Y107.680 E19.22646
G1 X112.997 Y107.680 E19.26228
G1 X112.997 Y93.995 E19.90341
G1 X113.761 Y93.995 E19.93923
G1 X113.761 Y107.680 E20.58035
G1 X114.526 Y107.680 E20.61617
G1 X114.526 Y93.995 E21.25730
G1 X115.290 Y93.995 E21.29311
G1 X115.290 Y107.680 E21.93424
G1 X116.055 Y107.680 E21.97006
G1 X116.055 Y93.995 E22.61118
G1 X116.819 Y93.995 E22.64700
G1 X116.819 Y107.680 E23.28813
G1 X117.584 Y107.680 E23.32394
G1 X117.584 Y93.995 E23.96507
G1 X118.348 Y93.995 E24.00089
G1 X118.348 Y107.680 E24.64202
G1 X119.113 Y107.680 E24.67783
G1 X119.113 Y93.995 E25.31896
G1 X119.877 Y93.995 E25.35478
G1 X119.877 Y107.680 E25.99590
G1 X120.642 Y107.680 E26.03172
G1 X120.642 Y93.995 E26.67285
G1 X121.406 Y93.995 E26.70866
G1 X121.406 Y107.680 E27.34979
G1 X122.171 Y107.680 E27.38561
G1 X122.171 Y93.995 E28.02673
G1 X122.935 Y93.995 E28.06255
G1 X122.935 Y107.680 E28.70368
G1 X123.700 Y107.680 E28.73950
G1 X123.700 Y93.995 E29.38062
G1 X124.464 Y93.995 E29.41644
G1 X124.464 Y107.680 E30.05757
G1 X125.229 Y107.680 E30.09338
G1 X125.229 Y93.995 E30.73451
G1 X125.993 Y93.995 E30.77033
G1 X125.993 Y107.680 E31.41145
G1 X126.758 Y107.680 E31.44727
G1 X126.758 Y93.995 E32.08840
G1 X127.522 Y93.995 E32.12421
G1 X127.522 Y107.680 E32.76534
G1 X128.287 Y107.680 E32.80116
G1 X128.287 Y93.995 E33.44229
G1 X129.051 Y93.995 E33.47810
G1 X129.051 Y107.680 E34.11923
G1 X129.816 Y107.680 E34.15505
G1 X129.816 Y93.995 E34.79617
G1 X130.580 Y93.995 E34.83199
G1 X130.580 Y107.680 E35.47312
G1 E34.47312 F1800.00000
G92 E0
G1 X107.381 Y110.410 F7800.000
G1 E1.00000 F1800.00000
G1 F2106.68
G1 X104.673 Y108.599 E1.15261
G1 X104.673 Y109.812 E1.20944
G1 X73.023 Y109.812 E2.69220
G1 X72.856 Y108.912 E2.73510
G1 X70.615 Y110.410 E2.86137
G1 X67.760 Y113.253 E3.05012
G1 X72.165 Y113.253 E3.25648
G1 X72.254 Y113.435 E3.26597
G1 X72.398 Y113.646 E3.27792
G1 X72.552 Y113.805 E3.28830
G1 X72.707 Y113.912 E3.29712
G1 X72.998 Y114.027 E3.31179
G1 X73.289 Y113.912 E3.32646
G1 X73.444 Y113.805 E3.33528
G1 X73.599 Y113.646 E3.34566
G1 X73.742 Y113.435 E3.35761
G1 X73.820 Y113.275 E3.36594
G1 X73.840 Y113.036 E3.37721
G1 X104.156 Y113.036 E4.79747
G1 X104.176 Y113.275 E4.80873
G1 X104.254 Y113.435 E4.81707
G1 X104.398 Y113.646 E4.82901
G1 X104.552 Y113.805 E4.83940
G1 X104.707 Y113.912 E4.84821
G1 X104.998 Y114.027 E4.86289
G1 X105.289 Y113.912 E4.87756
G1 X105.444 Y113.805 E4.88638
G1 X105.599 Y113.646 E4.89676
G1 X105.742 Y113.435 E4.90870
G1 X105.831 Y113.253 E4.91820
G1 X110.236 Y113.253 E5.12456
G1 X107.381 Y110.410 E5.31331
G1 X105.539 Y109.863 F7800.000
G1 F2106.68
G1 X105.242 Y109.664 E5.33008
G1 X105.242 Y110.381 E5.36368
G1 X99.942 Y110.381 E5.61195
G1 X99.669 Y110.855 E5.63756
G1 X96.113 Y110.855 E5.80415
G1 X95.840 Y110.381 E5.82976
G1 X89.944 Y110.381 E6.10599
G1 X89.670 Y110.855 E6.13159
G1 X86.115 Y110.855 E6.29819
G1 X85.841 Y110.381 E6.32379
G1 X79.945 Y110.381 E6.60002
G1 X79.672 Y110.855 E6.62563
G1 X76.116 Y110.855 E6.79222
G1 X75.843 Y110.381 E6.81783
G1 X72.551 Y110.381 E6.97205
G1 X72.455 Y109.864 E6.99667
G1 X70.977 Y110.852 E7.07992
G1 X70.007 Y111.819 E7.14409
G1 X70.507 Y112.684 E7.19092
G1 X72.521 Y112.684 E7.28530
G1 X72.747 Y113.149 E7.30951
G1 X72.840 Y113.284 E7.31719
G1 X72.921 Y113.368 E7.32267
G1 X72.998 Y113.415 E7.32690
G1 X73.075 Y113.368 E7.33112
G1 X73.157 Y113.284 E7.33660
G1 X73.262 Y113.122 E7.34567
G1 X73.317 Y112.467 E7.37648
G1 X75.408 Y112.467 E7.47443
G1 X76.116 Y111.241 E7.54076
G1 X79.672 Y111.241 E7.70735
G1 X80.380 Y112.467 E7.77368
G1 X85.407 Y112.467 E8.00919
G1 X86.115 Y111.241 E8.07551
G1 X89.670 Y111.241 E8.24211
G1 X90.378 Y112.467 E8.30843
G1 X95.405 Y112.467 E8.54394
G1 X96.113 Y111.241 E8.61027
G1 X99.669 Y111.241 E8.77686
G1 X100.377 Y112.467 E8.84319
G1 X104.679 Y112.467 E9.04473
G1 X104.734 Y113.122 E9.07553
G1 X104.897 Y113.344 E9.08845
G1 X106.112 Y111.241 E9.20223
G1 X107.409 Y111.241 E9.26301
G1 X107.021 Y110.855 E9.28866
G1 X106.112 Y110.855 E9.33126
G1 X105.539 Y109.863 E9.38490
G1 E8.38490 F1800.00000
G92 E0
G1 X105.511 Y114.801 F7800.000
G1 E1.00000 F1800.00000
G1 F2106.68
G1 X103.304 Y114.801 E1.10339
G1 X103.060 Y116.078 E1.16431
G1 X106.937 Y116.078 E1.34595
G1 X106.692 Y114.801 E1.40687
G1 X105.511 Y114.801 E1.46224
G1 X105.386 Y115.370 F7800.000
G1 F2106.68
G1 X103.774 Y115.370 E1.53774
G1 X103.747 Y115.509 E1.54440
G1 X105.466 Y115.509 E1.62494
G1 X105.386 Y115.370 E1.63250
G1 E0.63250 F1800.00000
G92 E0
G1 X102.469 Y92.798 F7800.000
G1 E1.00000 F1800.00000
G1 F2106.68
G1 X102.469 Y91.725 E1.05027
G1 X100.715 Y91.725 E1.13245
G1 X100.095 Y92.798 E1.19049
G1 X102.469 Y92.798 E1.30170
G1 E0.30170 F1800.00000
G92 E0
G1 X103.038 Y86.492 F7800.000
G1 E1.00000 F1800.00000
G1 F2106.68
G1 X103.038 Y84.687 E1.08457
G1 X93.918 Y84.687 E1.51183
G1 X93.918 Y86.492 E1.59640
G1 X93.258 Y86.492 E1.62732
G1 X93.258 Y84.687 E1.71189
G1 X92.452 Y84.687 E1.74962
G1 X92.452 Y93.367 E2.15630
G1 X93.258 Y93.367 E2.19403
G1 X93.258 Y90.733 E2.31742
G1 X93.512 Y90.733 E2.32934
G1 X93.512 Y90.277 E2.35075
G1 X102.392 Y90.277 E2.76677
G1 X102.392 Y91.157 E2.80800
G1 X93.918 Y91.157 E3.20502
G1 X93.918 Y93.367 E3.30858
G1 X103.038 Y93.367 E3.73585
G1 X103.038 Y90.733 E3.85924
G1 X103.452 Y90.733 E3.87866
G1 X103.452 Y86.492 E4.07738
G1 X103.038 Y86.492 E4.09680
G1 X96.113 Y87.764 F7800.000
G1 F2106.68
G1 X94.670 Y85.264 E4.23204
G1 X94.487 Y85.264 E4.24063
G1 X94.487 Y87.061 E4.32481
G1 X93.021 Y87.061 E4.39346
G1 X93.021 Y89.708 E4.51749
G1 X95.214 Y89.708 E4.62022
G1 X96.113 Y88.150 E4.70449
G1 X99.669 Y88.150 E4.87108
G1 X100.568 Y89.708 E4.95535
G1 X102.883 Y89.708 E5.06380
G1 X102.883 Y87.061 E5.18783
G1 X102.469 Y87.061 E5.20725
G1 X102.469 Y85.264 E5.29143
G1 X101.112 Y85.264 E5.35498
G1 X99.669 Y87.764 E5.49022
G1 X96.113 Y87.764 E5.65681
G1 E4.65681 F1800.00000
G92 E0
G1 X95.687 Y92.798 F7800.000
G1 E1.00000 F1800.00000
G1 F2106.68
G1 X95.068 Y91.725 E1.05804
G1 X94.487 Y91.725 E1.08526
G1 X94.487 Y92.798 E1.13553
G1 X95.687 Y92.798 E1.19177
G1 E0.19177 F1800.00000
G92 E0
G1 X73.486 Y114.801 F7800.000
G1 E1.00000 F1800.00000
G1 F2106.68
G1 X71.304 Y114.801 E1.10222
G1 X71.060 Y116.078 E1.16314
G1 X74.937 Y116.078 E1.34478
G1 X74.692 Y114.801 E1.40570
G1 X73.486 Y114.801 E1.46223
G1 X73.486 Y115.370 F7800.000
G1 F2106.68
G1 X71.774 Y115.370 E1.54242
G1 X71.747 Y115.509 E1.54908
G1 X74.249 Y115.509 E1.66627
G1 X74.222 Y115.370 E1.67293
G1 X73.486 Y115.370 E1.70743
G1 E0.70743 F1800.00000
G92 E0
G1 Z2.100 F7800.000
G1 X92.899 Y107.645 F7800.000
G1 E1.00000 F1800.00000
G1 F2114.64
G1 X131.084 Y107.645 E2.78892
G1 X131.084 Y106.881 E2.82474
G1 X92.899 Y106.881 E4.61366
G1 X92.899 Y106.116 E4.64948
G1 X131.084 Y106.116 E6.43840
G1 X131.084 Y105.352 E6.47422
G1 X92.899 Y105.352 E8.26314
G1 X92.899 Y104.587 E8.29895
G1 X131.084 Y104.587 E10.08788
G1 X131.084 Y103.823 E10.12369
G1 X92.899 Y103.823 E11.91261
G1 X92.899 Y103.058 E11.94843
G1 X131.084 Y103.058 E13.73735
G1 X131.084 Y102.294 E13.77317
G1 X92.899 Y102.294 E15.56209
G1 X92.899 Y101.529 E15.59791
G1 X131.084 Y101.529 E17.38683
G1 X131.084 Y100.765 E17.42265
G1 X92.899 Y100.765 E19.21157
G1 X92.899 Y100.000 E19.24738
G1 X131.084 Y100.000 E21.03631
G1 X131.084 Y99.235 E21.07212
G1 X92.899 Y99.235 E22.86104
G1 X92.899 Y98.471 E22.89686
G1 X131.084 Y98.471 E24.68578
G1 X131.084 Y97.706 E24.72160
G1 X92.899 Y97.706 E26.51052
G1 X92.899 Y96.942 E26.54634
G1 X131.084 Y96.942 E28.33526
G1 X131.084 Y96.177 E28.37108
G1 X92.899 Y96.177 E30.16000
G1 X92.899 Y95.413 E30.19582
G1 X131.084 Y95.413 E31.98474
G1 X131.084 Y94.648 E32.02055
G1 X92.899 Y94.648 E33.80948
G1 X92.899 Y93.995 E33.84009
G1 X131.084 Y93.995 E35.62902
G1 X131.084 Y94.648 E35.65964
G1 E34.65964 F1800.00000
G92 E0
G1 X107.381 Y110.410 F7800.000
G1 E1.00000 F1800.00000
G1 F2114.64
G1 X104.673 Y108.599 E1.15261
G1 X104.673 Y109.812 E1.20944
G1 X73.023 Y109.812 E2.69220
G1 X72.856 Y108.912 E2.73510
G1 X70.615 Y110.410 E2.86137
G1 X67.760 Y113.253 E3.05012
