; generated by Slic3r 1.3.0 on 2022-06-11 at 07:30:58

; external perimeters extrusion width = 0.44mm (2.68mm^3/s)
; perimeters extrusion width = 0.43mm (3.77mm^3/s)
; infill extrusion width = 0.43mm (7.54mm^3/s)
; solid infill extrusion width = 0.43mm (7.54mm^3/s)
; top infill extrusion width = 0.43mm (6.28mm^3/s)
; support material extrusion width = 0.44mm (7.66mm^3/s)

M107
M190 S50 ; set bed temperature and wait for it to be reached
M104 S205 ; set temperature
G28 ; home all axes
G29; Automatic (Bilinear) Bed Leveling probes the bed at some fixed number of points and produces a mesh representing the imperfections across the bed.
G1 Z5 F5000 ; lift nozzle
G92 E0.0 # Set the current position to the values specified.
; Filament gcode

M109 S205 ; set temperature and wait for it to be reached
G21 ; set units to millimeters
G90 ; use absolute coordinates
M82 ; use absolute distances for extrusion
G92 E0
;BEFORE_LAYER_CHANGE
G92 E0.0 # Set the current position to the values specified.
G1 E-1.00000 F1800.00000
G92 E0
G1 Z0.350 F7800.000
;AFTER_LAYER_CHANGE
G1 X87.759 Y79.623 F7800.000
G1 E1.00000 F1800.00000
G1 F1080
G1 X89.634 Y78.303 E1.20854
G1 X92.452 Y77.674 E1.47107
G1 X103.452 Y77.674 E2.47130
G1 X105.642 Y78.046 E2.67322
G1 X133.279 Y87.723 E5.33584
G1 X135.279 Y88.844 E5.54438
G1 X136.778 Y90.580 E5.75292
G1 X137.595 Y92.723 E5.96147
G1 X137.714 Y93.975 E6.07586
G1 X137.714 Y107.649 E7.31920
G1 X137.317 Y109.908 E7.52774
G1 X136.174 Y111.896 E7.73629
G1 X134.421 Y113.375 E7.94483
G1 X133.189 Y113.932 E8.06782
G1 X108.350 Y122.231 E10.44912
G1 X106.251 Y122.573 E10.64252
G1 X71.745 Y122.573 E13.78008
G1 X69.487 Y122.176 E13.98862
G1 X67.498 Y121.032 E14.19716
G1 X66.279 Y119.690 E14.36209
G1 X65.345 Y118.326 E14.51242
G1 X64.442 Y116.406 E14.70532
G1 X63.422 Y112.841 E15.04251
G1 X63.171 Y110.768 E15.23233
G1 X63.327 Y106.638 E15.60820
G1 X63.809 Y104.395 E15.81674
G1 X65.254 Y102.212 E16.05481
G1 X87.717 Y79.665 E18.94875
G1 E17.94875 F1800.00000
G92 E0
G1 X92.894 Y107.649 F7800.000
G1 E1.00000 F1800.00000
G1 F1080
G1 X131.089 Y107.649 E3.02802
G1 X131.089 Y106.884 E3.06864
G1 X92.894 Y106.884 E5.09666
G1 X92.894 Y106.119 E5.13727
G1 X131.089 Y106.119 E7.16530
G1 X131.089 Y105.354 E7.20591
G1 X92.894 Y105.354 E9.23394
G1 X92.894 Y104.589 E9.27455
G1 X131.089 Y104.589 E11.30257
G1 X131.089 Y103.824 E11.34319
G1 X92.894 Y103.824 E13.37121
G1 X92.894 Y103.060 E13.41182
G1 X131.089 Y103.060 E15.43985
G1 X131.089 Y102.295 E15.48046
G1 X92.894 Y102.295 E17.50848
G1 X92.894 Y101.530 E17.54910
G1 X131.089 Y101.530 E19.57712
G1 X131.089 Y100.765 E19.61773
G1 X92.894 Y100.765 E21.64576
G1 X92.894 Y100.000 E21.68637
G1 X131.089 Y100.000 E23.71440
G1 X131.089 Y99.235 E23.75501
G1 X92.894 Y99.235 E25.78303
G1 X92.894 Y98.470 E25.82365
G1 X131.089 Y98.470 E27.85167
G1 X131.089 Y97.705 E27.89228
G1 X92.894 Y97.705 E29.92031
G1 X92.894 Y96.940 E29.96092
G1 X131.089 Y96.940 E31.98894
G1 X131.089 Y96.176 E32.02956
G1 X92.894 Y96.176 E34.05758
G1 X92.894 Y95.411 E34.09819
G1 X131.089 Y95.411 E36.12622
G1 X131.089 Y94.646 E36.16683
G1 X92.894 Y94.646 E38.19485
G1 X92.894 Y93.975 E38.23046
G1 X131.089 Y93.975 E40.25848
G1 X131.089 Y94.646 E40.29409
G1 E39.29409 F1800.00000
G92 E0
G1 X107.499 Y108.879 F7800.000
G1 E1.00000 F1800.00000
G1 F1080
G1 X107.499 Y108.606 E1.02488
G1 X106.249 Y108.606 E1.13852
G1 X106.249 Y112.897 E1.52875
G1 X105.558 Y112.897 E1.59160
G1 X105.508 Y113.491 E1.64578
G1 X104.999 Y114.256 E1.72933
G1 X104.999 Y108.606 E2.24311
G1 X103.749 Y108.606 E2.35675
G1 X103.749 Y112.897 E2.74698
G1 X102.500 Y112.897 E2.86062
G1 X102.500 Y108.606 E3.25084
G1 X101.250 Y108.606 E3.36448
G1 X101.250 Y112.897 E3.75471
G1 X100.000 Y112.897 E3.86835
G1 X100.000 Y108.606 E4.25857
G1 X98.750 Y108.606 E4.37221
G1 X98.750 Y112.897 E4.76243
G1 X97.500 Y112.897 E4.87608
G1 X97.500 Y108.606 E5.26630
G1 X96.251 Y108.606 E5.37994
G1 X96.251 Y112.897 E5.77016
G1 X95.001 Y112.897 E5.88380
G1 X95.001 Y108.606 E6.27403
G1 X93.751 Y108.606 E6.38767
G1 X93.751 Y112.897 E6.77789
G1 X92.501 Y112.897 E6.89153
G1 X92.501 Y108.606 E7.28175
G1 X91.959 Y108.606 E7.33105
G1 X91.959 Y105.868 E7.57993
G1 X91.252 Y105.868 E7.64428
G1 X91.252 Y112.897 E8.28339
G1 X90.002 Y112.897 E8.39703
G1 X90.002 Y105.868 E9.03613
G1 X88.752 Y105.868 E9.14978
G1 X88.752 Y112.897 E9.78888
G1 X87.502 Y112.897 E9.90252
G1 X87.502 Y105.868 E10.54163
G1 X86.536 Y105.869 E10.62948
G1 X86.536 Y107.479 E10.77593
G1 X86.252 Y107.479 E10.80171
G1 X86.252 Y112.897 E11.29438
G1 X85.003 Y112.897 E11.40802
G1 X85.003 Y105.869 E12.04712
G1 X83.753 Y105.869 E12.16077
G1 X83.753 Y112.897 E12.79987
G1 X82.503 Y112.897 E12.91351
G1 X82.503 Y105.869 E13.55262
G1 X81.253 Y105.869 E13.66626
G1 X81.253 Y112.897 E14.30537
G1 X80.004 Y112.897 E14.41901
G1 X80.004 Y105.869 E15.05811
G1 X78.754 Y105.869 E15.17176
G1 X78.754 Y112.897 E15.81086
G1 X77.504 Y112.897 E15.92450
G1 X77.504 Y105.869 E16.56361
G1 X76.536 Y105.869 E16.65162
G1 X76.536 Y107.479 E16.79807
G1 X76.254 Y107.479 E16.82369
G1 X76.254 Y112.897 E17.31636
G1 X75.004 Y112.897 E17.43000
G1 X75.004 Y105.869 E18.06910
G1 X73.755 Y105.869 E18.18274
G1 X73.755 Y112.897 E18.82185
G1 X73.558 Y112.897 E18.83976
G1 X73.508 Y113.491 E18.89395
G1 X72.998 Y114.258 E18.97766
G1 X72.505 Y113.525 E19.05794
G1 X72.505 Y105.921 E19.74935
G1 X72.212 Y105.958 E19.77621
G1 X71.473 Y106.243 E19.84818
G1 X71.255 Y106.389 E19.87206
G1 X71.255 Y112.897 E20.46381
G1 X70.688 Y112.897 E20.51536
G1 X70.158 Y111.149 E20.68144
G1 X70.509 Y110.915 E20.71985
G1 X70.354 Y110.616 E20.75047
G1 X70.509 Y110.512 E20.76744
G1 X70.354 Y110.213 E20.79806
G1 X70.509 Y110.109 E20.81503
G1 X70.354 Y109.810 E20.84565
G1 X70.509 Y109.707 E20.86263
G1 X70.354 Y109.408 E20.89325
G1 X70.509 Y109.304 E20.91022
G1 X70.354 Y109.005 E20.94084
G1 X70.509 Y108.901 E20.95782
G1 X70.354 Y108.603 E20.98844
G1 X70.509 Y108.499 E21.00541
G1 X70.354 Y108.200 E21.03603
G1 X70.509 Y108.096 E21.05301
G1 X70.354 Y107.797 E21.08363
G1 X70.509 Y107.693 E21.10060
G1 X70.354 Y107.395 E21.13122
G1 X70.509 Y107.291 E21.14820
G1 X70.354 Y106.992 E21.17882
G1 X71.255 Y106.389 E21.27741
G1 E20.27741 F1800.00000
G92 E0
G1 X72.505 Y114.896 F7800.000
G1 E1.00000 F1800.00000
G1 F1080
G1 X72.505 Y115.635 E1.06723
G1 X73.755 Y115.635 F7800.000
G1 F1080
G1 X74.086 Y115.635 E1.09736
G1 X74.592 Y114.896 E1.17883
G1 X73.755 Y114.896 E1.25497
G1 X73.755 Y115.635 E1.32221
G1 E0.32221 F1800.00000
G92 E0
G1 X103.749 Y114.896 F7800.000
G1 E1.00000 F1800.00000
G1 F1080
G1 X103.749 Y115.400 E1.04587
G1 X103.910 Y115.635 E1.07176
G1 X104.999 Y115.635 E1.17077
G1 X104.999 Y114.896 E1.23800
G1 X106.249 Y114.896 E1.35165
G1 X106.249 Y115.397 E1.39723
G1 E0.39723 F1800.00000
G92 E0
G1 X107.499 Y112.269 F7800.000
G1 E1.00000 F1800.00000
G1 F1080
G1 X107.838 Y111.149 E1.10636
G1 X107.499 Y110.922 E1.14351
G1 X107.499 Y112.269 E1.26593
G1 X107.499 Y110.892 F7800.000
G1 F1080
G1 X107.642 Y110.616 E1.29429
G1 X107.499 Y110.520 E1.31000
G1 X107.499 Y110.892 E1.34391
G1 X107.499 Y110.490 F7800.000
G1 F1080
G1 X107.642 Y110.213 E1.37226
G1 X107.499 Y110.117 E1.38797
G1 X107.499 Y110.490 E1.42187
G1 X107.499 Y110.087 F7800.000
G1 F1080
G1 X107.642 Y109.810 E1.45023
G1 X107.499 Y109.714 E1.46594
G1 X107.499 Y110.087 E1.49984
G1 X107.499 Y109.685 F7800.000
G1 F1080
G1 X107.642 Y109.408 E1.52820
G1 X107.499 Y109.312 E1.54391
G1 X107.499 Y109.685 E1.57782
G1 X107.499 Y109.282 F7800.000
G1 F1080
G1 X107.642 Y109.005 E1.60617
G1 X107.499 Y108.909 E1.62189
G1 X107.499 Y109.282 E1.65579
G1 E0.65579 F1800.00000
G92 E0
G1 X102.500 Y93.040 F7800.000
G1 E1.00000 F1800.00000
G1 F1080
G1 X102.500 Y91.081 E1.17816
G1 X101.250 Y91.081 E1.29181
G1 X101.250 Y93.040 E1.46997
G1 X100.000 Y93.040 E1.58361
G1 X100.000 Y91.081 E1.76178
G1 X98.750 Y91.081 E1.87542
G1 X98.750 Y93.040 E2.05358
G1 X97.500 Y93.040 E2.16723
G1 X97.500 Y91.081 E2.34539
G1 E1.34539 F1800.00000
G92 E0
G1 X102.500 Y89.576 F7800.000
G1 E1.00000 F1800.00000
G1 F1080
G1 X102.500 Y84.611 E1.45148
G1 X101.250 Y84.611 E1.56512
G1 X101.250 Y89.576 E2.01659
G1 X100.000 Y89.576 E2.13023
G1 X100.000 Y84.611 E2.58171
G1 X98.750 Y84.611 E2.69535
G1 X98.750 Y89.576 E3.14683
G1 X97.500 Y89.576 E3.26047
G1 X97.500 Y84.611 E3.71194
G1 X96.536 Y84.611 E3.79964
G1 X96.536 Y88.056 E4.11286
G1 X96.251 Y88.056 E4.13881
G1 X96.251 Y89.169 E4.24005
G1 X95.251 Y89.169 E4.33094
G1 X95.251 Y93.040 E4.68295
G1 X95.001 Y93.040 E4.70571
G1 X95.001 Y84.611 E5.47219
G1 X93.751 Y84.611 E5.58583
G1 X93.751 Y93.040 E6.35231
G1 X92.765 Y93.040 E6.44200
G1 X92.765 Y84.611 E7.20848
G1 X93.751 Y84.611 E7.29817
M106 S255
M104 S200 ; set temperature
M140 S45 ; set bed temperature
;BEFORE_LAYER_CHANGE
G92 E0.0 # Set the current position to the values specified.
G1 E6.29817 F1800.00000
G92 E0
G1 Z0.650 F7800.000
;AFTER_LAYER_CHANGE
G1 X92.914 Y93.981 F7800.000
G1 E1.00000 F1800.00000
G1 F2172.85
G1 X92.914 Y107.665 E1.64113
G1 X93.701 Y107.665 E1.67802
G1 X93.701 Y93.981 E2.31914
G1 X94.488 Y93.981 E2.35603
G1 X94.488 Y107.665 E2.99716
G1 X95.276 Y107.665 E3.03405
G1 X95.276 Y93.981 E3.67517
G1 X96.063 Y93.981 E3.71206
G1 X96.063 Y107.665 E4.35319
G1 X96.850 Y107.665 E4.39008
G1 X96.850 Y93.981 E5.03120
G1 X97.638 Y93.981 E5.06809
G1 X97.638 Y107.665 E5.70922
G1 X98.425 Y107.665 E5.74611
G1 X98.425 Y93.981 E6.38723
G1 X99.213 Y93.981 E6.42412
G1 X99.213 Y107.665 E7.06525
G1 X100.000 Y107.665 E7.10214
G1 X100.000 Y93.981 E7.74326
G1 X100.787 Y93.981 E7.78015
G1 X100.787 Y107.665 E8.42128
G1 X101.575 Y107.665 E8.45817
G1 X101.575 Y93.981 E9.09929
G1 X102.362 Y93.981 E9.13618
G1 X102.362 Y107.665 E9.77731
G1 X103.150 Y107.665 E9.81420
G1 X103.150 Y93.981 E10.45532
G1 X103.937 Y93.981 E10.49221
G1 X103.937 Y107.665 E11.13334
G1 X104.724 Y107.665 E11.17023
G1 X104.724 Y93.981 E11.81135
G1 X105.512 Y93.981 E11.84824
G1 X105.512 Y107.665 E12.48937
G1 X106.299 Y107.665 E12.52626
G1 X106.299 Y93.981 E13.16738
G1 X107.086 Y93.981 E13.20427
G1 X107.086 Y107.665 E13.84540
G1 X107.874 Y107.665 E13.88229
G1 X107.874 Y93.981 E14.52341
G1 X108.661 Y93.981 E14.56030
G1 X108.661 Y107.665 E15.20143
G1 X109.449 Y107.665 E15.23831
G1 X109.449 Y93.981 E15.87944
G1 X110.236 Y93.981 E15.91633
G1 X110.236 Y107.665 E16.55746
G1 X111.023 Y107.665 E16.59434
G1 X111.023 Y93.981 E17.23547
G1 X111.811 Y93.981 E17.27236
G1 X111.811 Y107.665 E17.91349
G1 X112.598 Y107.665 E17.95037
G1 X112.598 Y93.981 E18.59150
G1 X113.385 Y93.981 E18.62839
G1 X113.385 Y107.665 E19.26952
G1 X114.173 Y107.665 E19.30640
G1 X114.173 Y93.981 E19.94753
G1 X114.960 Y93.981 E19.98442
G1 X114.960 Y107.665 E20.62555
G1 X115.748 Y107.665 E20.66243
G1 X115.748 Y93.981 E21.30356
G1 X116.535 Y93.981 E21.34045
G1 X116.535 Y107.665 E21.98158
G1 X117.322 Y107.665 E22.01846
G1 X117.322 Y93.981 E22.65959
G1 X118.110 Y93.981 E22.69648
G1 X118.110 Y107.665 E23.33761
G1 X118.897 Y107.665 E23.37449
G1 X118.897 Y93.981 E24.01562
G1 X119.685 Y93.981 E24.05251
G1 X119.685 Y107.665 E24.69364
G1 X120.472 Y107.665 E24.73052
G1 X120.472 Y93.981 E25.37165
G1 X121.259 Y93.981 E25.40854
G1 X121.259 Y107.665 E26.04967
G1 X122.047 Y107.665 E26.08655
G1 X122.047 Y93.981 E26.72768
G1 X122.834 Y93.981 E26.76457
G1 X122.834 Y107.665 E27.40570
G1 X123.621 Y107.665 E27.44258
G1 X123.621 Y93.981 E28.08371
G1 X124.409 Y93.981 E28.12060
G1 X124.409 Y107.665 E28.76173
G1 X125.196 Y107.665 E28.79861
G1 X125.196 Y93.981 E29.43974
G1 X125.984 Y93.981 E29.47663
G1 X125.984 Y107.665 E30.11776
G1 X126.771 Y107.665 E30.15464
G1 X126.771 Y93.981 E30.79577
G1 X127.558 Y93.981 E30.83266
G1 X127.558 Y107.665 E31.47379
G1 X128.346 Y107.665 E31.51067
G1 X128.346 Y93.981 E32.15180
G1 X129.133 Y93.981 E32.18869
G1 X129.133 Y107.665 E32.82982
G1 X129.920 Y107.665 E32.86670
G1 X129.920 Y93.981 E33.50783
G1 X130.708 Y93.981 E33.54472
G1 X130.708 Y107.665 E34.18585
G1 E33.18585 F1800.00000
G92 E0
G1 X105.849 Y110.669 F7800.000
G1 E1.00000 F1800.00000
G1 F2172.85
G1 X104.799 Y108.851 E1.09833
G1 X100.493 Y108.851 E1.30009
G1 X99.443 Y110.669 E1.39842
G1 X95.924 Y110.669 E1.56327
G1 X94.875 Y108.851 E1.66160
G1 X91.714 Y108.851 E1.80971
G1 X91.714 Y108.169 E1.84168
G1 X90.962 Y108.169 E1.87688
G1 X89.519 Y110.669 E2.01212
G1 X86.000 Y110.669 E2.17697
G1 X84.557 Y108.169 E2.31221
G1 X81.038 Y108.169 E2.47706
G1 X79.595 Y110.669 E2.61231
G1 X76.076 Y110.669 E2.77716
G1 X74.633 Y108.169 E2.91240
G1 X71.114 Y108.169 E3.07725
G1 X70.741 Y108.815 E3.11220
G1 X70.828 Y108.983 E3.12109
G1 X70.673 Y109.087 E3.12984
G1 X70.828 Y109.386 E3.14562
G1 X70.673 Y109.490 E3.15436
G1 X70.828 Y109.789 E3.17014
G1 X70.673 Y109.892 E3.17888
G1 X70.828 Y110.191 E3.19466
G1 X70.673 Y110.295 E3.20340
G1 X70.828 Y110.594 E3.21918
G1 X70.673 Y110.698 E3.22792
G1 X70.828 Y110.997 E3.24370
G1 X70.446 Y111.252 E3.26526
G1 X70.870 Y112.651 E3.33376
G1 X72.664 Y112.651 E3.41781
G1 X72.729 Y113.425 E3.45417
G1 X72.800 Y113.534 E3.46026
G1 X73.196 Y113.534 E3.47879
G1 X73.259 Y113.442 E3.48399
G1 X73.332 Y112.651 E3.52119
G1 X75.142 Y112.651 E3.60599
G1 X76.076 Y111.034 E3.69350
G1 X79.595 Y111.034 E3.85836
G1 X80.529 Y112.651 E3.94587
G1 X85.066 Y112.651 E4.15845
G1 X86.000 Y111.034 E4.24597
G1 X89.519 Y111.034 E4.41082
G1 X90.453 Y112.651 E4.49833
G1 X94.990 Y112.651 E4.71091
G1 X95.924 Y111.034 E4.79843
G1 X99.443 Y111.034 E4.96328
G1 X100.377 Y112.651 E5.05080
G1 X104.664 Y112.651 E5.25164
G1 X104.696 Y113.030 E5.26944
G1 X105.849 Y111.034 E5.37745
G1 X107.223 Y111.034 E5.44185
G1 X107.168 Y110.997 E5.44499
G1 X107.323 Y110.698 E5.46076
G1 X107.280 Y110.669 E5.46319
G1 X105.849 Y110.669 E5.53025
G1 E4.53025 F1800.00000
G92 E0
G1 X105.123 Y115.142 F7800.000
G1 E1.00000 F1800.00000
G1 F2172.85
G1 X103.870 Y115.142 E1.05871
G1 X104.040 Y115.390 E1.07280
G1 X105.266 Y115.390 E1.13026
G1 X105.123 Y115.142 E1.14368
G1 E0.14368 F1800.00000
G92 E0
G1 X92.272 Y108.293 F7800.000
G1 E1.00000 F1800.00000
G1 F2172.85
G1 X92.272 Y105.556 E1.12823
G1 X86.224 Y105.556 E1.41158
G1 X86.224 Y107.167 E1.48703
G1 X85.344 Y107.167 E1.52826
G1 X85.344 Y105.556 E1.60371
G1 X76.224 Y105.556 E2.03098
G1 X76.224 Y107.167 E2.10643
G1 X75.564 Y107.167 E2.13735
G1 X75.564 Y106.764 E2.15621
G1 X75.344 Y106.764 E2.16652
G1 X75.344 Y105.556 E2.22311
G1 X72.904 Y105.556 E2.33741
G1 X72.135 Y105.653 E2.37372
G1 X71.329 Y105.964 E2.41421
G1 X69.948 Y106.888 E2.49204
G1 X70.103 Y107.187 E2.50782
G1 X69.948 Y107.290 E2.51656
G1 X70.103 Y107.589 E2.53234
G1 X69.948 Y107.693 E2.54108
G1 X70.103 Y107.992 E2.55686
G1 X69.948 Y108.096 E2.56561
G1 X70.103 Y108.394 E2.58138
G1 X69.948 Y108.498 E2.59013
G1 X70.103 Y108.797 E2.60590
G1 X69.948 Y108.901 E2.61465
G1 X70.103 Y109.200 E2.63043
G1 X69.948 Y109.303 E2.63917
G1 X70.103 Y109.602 E2.65495
G1 X69.948 Y109.706 E2.66369
G1 X70.103 Y110.005 E2.67947
G1 X69.948 Y110.109 E2.68821
G1 X70.103 Y110.408 E2.70399
G1 X69.948 Y110.511 E2.71273
G1 X70.103 Y110.810 E2.72851
G1 X69.791 Y111.018 E2.74605
G1 X70.456 Y113.209 E2.85333
G1 X72.151 Y113.210 E2.93272
G1 X72.182 Y113.575 E2.94990
G1 X72.254 Y113.723 E2.95761
G1 X72.843 Y114.584 E3.00646
G1 X70.812 Y114.584 E3.10162
G1 X71.745 Y115.948 E3.17907
G1 X74.251 Y115.948 E3.29644
G1 X75.185 Y114.584 E3.37390
G1 X73.154 Y114.584 E3.46905
G1 X73.742 Y113.723 E3.51790
G1 X73.814 Y113.575 E3.52561
G1 X73.845 Y113.210 E3.54279
G1 X104.151 Y113.210 E4.96261
G1 X104.182 Y113.575 E4.97980
G1 X104.254 Y113.723 E4.98750
G1 X104.843 Y114.584 E5.03636
G1 X102.812 Y114.584 E5.13151
G1 X103.745 Y115.948 E5.20897
G1 X106.251 Y115.948 E5.32634
G1 X107.185 Y114.584 E5.40379
