; generated by Slic3r 1.3.0 on 2022-06-01 at 22:53:19

; external perimeters extrusion width = 0.44mm (1.67mm^3/s)
; perimeters extrusion width = 0.56mm (3.10mm^3/s)
; infill extrusion width = 0.50mm (5.48mm^3/s)
; solid infill extrusion width = 0.56mm (6.20mm^3/s)
; top infill extrusion width = 0.56mm (5.17mm^3/s)
; support material extrusion width = 0.44mm (4.76mm^3/s)

M107
M190 S55 ; set bed temperature and wait for it to be reached
M104 S205 ; set temperature
G28 ; home all axes
G1 Z5 F5000 ; lift nozzle

; Filament gcode

M109 S205 ; set temperature and wait for it to be reached
G21 ; set units to millimeters
G90 ; use absolute coordinates
M82 ; use absolute distances for extrusion
G92 E0
G1 E-1.00000 F1800.00000
G92 E0
G1 Z0.650 F7800.000
G1 X77.482 Y87.740 F7800.000
G1 E1.00000 F1800.00000
G1 F1080
G1 X79.054 Y86.694 E1.17163
G1 X79.611 Y86.429 E1.22778
G1 X82.460 Y85.785 E1.49335
G1 X117.540 Y85.785 E4.68320
G1 X120.389 Y86.429 E4.94877
G1 X120.946 Y86.694 E5.00492
G1 X122.815 Y88.024 E5.21346
G1 X124.118 Y89.911 E5.42200
G1 X124.723 Y92.675 E5.67928
G1 X124.723 Y107.325 E7.01133
G1 X124.326 Y109.583 E7.21987
G1 X123.182 Y111.572 E7.42841
G1 X120.946 Y113.306 E7.68569
G1 X120.389 Y113.571 E7.74184
G1 X117.716 Y114.213 E7.99184
G1 X102.235 Y114.623 E9.39994
G1 X97.572 Y114.623 E9.82393
G1 X82.282 Y114.213 E11.21476
G1 X79.611 Y113.571 E11.46456
G1 X79.054 Y113.306 E11.52071
G1 X77.185 Y111.976 E11.72925
G1 X75.882 Y110.089 E11.93780
G1 X75.335 Y108.193 E12.11725
G1 X74.932 Y105.148 E12.39651
G1 X74.875 Y104.280 E12.47560
G1 X74.875 Y95.440 E13.27941
G1 X74.944 Y94.486 E13.36640
G1 X75.347 Y91.721 E13.62043
G1 X76.065 Y89.543 E13.82897
G1 X77.445 Y87.788 E14.03206
G1 E13.03206 F1800.00000
G92 E0
G1 X81.902 Y107.325 F7800.000
G1 E1.00000 F1800.00000
G1 F1080
G1 X118.098 Y107.325 E2.92183
G1 X118.098 Y106.592 E2.96072
G1 X81.902 Y106.592 E4.88256
G1 X81.902 Y105.860 E4.92145
G1 X118.098 Y105.860 E6.84328
G1 X118.098 Y105.127 E6.88217
G1 X81.902 Y105.127 E8.80400
G1 X81.902 Y104.395 E8.84289
G1 X118.098 Y104.395 E10.76473
G1 X118.098 Y103.662 E10.80362
G1 X81.902 Y103.662 E12.72545
G1 X81.902 Y102.930 E12.76434
G1 X118.098 Y102.930 E14.68617
G1 X118.098 Y102.197 E14.72507
G1 X81.902 Y102.197 E16.64690
G1 X81.902 Y101.465 E16.68579
G1 X118.098 Y101.465 E18.60762
G1 X118.098 Y100.732 E18.64651
G1 X81.902 Y100.732 E20.56835
G1 X81.902 Y100.000 E20.60724
G1 X118.098 Y100.000 E22.52907
G1 X118.098 Y99.268 E22.56796
G1 X81.902 Y99.268 E24.48979
G1 X81.902 Y98.535 E24.52868
G1 X118.098 Y98.535 E26.45052
G1 X118.098 Y97.803 E26.48941
G1 X81.902 Y97.803 E28.41124
G1 X81.902 Y97.070 E28.45013
G1 X118.098 Y97.070 E30.37196
G1 X118.098 Y96.338 E30.41085
G1 X81.902 Y96.338 E32.33269
G1 X81.902 Y95.605 E32.37158
G1 X118.098 Y95.605 E34.29341
G1 X118.098 Y94.873 E34.33230
G1 X81.902 Y94.873 E36.25413
G1 X81.902 Y94.140 E36.29303
G1 X118.098 Y94.140 E38.21486
G1 X118.098 Y93.408 E38.25375
G1 X81.902 Y93.408 E40.17558
G1 X81.902 Y92.675 E40.21447
G1 X118.098 Y92.675 E42.13631
M106 S255
M104 S200 ; set temperature
M140 S50 ; set bed temperature
G1 E41.13631 F1800.00000
G92 E0
G1 Z0.930 F7800.000
G1 X117.540 Y107.590 F7800.000
G1 E1.00000 F1800.00000
G1 F1497.11
G1 X117.540 Y92.410 E1.67136
G1 X116.778 Y92.410 E1.70509
G1 X116.778 Y107.590 E2.37644
G1 X116.015 Y107.590 E2.41017
G1 X116.015 Y92.410 E3.08153
G1 X115.252 Y92.410 E3.11526
G1 X115.252 Y107.590 E3.78662
G1 X114.490 Y107.590 E3.82034
G1 X114.490 Y92.410 E4.49170
G1 X113.727 Y92.410 E4.52543
G1 X113.727 Y107.590 E5.19679
G1 X112.964 Y107.590 E5.23051
G1 X112.964 Y92.410 E5.90187
G1 X112.202 Y92.410 E5.93560
G1 X112.202 Y107.590 E6.60696
G1 X111.439 Y107.590 E6.64069
G1 X111.439 Y92.410 E7.31204
G1 X110.677 Y92.410 E7.34577
G1 X110.677 Y107.590 E8.01713
G1 X109.914 Y107.590 E8.05086
G1 X109.914 Y92.410 E8.72222
G1 X109.151 Y92.410 E8.75594
G1 X109.151 Y107.590 E9.42730
G1 X108.389 Y107.590 E9.46103
G1 X108.389 Y92.410 E10.13239
G1 X107.626 Y92.410 E10.16611
G1 X107.626 Y107.590 E10.83747
G1 X106.864 Y107.590 E10.87120
G1 X106.864 Y92.410 E11.54256
G1 X106.101 Y92.410 E11.57629
G1 X106.101 Y107.590 E12.24764
G1 X105.338 Y107.590 E12.28137
G1 X105.338 Y92.410 E12.95273
G1 X104.576 Y92.410 E12.98646
G1 X104.576 Y107.590 E13.65782
G1 X103.813 Y107.590 E13.69154
G1 X103.813 Y92.410 E14.36290
G1 X103.050 Y92.410 E14.39663
G1 X103.050 Y107.590 E15.06799
G1 X102.288 Y107.590 E15.10171
G1 X102.288 Y92.410 E15.77307
G1 X101.525 Y92.410 E15.80680
G1 X101.525 Y107.590 E16.47816
G1 X100.763 Y107.590 E16.51189
G1 X100.763 Y92.410 E17.18324
G1 X100.000 Y92.410 E17.21697
G1 X100.000 Y107.590 E17.88833
G1 X99.237 Y107.590 E17.92206
G1 X99.237 Y92.410 E18.59342
G1 X98.475 Y92.410 E18.62714
G1 X98.475 Y107.590 E19.29850
G1 X97.712 Y107.590 E19.33223
G1 X97.712 Y92.410 E20.00359
G1 X96.950 Y92.410 E20.03731
G1 X96.950 Y107.590 E20.70867
G1 X96.187 Y107.590 E20.74240
G1 X96.187 Y92.410 E21.41376
G1 X95.424 Y92.410 E21.44749
G1 X95.424 Y107.590 E22.11884
G1 X94.662 Y107.590 E22.15257
G1 X94.662 Y92.410 E22.82393
G1 X93.899 Y92.410 E22.85766
G1 X93.899 Y107.590 E23.52902
G1 X93.136 Y107.590 E23.56274
G1 X93.136 Y92.410 E24.23410
G1 X92.374 Y92.410 E24.26783
G1 X92.374 Y107.590 E24.93919
G1 X91.611 Y107.590 E24.97292
G1 X91.611 Y92.410 E25.64427
G1 X90.849 Y92.410 E25.67800
G1 X90.849 Y107.590 E26.34936
G1 X90.086 Y107.590 E26.38309
G1 X90.086 Y92.410 E27.05445
G1 X89.323 Y92.410 E27.08817
G1 X89.323 Y107.590 E27.75953
G1 X88.561 Y107.590 E27.79326
G1 X88.561 Y92.410 E28.46462
G1 X87.798 Y92.410 E28.49834
G1 X87.798 Y107.590 E29.16970
G1 X87.036 Y107.590 E29.20343
G1 X87.036 Y92.410 E29.87479
G1 X86.273 Y92.410 E29.90852
G1 X86.273 Y107.590 E30.57987
G1 X85.510 Y107.590 E30.61360
G1 X85.510 Y92.410 E31.28496
G1 X84.748 Y92.410 E31.31869
G1 X84.748 Y107.590 E31.99005
G1 X83.985 Y107.590 E32.02377
G1 X83.985 Y92.410 E32.69513
G1 X83.222 Y92.410 E32.72886
G1 X83.222 Y107.590 E33.40022
G1 X82.460 Y107.590 E33.43394
G1 X82.460 Y92.410 E34.10530
G1 E33.10530 F1800.00000
G92 E0
G1 Z1.200 F7800.000
G1 X81.911 Y106.902 F7800.000
G1 E1.00000 F1800.00000
G1 F1402.38
G1 X118.089 Y106.902 E2.55158
G1 X118.089 Y106.135 E2.58447
G1 X81.911 Y106.135 E4.13604
G1 X81.911 Y105.368 E4.16893
G1 X118.089 Y105.368 E5.72051
G1 X118.089 Y104.602 E5.75340
G1 X81.911 Y104.602 E7.30497
G1 X81.911 Y103.835 E7.33787
G1 X118.089 Y103.835 E8.88944
G1 X118.089 Y103.068 E8.92233
G1 X81.911 Y103.068 E10.47391
G1 X81.911 Y102.301 E10.50680
G1 X118.089 Y102.301 E12.05837
G1 X118.089 Y101.534 E12.09126
G1 X81.911 Y101.534 E13.64284
G1 X81.911 Y100.767 E13.67573
G1 X118.089 Y100.767 E15.22731
G1 X118.089 Y100.000 E15.26020
G1 X81.911 Y100.000 E16.81177
G1 X81.911 Y99.233 E16.84466
G1 X118.089 Y99.233 E18.39624
G1 X118.089 Y98.466 E18.42913
G1 X81.911 Y98.466 E19.98070
G1 X81.911 Y97.699 E20.01360
G1 X118.089 Y97.699 E21.56517
G1 X118.089 Y96.932 E21.59806
G1 X81.911 Y96.932 E23.14964
G1 X81.911 Y96.165 E23.18253
G1 X118.089 Y96.165 E24.73410
G1 X118.089 Y95.398 E24.76699
G1 X81.911 Y95.398 E26.31857
G1 X81.911 Y94.632 E26.35146
G1 X118.089 Y94.632 E27.90304
G1 X118.089 Y93.865 E27.93593
G1 X81.911 Y93.865 E29.48750
G1 X81.911 Y93.098 E29.52039
G1 X118.089 Y93.098 E31.07197
G1 E30.07197 F1800.00000
G92 E0
G1 Z1.250 F7800.000
G1 X103.447 Y97.875 F7800.000
G1 E1.00000 F1800.00000
G1 F600
G1 X103.447 Y97.519 E1.00318
G1 X102.585 Y97.255 E1.01122
G1 X102.585 Y97.895 E1.01693
G1 X102.558 Y97.881 E1.01720
G1 X102.344 Y97.693 E1.01974
G1 X102.264 Y97.574 E1.02102
G1 X102.169 Y97.306 E1.02356
G1 X102.160 Y97.125 E1.02518
G1 X102.585 Y97.255 E1.02914
G1 E0.02914 F1800.00000
G92 E0
G1 X97.026 Y96.957 F7800.000
G1 E1.00000 F1800.00000
G1 F600
G1 X96.891 Y96.986 E1.00123
G1 X96.809 Y97.077 E1.00232
G1 X96.795 Y97.128 E1.00280
G1 X96.795 Y97.198 E1.00342
G1 X96.839 Y97.294 E1.00436
G1 X96.891 Y97.340 E1.00498
G1 X96.991 Y97.371 E1.00592
G1 X97.061 Y97.362 E1.00654
G1 X97.150 Y97.307 E1.00748
G1 X97.207 Y97.181 E1.00871
G1 X97.179 Y97.055 E1.00986
G1 X97.123 Y96.996 E1.01058
G1 X97.026 Y96.957 E1.01151
G1 X96.970 Y96.327 F7800.000
G1 F600
G1 X96.824 Y96.344 E1.01283
G1 X96.688 Y96.386 E1.01410
G1 X96.447 Y96.534 E1.01662
G1 X96.348 Y96.637 E1.01789
G1 X96.222 Y96.839 E1.02002
G1 X96.174 Y97.022 E1.02170
G1 X96.162 Y97.163 E1.02297
G1 X96.174 Y97.305 E1.02424
G1 X96.269 Y97.572 E1.02676
G1 X96.447 Y97.792 E1.02929
G1 X96.688 Y97.940 E1.03182
G1 X96.964 Y98.000 E1.03434
G1 X97.245 Y97.964 E1.03687
G1 X97.498 Y97.837 E1.03940
G1 X97.694 Y97.632 E1.04192
G1 X97.811 Y97.374 E1.04445
G1 X97.835 Y97.234 E1.04572
G1 X97.811 Y96.952 E1.04824
G1 X97.757 Y96.802 E1.04967
G1 X97.605 Y96.584 E1.05204
G1 X97.377 Y96.415 E1.05457
G1 X97.245 Y96.362 E1.05584
G1 X96.970 Y96.327 E1.05831
G1 E0.05831 F1800.00000
G92 E0
G1 X102.060 Y108.000 F7800.000
G1 E1.00000 F1800.00000
G1 F600
G1 X102.060 Y107.160 E1.00750
G1 X97.750 Y107.160 E1.04596
G1 X97.750 Y108.000 E1.05345
G1 X102.060 Y108.000 E1.09191
G1 E0.09191 F1800.00000
G92 E0
G1 X82.340 Y104.280 F7800.000
G1 E1.00000 F1800.00000
G1 F600
G1 X82.340 Y102.220 E1.01838
G1 X81.500 Y102.220 E1.02588
G1 X81.500 Y104.280 E1.04426
G1 X82.340 Y104.280 E1.05176
G1 E0.05176 F1800.00000
G92 E0
G1 X82.340 Y96.060 F7800.000
G1 E1.00000 F1800.00000
G1 F600
G1 X82.340 Y95.440 E1.00553
G1 X81.500 Y95.440 E1.01303
G1 X81.500 Y98.030 E1.03614
G1 X82.340 Y98.030 E1.04364
G1 X82.340 Y96.060 E1.06122
G1 E0.06122 F1800.00000
G92 E0
G1 Z1.600 F7800.000
G1 X102.405 Y97.803 F7800.000
G1 E1.00000 F1800.00000
G1 F600
G1 X102.541 Y97.909 E1.00917
G1 X102.674 Y97.975 E1.01705
G1 X102.816 Y98.019 E1.02494
G1 X102.963 Y98.038 E1.03282
G1 X103.111 Y98.032 E1.04071
G1 X103.256 Y98.000 E1.04859
G1 X103.394 Y97.945 E1.05647
G1 X103.594 Y97.803 E1.06949
G1 X102.405 Y97.803 E1.13262
G1 E0.13262 F1800.00000
G92 E0
G1 X97.035 Y96.893 F7800.000
G1 E1.00000 F1800.00000
G1 F600
G1 X96.943 Y96.897 E1.00488
G1 X96.857 Y96.931 E1.00977
G1 X96.762 Y97.030 E1.01705
G1 X96.732 Y97.117 E1.02193
G1 X96.732 Y97.209 E1.02682
G1 X96.788 Y97.334 E1.03410
G1 X96.857 Y97.395 E1.03898
G1 X96.988 Y97.435 E1.04627
G1 X97.080 Y97.423 E1.05115
G1 X97.196 Y97.352 E1.05843
G1 X97.248 Y97.275 E1.06332
G1 X97.271 Y97.186 E1.06820
G1 X97.263 Y97.095 E1.07308
G1 X97.228 Y97.014 E1.07774
G1 X97.162 Y96.944 E1.08286
G1 X97.035 Y96.893 E1.09014
G1 X96.970 Y96.327 F7800.000
G1 F600
G1 X96.824 Y96.344 E1.09799
G1 X96.688 Y96.386 E1.10553
G1 X96.447 Y96.534 E1.12057
G1 X96.348 Y96.637 E1.12811
G1 X96.210 Y96.884 E1.14314
G1 X96.162 Y97.163 E1.15817
G1 X96.174 Y97.305 E1.16572
G1 X96.269 Y97.572 E1.18075
G1 X96.447 Y97.792 E1.19578
G1 X96.688 Y97.940 E1.21081
G1 X96.964 Y98.000 E1.22585
G1 X97.245 Y97.964 E1.24088
G1 X97.498 Y97.837 E1.25591
G1 X97.694 Y97.632 E1.27094
G1 X97.811 Y97.374 E1.28598
G1 X97.835 Y97.234 E1.29352
G1 X97.811 Y96.952 E1.30855
G1 X97.762 Y96.814 E1.31634
G1 X97.605 Y96.584 E1.33113
G1 X97.377 Y96.415 E1.34617
G1 X97.245 Y96.362 E1.35371
G1 X96.970 Y96.327 E1.36843
G1 E0.36843 F1800.00000
G92 E0
G1 X102.060 Y108.000 F7800.000
G1 E1.00000 F1800.00000
G1 F600
G1 X102.060 Y107.160 E1.04460
G1 X97.750 Y107.160 E1.27345
G1 X97.750 Y108.000 E1.31805
G1 X102.060 Y108.000 E1.54689
G1 E0.54689 F1800.00000
G92 E0
G1 X82.340 Y104.280 F7800.000
G1 E1.00000 F1800.00000
G1 F600
G1 X82.340 Y102.220 E1.10938
G1 X81.500 Y102.220 E1.15398
G1 X81.500 Y104.280 E1.26336
G1 X82.340 Y104.280 E1.30796
G1 E0.30796 F1800.00000
G92 E0
G1 X82.340 Y96.060 F7800.000
G1 E1.00000 F1800.00000
G1 F600
G1 X82.340 Y95.440 E1.03292
G1 X81.500 Y95.440 E1.07752
G1 X81.500 Y98.030 E1.21504
G1 X82.340 Y98.030 E1.25964
G1 X82.340 Y96.060 E1.36424
G1 E0.36424 F1800.00000
G92 E0
G1 Z1.800 F7800.000
G1 X98.454 Y99.128 F7800.000
G1 E1.00000 F1800.00000
M106 S255

G1 F3600
G1 X98.100 Y99.346 E1.02166
G1 X97.716 Y99.500 E1.04332
G1 X97.310 Y99.588 E1.06498
G1 X96.896 Y99.605 E1.08664
G1 X96.485 Y99.553 E1.10830
G1 X96.089 Y99.431 E1.12996
G1 X95.718 Y99.245 E1.15163
G1 X95.385 Y98.998 E1.17329
G1 X95.098 Y98.699 E1.19495
G1 X94.866 Y98.355 E1.21661
G1 X94.695 Y97.978 E1.23827
G1 X94.591 Y97.576 E1.25993
G1 X94.556 Y97.163 E1.28159
G1 X94.591 Y96.750 E1.30325
G1 X94.677 Y96.418 E1.32116
G1 X94.858 Y95.983 E1.34577
G1 X95.098 Y95.628 E1.36820
G1 X95.385 Y95.328 E1.38986
G1 X95.718 Y95.082 E1.41152
G1 X96.089 Y94.895 E1.43318
G1 X96.485 Y94.774 E1.45484
G1 X96.889 Y94.722 E1.47612
G1 X97.309 Y94.738 E1.49807
G1 X97.716 Y94.826 E1.51982
G1 X98.100 Y94.981 E1.54148
G1 X98.454 Y95.198 E1.56314
G1 X98.765 Y95.472 E1.58480
G1 X99.024 Y95.793 E1.60639
G1 X99.221 Y96.143 E1.62736
G1 X99.365 Y96.545 E1.64968
G1 X99.436 Y96.956 E1.67145
G1 X99.436 Y97.370 E1.69311
G1 X99.366 Y97.779 E1.71477
G1 X99.227 Y98.170 E1.73643
G1 X99.025 Y98.532 E1.75809
G1 X98.765 Y98.855 E1.77975
G1 X98.499 Y99.089 E1.79828
M106 S255

G1 X98.239 Y98.839 F7800.000
M106 S255

G1 F3600
G1 X97.938 Y99.024 E1.81674
G1 X97.610 Y99.156 E1.83521
G1 X97.265 Y99.230 E1.85368
G1 X96.912 Y99.245 E1.87215
G1 X96.561 Y99.200 E1.89061
G1 X96.223 Y99.097 E1.90908
G1 X95.907 Y98.938 E1.92755
G1 X95.623 Y98.728 E1.94602
G1 X95.379 Y98.472 E1.96448
G1 X95.181 Y98.180 E1.98295
G1 X95.035 Y97.857 E2.00142
G1 X94.946 Y97.515 E2.01989
G1 X94.916 Y97.163 E2.03836
G1 X94.946 Y96.811 E2.05682
G1 X95.018 Y96.533 E2.07184
G1 X95.175 Y96.154 E2.09325
G1 X95.379 Y95.854 E2.11219
G1 X95.623 Y95.599 E2.13066
G1 X95.907 Y95.389 E2.14913
G1 X96.223 Y95.229 E2.16760
G1 X96.561 Y95.126 E2.18606
G1 X96.905 Y95.082 E2.20419
G1 X97.264 Y95.096 E2.22294
G1 X97.610 Y95.170 E2.24146
G1 X97.938 Y95.302 E2.25993
G1 X98.239 Y95.488 E2.27840
G1 X98.505 Y95.721 E2.29687
G1 X98.726 Y95.995 E2.31529
G1 X98.893 Y96.293 E2.33310
G1 X99.017 Y96.637 E2.35220
G1 X99.077 Y96.986 E2.37074
G1 X99.077 Y97.340 E2.38920
G1 X99.017 Y97.688 E2.40767
G1 X98.899 Y98.022 E2.42614
G1 X98.727 Y98.330 E2.44461
G1 X98.505 Y98.605 E2.46307
G1 X98.284 Y98.799 E2.47841
M106 S255

G1 X98.023 Y98.547 F7800.000
M106 S255

G1 F3600
G1 X97.775 Y98.700 E2.49366
G1 X97.504 Y98.809 E2.50890
G1 X97.219 Y98.870 E2.52415
G1 X96.927 Y98.882 E2.53940
G1 X96.637 Y98.845 E2.55465
G1 X96.358 Y98.760 E2.56990
G1 X96.098 Y98.629 E2.58515
G1 X95.863 Y98.455 E2.60040
G1 X95.661 Y98.244 E2.61564
G1 X95.498 Y98.002 E2.63089
G1 X95.377 Y97.736 E2.64614
G1 X95.304 Y97.454 E2.66139
G1 X95.279 Y97.163 E2.67664
G1 X95.304 Y96.872 E2.69189
G1 X95.362 Y96.648 E2.70398
G1 X95.496 Y96.327 E2.72217
G1 X95.661 Y96.082 E2.73760
G1 X95.863 Y95.871 E2.75285
G1 X96.098 Y95.698 E2.76810
G1 X96.358 Y95.566 E2.78334
G1 X96.637 Y95.481 E2.79859
G1 X96.921 Y95.445 E2.81353
G1 X97.218 Y95.456 E2.82906
G1 X97.504 Y95.518 E2.84433
G1 X97.775 Y95.627 E2.85958
G1 X98.023 Y95.780 E2.87483
G1 X98.242 Y95.973 E2.89008
G1 X98.425 Y96.199 E2.90531
G1 X98.563 Y96.443 E2.91995
G1 X98.665 Y96.729 E2.93580
G1 X98.715 Y97.017 E2.95107
G1 X98.715 Y97.309 E2.96632
G1 X98.665 Y97.597 E2.98157
G1 X98.568 Y97.872 E2.99682
G1 X98.426 Y98.127 E3.01207
G1 X98.242 Y98.354 E3.02732
G1 X98.068 Y98.507 E3.03943
M106 S255

G1 E2.03943 F1800.00000
G92 E0
G1 X100.664 Y97.859 F7800.000
G1 E1.00000 F1800.00000
M106 S255

G1 F3600
G1 X100.591 Y97.576 E1.01526
G1 X100.556 Y97.163 E1.03692
G1 X100.591 Y96.750 E1.05858
G1 X100.695 Y96.349 E1.08024
G1 X100.866 Y95.971 E1.10191
G1 X101.098 Y95.628 E1.12357
G1 X101.385 Y95.328 E1.14523
G1 X101.718 Y95.082 E1.16689
G1 X102.089 Y94.895 E1.18855
G1 X102.485 Y94.774 E1.21021
G1 X102.889 Y94.722 E1.23149
G1 X103.309 Y94.738 E1.25344
G1 X103.716 Y94.826 E1.27519
