; generated by Slic3r 1.3.0 on 2022-06-14 at 20:42:33

; external perimeters extrusion width = 0.44mm (1.67mm^3/s)
; perimeters extrusion width = 0.56mm (3.10mm^3/s)
; infill extrusion width = 0.50mm (5.48mm^3/s)
; solid infill extrusion width = 0.56mm (6.20mm^3/s)
; top infill extrusion width = 0.56mm (5.17mm^3/s)
; support material extrusion width = 0.44mm (4.76mm^3/s)

M107
M190 S50 ; set bed temperature and wait for it to be reached
M104 S205 ; set temperature
G28 ; home all axes
G29; Automatic (Bilinear) Bed Leveling probes the bed at some fixed number of points and produces a mesh representing the imperfections across the bed.
G1 Z5 F5000 ; lift nozzle
G92 E0.0 # Set the current position to the values specified.
; Filament gcode

M109 S205 ; set temperature and wait for it to be reached
G21 ; set units to millimeters
G90 ; use absolute coordinates
M82 ; use absolute distances for extrusion
G92 E0
;BEFORE_LAYER_CHANGE
;G92 E0.0 # Set the current position to the values specified.
G1 E-1.00000 F1800.00000
G92 E0
G1 Z-0.600 F7800.000
;AFTER_LAYER_CHANGE
G1 X19.166 Y80.394 F7800.000
G1 E1.00000 F1800.00000
G1 F1080
G1 X20.076 Y80.370 E1.00676
G1 X179.924 Y80.370 E2.19328
G1 X182.102 Y80.767 E2.20972
G1 X183.913 Y81.830 E2.22530
G1 X184.662 Y82.464 E2.23259
G1 X186.070 Y84.173 E2.24902
G1 X186.852 Y87.182 E2.27210
G1 X186.852 Y92.733 E2.31330
G1 X186.455 Y94.912 E2.32974
G1 X185.316 Y96.810 E2.34617
G1 X183.698 Y98.121 E2.36163
G1 X162.693 Y109.912 E2.54043
G1 X157.470 Y112.697 E2.58437
G1 X156.931 Y112.952 E2.58880
G1 X151.107 Y115.368 E2.63560
G1 X150.546 Y115.569 E2.64002
G1 X144.516 Y117.412 E2.68682
G1 X143.938 Y117.559 E2.69125
G1 X137.759 Y118.812 E2.73805
G1 X137.169 Y118.902 E2.74248
G1 X130.898 Y119.553 E2.78928
G1 X130.303 Y119.586 E2.79371
G1 X123.381 Y119.630 E2.84508
G1 X75.996 Y119.630 E3.19681
G1 X69.797 Y119.587 E3.24283
G1 X69.280 Y119.562 E3.24667
G1 X62.842 Y118.894 E3.29472
G1 X61.826 Y118.728 E3.30236
G1 X56.062 Y117.559 E3.34602
G1 X55.484 Y117.412 E3.35044
G1 X49.917 Y115.711 E3.39365
G1 X48.623 Y115.256 E3.40383
G1 X43.069 Y112.952 E3.44846
G1 X42.530 Y112.697 E3.45289
G1 X36.966 Y109.731 E3.49969
G1 X16.246 Y97.816 E3.67711
G1 X14.555 Y96.385 E3.69355
G1 X13.478 Y94.451 E3.70998
G1 X13.148 Y92.460 E3.72497
G1 X13.148 Y87.182 E3.76414
G1 X13.173 Y86.353 E3.77030
G1 X13.646 Y84.190 E3.78673
G1 X14.851 Y82.333 E3.80317
G1 X16.634 Y81.019 E3.81960
G1 X19.108 Y80.409 E3.83852
G1 E2.83852 F1800.00000
G92 E0
G1 X27.341 Y87.398 F7800.000
G1 E1.00000 F1800.00000
G1 F1080
G1 X26.481 Y86.570 E1.02077
G1 X19.348 Y86.570 E1.14489
G1 X19.348 Y87.398 E1.15929
G1 X27.341 Y87.398 E1.29837
G1 X28.214 Y88.238 E1.31945
G1 X19.348 Y88.238 E1.47372
G1 X19.348 Y89.078 E1.48833
G1 X29.086 Y89.078 E1.65779
G1 X29.959 Y89.918 E1.67887
G1 X19.348 Y89.918 E1.86351
G1 X19.348 Y90.758 E1.87813
G1 X30.832 Y90.758 E2.07796
G1 X31.216 Y91.128 E2.08723
G1 X31.805 Y91.598 E2.10035
G1 X19.348 Y91.598 E2.31712
G1 X19.348 Y92.439 E2.33174
G1 X32.858 Y92.439 E2.56682
G1 X33.910 Y93.279 E2.59025
G1 X26.184 Y93.279 E2.72470
G1 X27.034 Y94.119 E2.74550
G1 X34.963 Y94.119 E2.88347
G1 X36.024 Y94.959 E2.90702
G1 X27.884 Y94.959 E3.04866
G1 X28.734 Y95.799 E3.06946
G1 X37.303 Y95.799 E3.21856
G1 X38.583 Y96.639 E3.24520
G1 X29.585 Y96.639 E3.40178
G1 X29.743 Y96.796 E3.40566
G1 X30.583 Y97.480 E3.42450
G1 X39.863 Y97.480 E3.58597
G1 X41.160 Y98.320 E3.61286
G1 X31.616 Y98.320 E3.77892
G1 X32.649 Y99.160 E3.80209
G1 X42.741 Y99.160 E3.97770
G1 X44.323 Y100.000 E4.00886
G1 X33.682 Y100.000 E4.19402
G1 X34.734 Y100.840 E4.21744
G1 X45.905 Y100.840 E4.41183
G1 X46.447 Y101.128 E4.42252
G1 X47.769 Y101.680 E4.44745
G1 X35.998 Y101.680 E4.65226
G1 X37.263 Y102.520 E4.67869
G1 X49.781 Y102.520 E4.89650
G1 X51.793 Y103.361 E4.93444
G1 X38.528 Y103.361 E5.16526
G1 X39.793 Y104.201 E5.19168
G1 X54.389 Y104.201 E5.44566
G1 X57.077 Y105.041 E5.49467
G1 X41.347 Y105.041 E5.76839
G1 X42.923 Y105.881 E5.79947
G1 X60.641 Y105.881 E6.10778
G1 X63.839 Y106.563 E6.16467
G1 X65.178 Y106.721 E6.18813
G1 X44.499 Y106.721 E6.54794
G1 E5.54794 F1800.00000
G92 E0
G1 X62.817 Y112.602 F7800.000
G1 E1.00000 F1800.00000
G1 F1080
G1 X81.071 Y112.602 E1.31764
G1 X81.071 Y111.762 E1.33226
G1 X58.673 Y111.762 E1.72199
G1 X57.295 Y111.483 E1.74646
G1 X55.461 Y110.922 E1.77984
G1 X81.071 Y110.922 E2.22548
G1 X81.071 Y110.082 E2.24010
G1 X52.712 Y110.082 E2.73357
G1 X51.267 Y109.640 E2.75985
G1 X50.306 Y109.242 E2.77796
G1 X81.071 Y109.242 E3.31329
G1 E2.31329 F1800.00000
G92 E0
G1 X74.929 Y106.721 F7800.000
G1 E1.00000 F1800.00000
G1 F1080
G1 X125.071 Y106.721 E1.87251
G1 X125.071 Y105.881 E1.88713
G1 X74.929 Y105.881 E2.75964
G1 X74.929 Y105.041 E2.77426
G1 X125.071 Y105.041 E3.64676
G1 X125.071 Y104.201 E3.66138
G1 X74.929 Y104.201 E4.53389
G1 X74.929 Y103.570 E4.54487
G1 X125.071 Y103.570 E5.41738
G1 X125.071 Y104.201 E5.42835
G1 E4.42835 F1800.00000
G92 E0
G1 X118.929 Y112.602 F7800.000
G1 E1.00000 F1800.00000
G1 F1080
G1 X137.183 Y112.602 E1.31764
G1 X141.327 Y111.762 E1.39120
G1 X118.929 Y111.762 E1.78094
G1 X118.929 Y110.922 E1.79556
G1 X144.539 Y110.922 E2.24120
G1 X147.288 Y110.082 E2.29121
G1 X118.929 Y110.082 E2.78468
G1 X118.929 Y109.242 E2.79930
G1 X149.694 Y109.242 E3.33463
G1 X151.719 Y108.402 E3.37279
G1 X48.281 Y108.402 E5.17272
G1 X46.255 Y107.561 E5.21087
G1 X153.745 Y107.561 E7.08129
G1 X154.555 Y107.226 E7.09654
G1 X155.501 Y106.721 E7.11520
G1 X134.822 Y106.721 E7.47502
G1 X136.161 Y106.563 E7.49848
G1 X139.359 Y105.881 E7.55536
G1 X157.077 Y105.881 E7.86368
G1 X158.653 Y105.041 E7.89475
G1 X142.923 Y105.041 E8.16847
G1 X145.611 Y104.201 E8.21749
G1 X160.207 Y104.201 E8.47146
G1 X161.472 Y103.361 E8.49789
G1 X148.207 Y103.361 E8.72870
G1 X150.219 Y102.520 E8.76664
G1 X162.737 Y102.520 E8.98446
G1 X164.002 Y101.680 E9.01088
G1 X152.231 Y101.680 E9.21570
G1 X153.553 Y101.128 E9.24062
G1 X154.095 Y100.840 E9.25131
G1 X165.266 Y100.840 E9.44570
G1 X166.318 Y100.000 E9.46912
G1 X155.677 Y100.000 E9.65428
G1 X157.259 Y99.160 E9.68544
G1 X167.351 Y99.160 E9.86105
G1 X168.384 Y98.320 E9.88422
G1 X158.840 Y98.320 E10.05028
G1 X160.137 Y97.480 E10.07718
G1 X169.417 Y97.480 E10.23864
G1 X170.257 Y96.796 E10.25748
G1 X170.415 Y96.639 E10.26137
G1 X161.417 Y96.639 E10.41794
G1 X162.697 Y95.799 E10.44458
G1 X171.266 Y95.799 E10.59369
G1 X172.116 Y94.959 E10.61449
G1 X163.985 Y94.959 E10.75598
G1 X165.037 Y94.119 E10.77941
G1 X172.966 Y94.119 E10.91738
G1 X173.816 Y93.279 E10.93818
G1 X166.090 Y93.279 E11.07263
G1 X167.142 Y92.439 E11.09607
G1 X180.652 Y92.439 E11.33115
G1 X180.652 Y91.598 E11.34577
G1 X168.195 Y91.598 E11.56253
G1 X168.784 Y91.128 E11.57565
G1 X169.168 Y90.758 E11.58493
G1 X180.652 Y90.758 E11.78476
G1 X180.652 Y89.918 E11.79938
G1 X170.041 Y89.918 E11.98402
G1 X170.914 Y89.078 E12.00510
G1 X180.652 Y89.078 E12.17455
G1 X180.652 Y88.238 E12.18917
G1 X171.786 Y88.238 E12.34344
G1 X172.659 Y87.398 E12.36452
G1 X180.652 Y87.398 E12.50360
M106 S255
M104 S200 ; set temperature
M140 S45 ; set bed temperature
;BEFORE_LAYER_CHANGE
;G92 E0.0 # Set the current position to the values specified.
G1 E11.50360 F1800.00000
G92 E0
G1 Z-0.300 F7800.000
;AFTER_LAYER_CHANGE
G1 X179.924 Y92.733 F7800.000
G1 E1.00000 F1800.00000
G1 F3106.43
G1 X179.924 Y86.549 E1.28974
G1 X179.170 Y86.549 E1.32507
G1 X179.170 Y92.733 E1.61481
G1 X178.416 Y92.733 E1.65014
G1 X178.416 Y86.549 E1.93988
G1 X177.662 Y86.549 E1.97520
G1 X177.662 Y92.733 E2.26495
G1 X176.908 Y92.733 E2.30027
G1 X176.908 Y86.549 E2.59001
G1 X176.154 Y86.549 E2.62534
G1 X176.154 Y92.733 E2.91508
G1 X175.400 Y92.733 E2.95041
G1 X175.400 Y86.549 E3.24015
G1 X174.646 Y86.549 E3.27547
G1 X174.646 Y92.733 E3.56522
G1 X174.399 Y92.733 E3.57678
G1 X173.892 Y93.234 E3.61018
G1 X173.892 Y86.549 E3.92340
G1 X173.510 Y86.549 E3.94129
G1 X173.138 Y86.907 E3.96549
G1 X173.138 Y93.979 E4.29683
G1 X172.384 Y94.724 E4.34649
G1 X172.384 Y87.633 E4.67873
G1 X171.630 Y88.359 E4.72776
G1 X171.630 Y95.469 E5.06090
G1 X170.876 Y96.214 E5.11056
G1 X170.876 Y89.084 E5.44459
G1 X170.122 Y89.810 E5.49362
G1 X170.122 Y96.933 E5.82734
G1 X169.368 Y97.547 E5.87287
G1 X169.368 Y90.536 E6.20132
G1 X168.770 Y91.112 E6.24022
G1 X168.614 Y91.236 E6.24956
G1 X168.614 Y98.160 E6.57393
G1 X167.860 Y98.773 E6.61946
G1 X167.860 Y91.838 E6.94437
G1 X167.106 Y92.440 E6.98957
G1 X167.106 Y99.387 E7.31501
G1 X166.352 Y100.000 E7.36054
G1 X166.352 Y93.042 E7.68652
G1 X165.598 Y93.644 E7.73171
G1 X165.598 Y100.613 E8.05822
G1 X165.380 Y100.791 E8.07141
G1 X164.844 Y101.147 E8.10154
G1 X164.844 Y94.246 E8.42484
G1 X164.090 Y94.848 E8.47004
G1 X164.090 Y101.647 E8.78860
G1 X163.336 Y102.148 E8.83101
G1 X163.336 Y95.354 E9.14932
G1 X162.582 Y95.849 E9.19158
G1 X162.582 Y102.649 E9.51016
G1 X161.828 Y103.150 E9.55257
G1 X161.828 Y96.344 E9.87142
G1 X161.074 Y96.839 E9.91368
G1 X161.074 Y103.651 E10.23280
G1 X160.320 Y104.151 E10.27520
G1 X160.320 Y97.334 E10.59459
G1 X159.566 Y97.829 E10.63685
G1 X159.566 Y104.579 E10.95306
G1 X158.812 Y104.980 E10.99309
G1 X158.812 Y98.310 E11.30558
G1 X158.058 Y98.711 E11.34558
G1 X158.058 Y105.382 E11.65813
G1 X157.304 Y105.784 E11.69816
G1 X157.304 Y99.111 E12.01078
G1 X156.550 Y99.512 E12.05078
G1 X156.550 Y106.186 E12.36346
G1 X155.796 Y106.588 E12.40349
G1 X155.796 Y99.912 E12.71624
G1 X155.042 Y100.313 E12.75624
G1 X155.042 Y106.990 E13.06906
G1 X154.564 Y107.245 E13.09445
G1 X154.288 Y107.359 E13.10844
G1 X154.288 Y100.713 E13.41979
G1 X153.534 Y101.113 E13.45977
G1 X153.534 Y107.672 E13.76706
G1 X152.780 Y107.985 E13.80530
G1 X152.780 Y101.428 E14.11250
G1 X152.026 Y101.743 E14.15078
G1 X152.026 Y108.298 E14.45788
G1 X151.272 Y108.610 E14.49612
G1 X151.272 Y102.058 E14.80311
G1 X150.518 Y102.372 E14.84139
G1 X150.518 Y108.923 E15.14829
G1 X149.764 Y109.236 E15.18653
G1 X149.764 Y102.687 E15.49333
G1 X149.010 Y103.002 E15.53161
G1 X149.010 Y109.549 E15.83831
G1 X148.740 Y109.661 E15.85201
G1 X148.256 Y109.809 E15.87571
G1 X148.256 Y103.317 E16.17984
G1 X147.925 Y103.455 E16.19666
G1 X147.502 Y103.587 E16.21741
G1 X147.502 Y110.039 E16.51966
G1 X146.748 Y110.269 E16.55659
G1 X146.748 Y103.823 E16.85860
G1 X145.994 Y104.059 E16.89561
G1 X145.994 Y110.500 E17.19737
G1 X145.240 Y110.730 E17.23431
G1 X145.240 Y104.294 E17.53583
G1 X144.486 Y104.530 E17.57284
G1 X144.486 Y110.961 E17.87412
G1 X143.732 Y111.191 E17.91106
G1 X143.732 Y104.766 E18.21210
G1 X142.978 Y105.001 E18.24911
G1 X142.978 Y111.422 E18.54990
G1 X142.710 Y111.504 E18.56302
G1 X142.224 Y111.602 E18.58626
G1 X142.224 Y105.237 E18.88447
G1 X141.470 Y105.409 E18.92070
G1 X141.470 Y111.755 E19.21802
G1 X140.716 Y111.908 E19.25407
G1 X140.716 Y105.570 E19.55101
G1 X139.962 Y105.730 E19.58713
G1 X139.962 Y112.061 E19.88371
G1 X139.208 Y112.214 E19.91975
G1 X139.208 Y105.891 E20.21595
G1 X138.454 Y106.052 E20.25207
G1 X138.454 Y112.367 E20.54790
G1 X137.700 Y112.519 E20.58394
G1 X137.700 Y106.213 E20.87940
G1 X136.946 Y106.374 E20.91552
G1 X136.946 Y112.672 E21.21060
G1 X136.531 Y112.757 E21.23044
G1 X136.192 Y112.792 E21.24640
G1 X136.192 Y106.535 E21.53954
G1 X135.438 Y106.627 E21.57513
G1 X135.438 Y112.870 E21.86761
G1 X134.684 Y112.948 E21.90313
G1 X134.684 Y106.716 E22.19511
G1 X133.930 Y106.805 E22.23068
G1 X133.930 Y113.027 E22.52216
G1 X133.176 Y113.105 E22.55768
G1 X133.176 Y106.894 E22.84866
G1 X132.422 Y106.983 E22.88423
G1 X132.422 Y113.183 E23.17471
G1 X131.668 Y113.262 E23.21023
G1 X131.668 Y107.072 E23.50021
G1 X130.914 Y107.161 E23.53578
G1 X130.914 Y113.340 E23.82527
G1 X130.160 Y113.409 E23.86074
G1 X130.160 Y107.250 E24.14927
G1 X129.406 Y107.273 E24.18461
G1 X129.406 Y113.414 E24.47229
G1 X128.652 Y113.419 E24.50762
G1 X128.652 Y107.292 E24.79467
G1 X127.898 Y107.311 E24.83001
G1 X127.898 Y113.424 E25.11643
G1 X127.144 Y113.430 E25.15175
G1 X127.144 Y107.329 E25.43755
G1 X126.390 Y107.348 E25.47288
G1 X126.390 Y113.435 E25.75804
G1 X125.636 Y113.440 E25.79337
G1 X125.636 Y107.367 E26.07790
G1 X125.092 Y107.380 E26.10338
G1 X125.092 Y103.549 E26.28289
G1 X124.882 Y103.549 E26.29274
G1 X124.882 Y113.445 E26.75640
G1 X124.128 Y113.451 E26.79173
G1 X124.128 Y103.549 E27.25563
G1 X123.374 Y103.549 E27.29096
G1 X123.374 Y113.451 E27.75490
G1 X122.620 Y113.451 E27.79022
G1 X122.620 Y103.549 E28.25417
G1 X121.866 Y103.549 E28.28949
G1 X121.866 Y113.451 E28.75344
G1 X121.112 Y113.451 E28.78876
G1 X121.112 Y103.549 E29.25270
G1 X120.358 Y103.549 E29.28803
G1 X120.358 Y113.451 E29.75197
G1 X119.604 Y113.451 E29.78730
G1 X119.604 Y103.549 E30.25124
G1 X118.850 Y103.549 E30.28657
G1 X118.850 Y108.733 E30.52946
G1 X118.096 Y108.733 E30.56478
G1 X118.096 Y103.549 E30.80768
G1 X117.342 Y103.549 E30.84300
G1 X117.342 Y108.733 E31.08590
G1 X116.588 Y108.733 E31.12122
G1 X116.588 Y103.549 E31.36412
G1 X115.834 Y103.549 E31.39944
G1 X115.834 Y108.733 E31.64233
G1 X115.080 Y108.733 E31.67766
G1 X115.080 Y103.549 E31.92055
G1 X114.326 Y103.549 E31.95588
G1 X114.326 Y108.733 E32.19877
G1 X113.572 Y108.733 E32.23410
G1 X113.572 Y103.549 E32.47699
G1 X112.818 Y103.549 E32.51231
G1 X112.818 Y108.733 E32.75521
G1 X112.064 Y108.733 E32.79053
G1 X112.064 Y103.549 E33.03343
G1 X111.310 Y103.549 E33.06875
G1 X111.310 Y108.733 E33.31165
G1 X110.556 Y108.733 E33.34697
G1 X110.556 Y103.549 E33.58986
G1 X109.802 Y103.549 E33.62519
G1 X109.802 Y108.733 E33.86808
G1 X109.048 Y108.733 E33.90341
G1 X109.048 Y103.549 E34.14630
G1 X108.294 Y103.549 E34.18163
G1 X108.294 Y108.733 E34.42452
G1 X107.540 Y108.733 E34.45984
G1 X107.540 Y103.549 E34.70274
G1 X106.786 Y103.549 E34.73806
G1 X106.786 Y108.733 E34.98096
G1 X106.032 Y108.733 E35.01628
G1 X106.032 Y103.549 E35.25918
G1 X105.278 Y103.549 E35.29450
G1 X105.278 Y108.733 E35.53739
G1 X104.524 Y108.733 E35.57272
G1 X104.524 Y103.549 E35.81561
G1 X103.770 Y103.549 E35.85094
G1 X103.770 Y108.733 E36.09383
G1 X103.016 Y108.733 E36.12916
G1 X103.016 Y103.549 E36.37205
G1 X102.262 Y103.549 E36.40738
G1 X102.262 Y108.733 E36.65027
G1 X101.508 Y108.733 E36.68559
G1 X101.508 Y103.549 E36.92849
G1 X100.754 Y103.549 E36.96381
G1 X100.754 Y108.733 E37.20671
G1 X100.000 Y108.733 E37.24203
G1 X100.000 Y103.549 E37.48493
G1 X99.246 Y103.549 E37.52025
G1 X99.246 Y108.733 E37.76314
G1 X98.492 Y108.733 E37.79847
G1 X98.492 Y103.549 E38.04136
G1 X97.738 Y103.549 E38.07669
G1 X97.738 Y108.733 E38.31958
G1 X96.984 Y108.733 E38.35491
G1 X96.984 Y103.549 E38.59780
G1 X96.230 Y103.549 E38.63312
G1 X96.230 Y108.733 E38.87602
G1 X95.476 Y108.733 E38.91134
G1 X95.476 Y103.549 E39.15424
G1 X94.722 Y103.549 E39.18956
G1 X94.722 Y108.733 E39.43246
G1 X93.968 Y108.733 E39.46778
G1 X93.968 Y103.549 E39.71067
G1 X93.214 Y103.549 E39.74600
G1 X93.214 Y108.733 E39.98889
G1 X92.460 Y108.733 E40.02422
G1 X92.460 Y103.549 E40.26711
G1 X91.706 Y103.549 E40.30244
G1 X91.706 Y108.733 E40.54533
G1 X90.952 Y108.733 E40.58065
G1 X90.952 Y103.549 E40.82355
G1 X90.198 Y103.549 E40.85887
G1 X90.198 Y108.733 E41.10177
G1 X89.444 Y108.733 E41.13709
G1 X89.444 Y103.549 E41.37999
G1 X88.690 Y103.549 E41.41531
G1 X88.690 Y108.733 E41.65820
G1 X87.936 Y108.733 E41.69353
G1 X87.936 Y103.549 E41.93642
G1 X87.182 Y103.549 E41.97175
G1 X87.182 Y108.733 E42.21464
G1 X86.428 Y108.733 E42.24997
G1 X86.428 Y103.549 E42.49286
G1 X85.674 Y103.549 E42.52818
G1 X85.674 Y108.733 E42.77108
G1 X84.920 Y108.733 E42.80640
G1 X84.920 Y103.549 E43.04930
G1 X84.166 Y103.549 E43.08462
G1 X84.166 Y108.733 E43.32752
G1 X83.412 Y108.733 E43.36284
G1 X83.412 Y103.549 E43.60573
G1 X82.658 Y103.549 E43.64106
G1 X82.658 Y108.733 E43.88395
G1 X81.904 Y108.733 E43.91928
