; generated by Slic3r 1.3.0 on 2022-06-09 at 19:09:28

; external perimeters extrusion width = 0.44mm (2.03mm^3/s)
; perimeters extrusion width = 0.56mm (3.77mm^3/s)
; infill extrusion width = 0.50mm (6.70mm^3/s)
; solid infill extrusion width = 0.56mm (7.54mm^3/s)
; top infill extrusion width = 0.56mm (6.28mm^3/s)
; support material extrusion width = 0.44mm (5.80mm^3/s)

M107
M190 S50 ; set bed temperature and wait for it to be reached
M104 S205 ; set temperature
G28 ; home all axes
G1 Z5 F5000 ; lift nozzle

; Filament gcode

M109 S205 ; set temperature and wait for it to be reached
G21 ; set units to millimeters
G90 ; use absolute coordinates
M82 ; use absolute distances for extrusion
G92 E0
G1 E-1.00000 F1800.00000
G92 E0
G1 Z1.350 F7800.000
G1 X64.540 Y89.674 F7800.000
G1 E1.00000 F1800.00000
G1 F1080
G1 X65.452 Y89.027 E1.10174
G1 X66.120 Y88.634 E1.17215
G1 X67.128 Y88.151 E1.27379
G1 X67.851 Y87.876 E1.34412
G1 X68.886 Y87.577 E1.44208
G1 X115.146 Y78.194 E5.73413
G1 X116.463 Y78.062 E5.85448
G1 X127.463 Y78.062 E6.85470
G1 X129.721 Y78.459 E7.06324
G1 X131.709 Y79.603 E7.27179
G1 X133.189 Y81.355 E7.48033
G1 X133.908 Y83.157 E7.65671
G1 X140.691 Y111.722 E10.32639
G1 X140.827 Y114.012 E10.53494
G1 X140.174 Y116.210 E10.74348
G1 X138.557 Y118.283 E10.98252
G1 X135.260 Y121.109 E11.37735
G1 X133.286 Y122.277 E11.58589
G1 X130.948 Y122.703 E11.80197
G1 X95.067 Y122.702 E15.06466
G1 X92.899 Y122.337 E15.26461
G1 X67.940 Y113.686 E17.66653
G1 X66.923 Y113.283 E17.76599
G1 X66.059 Y112.855 E17.85363
G1 X65.456 Y112.500 E17.91734
G1 X64.704 Y111.985 E18.00024
G1 X64.409 Y111.747 E18.03469
G1 X63.949 Y111.359 E18.08937
G1 X63.158 Y110.568 E18.19106
G1 X62.591 Y109.886 E18.27180
G1 X62.049 Y109.114 E18.35755
G1 X61.621 Y108.398 E18.43334
G1 X61.137 Y107.390 E18.53504
G1 X60.788 Y106.443 E18.62685
G1 X60.572 Y105.647 E18.70179
G1 X60.404 Y104.820 E18.77860
G1 X60.279 Y103.543 E18.89524
G1 X60.285 Y97.922 E19.40638
G1 X60.380 Y96.871 E19.50227
G1 X60.555 Y95.939 E19.58849
G1 X60.863 Y94.865 E19.69014
G1 X61.164 Y94.086 E19.76610
G1 X61.552 Y93.265 E19.84865
G1 X62.013 Y92.467 E19.93244
G1 X62.659 Y91.554 E20.03412
G1 X63.220 Y90.900 E20.11249
G1 X63.912 Y90.211 E20.20130
G1 X64.494 Y89.713 E20.27092
G1 E19.27092 F1800.00000
G92 E0
G1 X70.110 Y107.427 F7800.000
G1 E1.00000 F1800.00000
G1 F1080
G1 X127.060 Y107.427 E4.02385
G1 X127.060 Y106.684 E4.06328
G1 X68.681 Y106.684 E7.16298
G1 X68.222 Y106.296 E7.19492
G1 X67.922 Y105.941 E7.21957
G1 X127.060 Y105.941 E10.35957
G1 X127.060 Y105.199 E10.39900
G1 X67.425 Y105.199 E13.56541
G1 X67.331 Y105.038 E13.57528
G1 X67.109 Y104.456 E13.60836
G1 X127.060 Y104.456 E16.79151
G1 X127.060 Y103.713 E16.83095
G1 X66.938 Y103.713 E20.02322
G1 X66.904 Y103.543 E20.03244
G1 X66.904 Y102.971 E20.06282
G1 X127.060 Y102.971 E23.25687
G1 X127.060 Y102.228 E23.29630
G1 X66.904 Y102.228 E26.49035
G1 X66.904 Y101.485 E26.52978
G1 X127.060 Y101.485 E29.72383
G1 X127.060 Y100.743 E29.76326
G1 X66.904 Y100.743 E32.95731
G1 X66.904 Y100.000 E32.99674
G1 X127.060 Y100.000 E36.19079
G1 X127.060 Y99.257 E36.23022
G1 X66.904 Y99.257 E39.42427
G1 X66.904 Y98.515 E39.46370
G1 X127.060 Y98.515 E42.65775
G1 X127.060 Y97.772 E42.69718
G1 X66.947 Y97.772 E45.88897
G1 X67.056 Y97.216 E45.91904
G1 X67.127 Y97.029 E45.92966
G1 X127.060 Y97.029 E49.11188
G1 X127.060 Y96.287 E49.15131
G1 X67.452 Y96.287 E52.31627
G1 X67.723 Y95.827 E52.34462
G1 X67.961 Y95.544 E52.36425
G1 X127.060 Y95.544 E55.50217
G1 X127.060 Y94.801 E55.54161
G1 X68.736 Y94.801 E58.63840
G1 X68.813 Y94.737 E58.64373
G1 X69.479 Y94.344 E58.68480
G1 X70.259 Y94.059 E58.72888
G1 X127.060 Y94.059 E61.74481
G1 X126.245 Y92.983 F7800.000
G1 F1080
G1 X126.245 Y91.470 E61.88246
G1 X124.996 Y91.470 E61.99610
G1 X124.996 Y92.983 E62.13374
G1 X123.746 Y92.983 E62.24738
G1 X123.746 Y91.470 E62.38503
G1 E61.38503 F1800.00000
G92 E0
G1 X121.246 Y89.965 F7800.000
G1 E1.00000 F1800.00000
G1 F1080
G1 X121.246 Y85.000 E1.45148
G1 X119.996 Y85.000 E1.56512
G1 X119.996 Y89.965 E2.01659
G1 X118.747 Y89.965 E2.13024
G1 X118.747 Y85.000 E2.58171
G1 X117.497 Y85.000 E2.69535
G1 X117.497 Y89.965 E3.14683
G1 X116.775 Y89.965 E3.21247
G1 X116.775 Y85.000 E3.66395
G1 X117.497 Y85.000 E3.72960
G1 X123.746 Y85.000 F7800.000
G1 F1080
G1 X123.746 Y89.965 E4.18107
G1 X124.996 Y89.965 E4.29471
G1 X124.996 Y85.000 E4.74619
G1 X126.245 Y85.000 E4.85983
G1 X126.245 Y89.965 E5.31131
G1 E4.31131 F1800.00000
G92 E0
G1 X121.246 Y92.983 F7800.000
G1 E1.00000 F1800.00000
G1 F1080
G1 X121.246 Y91.470 E1.13764
G1 X119.996 Y91.470 E1.25129
G1 X119.996 Y92.983 E1.38893
G1 X118.747 Y92.983 E1.50257
G1 X118.747 Y91.470 E1.64022
G1 X117.497 Y91.470 E1.75386
G1 X117.497 Y92.983 E1.89150
G1 X116.775 Y92.983 E1.95715
G1 X116.775 Y91.250 E2.11480
G1 X117.210 Y91.250 E2.15436
G1 X117.210 Y91.470 E2.17437
G1 X117.497 Y91.470 E2.20045
G1 E1.20045 F1800.00000
G92 E0
G1 X127.495 Y115.509 F7800.000
G1 E1.00000 F1800.00000
G1 F1080
G1 X127.495 Y115.765 E1.02334
G1 X128.745 Y115.765 E1.13698
G1 X128.745 Y115.113 E1.19630
G1 X129.995 Y115.113 E1.30994
G1 X129.995 Y115.766 E1.36929
G1 E0.36929 F1800.00000
G92 E0
G1 X132.494 Y112.940 F7800.000
G1 E1.00000 F1800.00000
G1 F1080
G1 X132.494 Y111.950 E1.09007
G1 X131.244 Y110.705 E1.25045
G1 X131.244 Y112.940 E1.45369
G1 X129.995 Y112.940 E1.56733
G1 X129.995 Y109.852 E1.84811
G1 X129.369 Y109.434 E1.91649
G1 X129.241 Y110.125 E1.98037
G1 X128.745 Y110.125 E2.02547
G1 X128.745 Y113.545 E2.33641
G1 X128.651 Y113.448 E2.34872
G1 X128.512 Y113.231 E2.37216
G1 X128.583 Y112.723 E2.41877
G1 X128.265 Y112.723 E2.44770
G1 X127.837 Y111.841 E2.53682
G1 X127.605 Y112.723 E2.61974
G1 X127.495 Y112.723 E2.62972
G1 X127.495 Y110.125 E2.86595
G1 X126.245 Y110.125 E2.97959
G1 X126.245 Y112.723 E3.21581
G1 X124.996 Y112.723 E3.32945
G1 X124.996 Y110.125 E3.56568
G1 X123.746 Y110.125 E3.67932
G1 X123.746 Y112.723 E3.91554
G1 X122.496 Y112.723 E4.02919
G1 X122.496 Y110.125 E4.26541
G1 X121.246 Y110.125 E4.37905
G1 X121.246 Y112.723 E4.61528
G1 X119.996 Y112.723 E4.72892
G1 X119.996 Y110.125 E4.96514
G1 X118.747 Y110.125 E5.07878
G1 X118.747 Y112.723 E5.31501
G1 X117.497 Y112.723 E5.42865
G1 X117.497 Y110.125 E5.66487
G1 X116.247 Y110.125 E5.77852
G1 X116.247 Y112.723 E6.01474
G1 X114.997 Y112.723 E6.12838
G1 X114.997 Y110.125 E6.36461
G1 X113.748 Y110.125 E6.47825
G1 X113.748 Y112.723 E6.71447
G1 X112.498 Y112.723 E6.82811
G1 X112.498 Y110.125 E7.06434
G1 X111.248 Y110.125 E7.17798
G1 X111.248 Y112.723 E7.41420
G1 X109.998 Y112.723 E7.52785
G1 X109.998 Y110.125 E7.76407
G1 X108.748 Y110.125 E7.87771
G1 X108.748 Y112.723 E8.11394
G1 X107.499 Y112.723 E8.22758
G1 X107.499 Y110.125 E8.46380
G1 X106.249 Y110.125 E8.57744
G1 X106.249 Y112.723 E8.81367
G1 X104.999 Y112.723 E8.92731
G1 X104.999 Y110.125 E9.16353
G1 X103.749 Y110.125 E9.27718
G1 X103.749 Y112.723 E9.51340
G1 X102.500 Y112.723 E9.62704
G1 X102.500 Y110.125 E9.86327
G1 X101.250 Y110.125 E9.97691
G1 X101.250 Y112.723 E10.21313
G1 X100.000 Y112.723 E10.32677
G1 X100.000 Y110.125 E10.56300
G1 X98.750 Y110.125 E10.67664
G1 X98.750 Y112.723 E10.91286
G1 X97.500 Y112.723 E11.02651
G1 X97.500 Y110.125 E11.26273
G1 X96.776 Y110.125 E11.32862
G1 X96.647 Y109.434 E11.39250
G1 X96.251 Y109.700 E11.43587
G1 X96.251 Y112.940 E11.73055
G1 X95.001 Y112.940 E11.84419
G1 X95.001 Y110.535 E12.06289
G1 X94.824 Y110.653 E12.08220
G1 X93.751 Y111.722 E12.21993
G1 X93.751 Y112.940 E12.33071
G1 X92.528 Y112.940 E12.44194
G1 X93.751 Y111.722 E12.59893
G1 E11.59893 F1800.00000
G92 E0
G1 X97.500 Y113.240 F7800.000
G1 E1.00000 F1800.00000
G1 F1080
G1 X97.500 Y113.198 E1.00380
G1 X97.500 Y113.240 E1.00759
G1 E0.00759 F1800.00000
G92 E0
G1 X96.251 Y115.113 F7800.000
G1 E1.00000 F1800.00000
G1 F1080
G1 X95.571 Y115.113 E1.06182
G1 X95.446 Y115.765 E1.12220
G1 X96.251 Y115.765 E1.19536
G1 X96.251 Y115.113 E1.25468
G1 X97.500 Y115.113 E1.36832
G1 X97.500 Y115.765 E1.42764
M106 S255
M104 S200 ; set temperature
M140 S45 ; set bed temperature
G1 E0.42764 F1800.00000
G92 E0
G1 Z1.650 F7800.000
G1 X126.758 Y107.608 F7800.000
G1 E1.00000 F1800.00000
G1 F2921.44
G1 X126.758 Y93.923 E1.64112
G1 X125.993 Y93.923 E1.67694
G1 X125.993 Y107.608 E2.31806
G1 X125.229 Y107.608 E2.35388
G1 X125.229 Y93.923 E2.99500
G1 X124.464 Y93.923 E3.03082
G1 X124.464 Y107.608 E3.67194
G1 X123.700 Y107.608 E3.70776
G1 X123.700 Y93.923 E4.34888
G1 X122.935 Y93.923 E4.38470
G1 X122.935 Y107.608 E5.02582
G1 X122.171 Y107.608 E5.06164
G1 X122.171 Y93.923 E5.70277
G1 X121.406 Y93.923 E5.73858
G1 X121.406 Y107.608 E6.37971
G1 X120.642 Y107.608 E6.41552
G1 X120.642 Y93.923 E7.05665
G1 X119.877 Y93.923 E7.09246
G1 X119.877 Y107.608 E7.73359
G1 X119.113 Y107.608 E7.76940
G1 X119.113 Y93.923 E8.41053
G1 X118.348 Y93.923 E8.44634
G1 X118.348 Y107.608 E9.08747
G1 X117.584 Y107.608 E9.12328
G1 X117.584 Y93.923 E9.76441
G1 X116.819 Y93.923 E9.80022
G1 X116.819 Y107.608 E10.44135
G1 X116.055 Y107.608 E10.47716
G1 X116.055 Y93.923 E11.11829
G1 X115.290 Y93.923 E11.15410
G1 X115.290 Y107.608 E11.79523
G1 X114.526 Y107.608 E11.83104
G1 X114.526 Y93.923 E12.47217
G1 X113.761 Y93.923 E12.50798
G1 X113.761 Y107.608 E13.14911
G1 X112.997 Y107.608 E13.18492
G1 X112.997 Y93.923 E13.82605
G1 X112.232 Y93.923 E13.86187
G1 X112.232 Y107.608 E14.50299
G1 X111.468 Y107.608 E14.53881
G1 X111.468 Y93.923 E15.17993
G1 X110.703 Y93.923 E15.21575
G1 X110.703 Y107.608 E15.85687
G1 X109.939 Y107.608 E15.89269
G1 X109.939 Y93.923 E16.53381
G1 X109.174 Y93.923 E16.56963
G1 X109.174 Y107.608 E17.21075
G1 X108.410 Y107.608 E17.24657
G1 X108.410 Y93.923 E17.88769
G1 X107.645 Y93.923 E17.92351
G1 X107.645 Y107.608 E18.56463
G1 X106.881 Y107.608 E18.60045
G1 X106.881 Y93.923 E19.24157
G1 X106.116 Y93.923 E19.27739
G1 X106.116 Y107.608 E19.91851
G1 X105.352 Y107.608 E19.95433
G1 X105.352 Y93.923 E20.59545
G1 X104.587 Y93.923 E20.63127
G1 X104.587 Y107.608 E21.27239
G1 X103.823 Y107.608 E21.30821
G1 X103.823 Y93.923 E21.94933
G1 X103.058 Y93.923 E21.98515
G1 X103.058 Y107.608 E22.62627
G1 X102.294 Y107.608 E22.66209
G1 X102.294 Y93.923 E23.30321
G1 X101.529 Y93.923 E23.33903
G1 X101.529 Y107.608 E23.98015
G1 X100.765 Y107.608 E24.01597
G1 X100.765 Y93.923 E24.65709
G1 X100.000 Y93.923 E24.69291
G1 X100.000 Y107.608 E25.33403
G1 X99.235 Y107.608 E25.36985
G1 X99.235 Y93.923 E26.01097
G1 X98.471 Y93.923 E26.04679
G1 X98.471 Y107.608 E26.68791
G1 X97.706 Y107.608 E26.72373
G1 X97.706 Y93.923 E27.36485
G1 X96.942 Y93.923 E27.40067
G1 X96.942 Y107.608 E28.04179
G1 X96.177 Y107.608 E28.07761
G1 X96.177 Y93.923 E28.71873
G1 X95.413 Y93.923 E28.75455
G1 X95.413 Y107.608 E29.39567
G1 X94.648 Y107.608 E29.43149
G1 X94.648 Y93.923 E30.07261
G1 X93.884 Y93.923 E30.10843
G1 X93.884 Y107.608 E30.74956
G1 X93.119 Y107.608 E30.78537
G1 X93.119 Y93.923 E31.42650
G1 X92.355 Y93.923 E31.46231
G1 X92.355 Y107.608 E32.10344
G1 X91.590 Y107.608 E32.13925
G1 X91.590 Y93.923 E32.78038
G1 X90.826 Y93.923 E32.81619
G1 X90.826 Y107.608 E33.45732
G1 X90.061 Y107.608 E33.49313
G1 X90.061 Y93.923 E34.13426
G1 X89.297 Y93.923 E34.17007
G1 X89.297 Y107.608 E34.81120
G1 X88.532 Y107.608 E34.84701
G1 X88.532 Y93.923 E35.48814
G1 X87.768 Y93.923 E35.52395
G1 X87.768 Y107.608 E36.16508
G1 X87.003 Y107.608 E36.20089
G1 X87.003 Y93.923 E36.84202
G1 X86.239 Y93.923 E36.87783
G1 X86.239 Y107.608 E37.51896
G1 X85.474 Y107.608 E37.55478
G1 X85.474 Y93.923 E38.19590
G1 X84.710 Y93.923 E38.23172
G1 X84.710 Y107.608 E38.87284
G1 X83.945 Y107.608 E38.90866
G1 X83.945 Y93.923 E39.54978
G1 X83.181 Y93.923 E39.58560
G1 X83.181 Y107.608 E40.22672
G1 X82.416 Y107.608 E40.26254
G1 X82.416 Y93.923 E40.90366
G1 X81.652 Y93.923 E40.93948
G1 X81.652 Y107.608 E41.58060
G1 X80.887 Y107.608 E41.61642
G1 X80.887 Y93.923 E42.25754
G1 X80.123 Y93.923 E42.29336
G1 X80.123 Y107.608 E42.93448
G1 X79.358 Y107.608 E42.97030
G1 X79.358 Y93.923 E43.61142
G1 X78.594 Y93.923 E43.64724
G1 X78.594 Y107.608 E44.28836
G1 X77.829 Y107.608 E44.32418
G1 X77.829 Y93.923 E44.96530
G1 X77.065 Y93.923 E45.00112
G1 X77.065 Y107.608 E45.64224
G1 X76.300 Y107.608 E45.67806
G1 X76.300 Y93.923 E46.31918
G1 X75.536 Y93.923 E46.35500
G1 X75.536 Y107.608 E46.99612
G1 X74.771 Y107.608 E47.03194
G1 X74.771 Y93.923 E47.67306
G1 X74.007 Y93.923 E47.70888
G1 X74.007 Y107.608 E48.35000
G1 X73.242 Y107.608 E48.38582
G1 X73.242 Y93.923 E49.02694
G1 X72.478 Y93.923 E49.06276
G1 X72.478 Y107.608 E49.70388
G1 X71.713 Y107.608 E49.73970
G1 X71.713 Y93.923 E50.38082
G1 X70.949 Y93.929 E50.41664
G1 X70.949 Y107.603 E51.05727
G1 X70.184 Y107.449 E51.09381
G1 X70.184 Y94.082 E51.72003
G1 X69.420 Y94.386 E51.75856
G1 X69.420 Y107.146 E52.35638
G1 X68.816 Y106.791 E52.38920
G1 X68.655 Y106.655 E52.39905
G1 X68.655 Y94.877 E52.95086
G1 X68.225 Y95.239 E52.97720
G1 X67.891 Y95.636 E53.00153
G1 X67.891 Y105.896 E53.48219
G1 X67.727 Y105.702 E53.49405
G1 X67.335 Y105.036 E53.53025
G1 X67.126 Y104.485 E53.55787
G1 X67.126 Y97.047 E53.90635
G1 E52.90635 F1800.00000
G92 E0
G1 X93.274 Y112.684 F7800.000
G1 E1.00000 F1800.00000
G1 F2921.44
G1 X93.443 Y112.391 E1.01586
G1 X93.148 Y112.684 E1.03533
G1 X93.274 Y112.684 E1.04119
G1 E0.04119 F1800.00000
G92 E0
G1 X98.948 Y116.078 F7800.000
G1 E1.00000 F1800.00000
G1 F2921.44
G1 X98.704 Y114.801 E1.06091
G1 X96.202 Y114.801 E1.17814
G1 X95.312 Y114.801 E1.21981
G1 X95.068 Y116.078 E1.28072
G1 X98.948 Y116.078 E1.46250
G1 E0.46250 F1800.00000
G92 E0
G1 X122.312 Y108.284 F7800.000
G1 E1.00000 F1800.00000
G1 F2921.44
G1 X122.312 Y108.236 E1.00227
G1 X116.463 Y108.236 E1.27631
G1 X116.463 Y108.284 E1.27858
G1 X122.312 Y108.284 E1.55262
G1 X127.463 Y108.284 F7800.000
G1 F2921.44
G1 X127.463 Y108.236 E1.55489
G1 X123.192 Y108.236 E1.75497
G1 X123.192 Y108.284 E1.75724
G1 X127.463 Y108.284 E1.95731
G1 E0.95731 F1800.00000
G92 E0
G1 X129.491 Y109.140 F7800.000
G1 E1.00000 F1800.00000
G1 F2921.44
G1 X129.149 Y108.911 E1.01927
G1 X128.981 Y109.813 E1.06223
G1 X97.035 Y109.813 E2.55887
G1 X96.867 Y108.911 E2.60183
G1 X94.625 Y110.410 E2.72818
G1 X91.771 Y113.253 E2.91689
G1 X96.175 Y113.253 E3.12321
G1 X96.264 Y113.436 E3.13274
G1 X96.408 Y113.646 E3.14468
G1 X96.562 Y113.805 E3.15506
G1 X96.717 Y113.912 E3.16388
G1 X97.008 Y114.027 E3.17855
G1 X97.299 Y113.912 E3.19322
G1 X97.454 Y113.805 E3.20204
G1 X97.609 Y113.646 E3.21243
G1 X97.753 Y113.436 E3.22437
G1 X97.828 Y113.281 E3.23242
G1 X97.793 Y113.035 E3.24405
G1 X127.846 Y113.035 E4.65199
G1 X127.924 Y112.736 E4.66648
G1 X128.070 Y113.035 E4.68205
G1 X128.224 Y113.035 E4.68927
G1 X128.189 Y113.281 E4.70090
G1 X128.264 Y113.436 E4.70894
G1 X128.408 Y113.646 E4.72089
G1 X128.562 Y113.805 E4.73127
G1 X128.717 Y113.912 E4.74009
G1 X129.008 Y114.027 E4.75476
G1 X129.299 Y113.912 E4.76943
G1 X129.454 Y113.805 E4.77825
G1 X129.609 Y113.646 E4.78863
G1 X129.753 Y113.436 E4.80058
G1 X129.842 Y113.253 E4.81011
G1 X134.245 Y113.253 E5.01642
G1 X131.391 Y110.410 E5.20514
G1 X129.491 Y109.140 E5.31222
G1 E4.31222 F1800.00000
G92 E0
G1 X131.029 Y110.853 F7800.000
G1 E1.00000 F1800.00000
G1 F2921.44
G1 X129.550 Y109.864 E1.08334
G1 X129.454 Y110.381 E1.10801
G1 X127.932 Y110.381 E1.17933
G1 X127.659 Y110.855 E1.20492
G1 X124.103 Y110.855 E1.37151
G1 X123.829 Y110.381 E1.39710
G1 X117.933 Y110.381 E1.67334
G1 X117.660 Y110.855 E1.69893
G1 X114.104 Y110.855 E1.86553
G1 X113.831 Y110.381 E1.89112
G1 X107.934 Y110.381 E2.16736
G1 X107.661 Y110.855 E2.19295
G1 X104.105 Y110.855 E2.35955
G1 X103.832 Y110.381 E2.38514
G1 X97.936 Y110.381 E2.66138
G1 X97.663 Y110.855 E2.68697
G1 X94.986 Y110.855 E2.81240
