; generated by Slic3r 1.3.0 on 2022-06-22 at 21:32:35

; external perimeters extrusion width = 0.44mm (1.67mm^3/s)
; perimeters extrusion width = 0.56mm (3.10mm^3/s)
; infill extrusion width = 0.50mm (5.48mm^3/s)
; solid infill extrusion width = 0.56mm (6.20mm^3/s)
; top infill extrusion width = 0.56mm (5.17mm^3/s)
; support material extrusion width = 0.44mm (4.76mm^3/s)

M107
M190 S50 ; set bed temperature and wait for it to be reached
M104 S205 ; set temperature
G28 ; home all axes
G29; Automatic (Bilinear) Bed Leveling probes the bed at some fixed number of points and produces a mesh representing the imperfections across the bed.
G1 Z5 F5000 ; lift nozzle
G92 E0.0 # Set the current position to the values specified.
; Filament gcode

M109 S205 ; set temperature and wait for it to be reached
G21 ; set units to millimeters
G90 ; use absolute coordinates
M82 ; use absolute distances for extrusion
G92 E0
;BEFORE_LAYER_CHANGE
;G92 E0.0 # Set the current position to the values specified.
G1 E-1.00000 F1800.00000
G92 E0
G1 Z-0.500 F7800.000
;AFTER_LAYER_CHANGE
G1 X52.557 Y82.468 F7800.000
G1 E1.00000 F1800.00000
G1 F1080
G1 X54.537 Y81.477 E1.01644
G1 X56.268 Y81.229 E1.02942
G1 X143.732 Y81.229 E1.67865
G1 X145.910 Y81.626 E1.69508
G1 X147.809 Y82.765 E1.71152
G1 X149.184 Y84.501 E1.72796
G1 X149.780 Y86.145 E1.74094
G1 X149.890 Y86.673 E1.74494
G1 X150.016 Y87.696 E1.75259
G1 X150.424 Y98.190 E1.83055
G1 X150.429 Y102.636 E1.86355
G1 X150.015 Y112.331 E1.93558
G1 X149.890 Y113.327 E1.94303
G1 X149.780 Y113.855 E1.94703
G1 X148.947 Y115.906 E1.96347
G1 X147.443 Y117.532 E1.97990
G1 X145.463 Y118.523 E1.99634
G1 X143.732 Y118.771 E2.00932
G1 X56.268 Y118.771 E2.65855
G1 X54.090 Y118.374 E2.67499
G1 X52.191 Y117.235 E2.69142
G1 X50.816 Y115.499 E2.70786
G1 X50.220 Y113.855 E2.72084
G1 X50.110 Y113.327 E2.72485
G1 X49.982 Y112.261 E2.73281
G1 X49.575 Y99.477 E2.82775
G1 X49.571 Y98.430 E2.83553
G1 X49.984 Y87.696 E2.91526
G1 X50.110 Y86.673 E2.92291
G1 X50.220 Y86.145 E2.92692
G1 X51.053 Y84.094 E2.94335
G1 X52.516 Y82.512 E2.95934
G1 E1.95934 F1800.00000
G92 E0
G1 X56.179 Y111.762 F7800.000
G1 E1.00000 F1800.00000
G1 F1080
G1 X143.821 Y111.762 E2.52504
G1 X143.821 Y110.922 E2.53966
G1 X56.179 Y110.922 E4.06470
G1 X56.179 Y110.082 E4.07932
G1 X143.821 Y110.082 E5.60436
G1 X143.821 Y109.242 E5.61898
G1 X56.179 Y109.242 E7.14402
G1 X56.179 Y108.402 E7.15864
G1 X143.821 Y108.402 E8.68368
G1 X143.821 Y107.561 E8.69830
G1 X56.179 Y107.561 E10.22334
G1 X56.179 Y106.721 E10.23796
G1 X143.821 Y106.721 E11.76300
G1 X143.821 Y105.881 E11.77762
G1 X56.179 Y105.881 E13.30266
G1 X56.179 Y105.041 E13.31728
G1 X143.821 Y105.041 E14.84232
G1 X143.821 Y104.201 E14.85694
G1 X56.179 Y104.201 E16.38198
G1 X56.179 Y103.361 E16.39660
G1 X143.821 Y103.361 E17.92164
G1 X143.821 Y102.520 E17.93626
G1 X56.179 Y102.520 E19.46130
G1 X56.179 Y101.680 E19.47592
G1 X143.821 Y101.680 E21.00096
G1 X143.821 Y100.840 E21.01558
G1 X56.179 Y100.840 E22.54062
G1 X56.179 Y100.000 E22.55524
G1 X143.821 Y100.000 E24.08028
G1 X143.821 Y99.160 E24.09490
G1 X56.179 Y99.160 E25.61994
G1 X56.179 Y98.320 E25.63456
G1 X143.821 Y98.320 E27.15960
G1 X143.821 Y97.480 E27.17422
G1 X56.179 Y97.480 E28.69926
G1 X56.179 Y96.639 E28.71388
G1 X143.821 Y96.639 E30.23892
G1 X143.821 Y95.799 E30.25354
G1 X56.179 Y95.799 E31.77858
G1 X56.179 Y94.959 E31.79320
G1 X143.821 Y94.959 E33.31824
G1 X143.821 Y94.119 E33.33286
G1 X56.179 Y94.119 E34.85790
G1 X56.179 Y93.279 E34.87252
G1 X143.821 Y93.279 E36.39756
G1 X143.821 Y92.439 E36.41218
G1 X56.179 Y92.439 E37.93722
G1 X56.179 Y91.598 E37.95184
G1 X143.821 Y91.598 E39.47688
G1 X143.821 Y90.758 E39.49150
G1 X56.179 Y90.758 E41.01654
G1 X56.179 Y89.918 E41.03116
G1 X143.821 Y89.918 E42.55620
G1 X143.821 Y89.078 E42.57082
G1 X56.179 Y89.078 E44.09586
G1 X56.179 Y88.238 E44.11048
G1 X143.821 Y88.238 E45.63552
M106 S140.25
M104 S200 ; set temperature
M140 S45 ; set bed temperature
;BEFORE_LAYER_CHANGE
;G92 E0.0 # Set the current position to the values specified.
G1 E44.63552 F1800.00000
G92 E0
G1 Z-0.200 F7800.000
;AFTER_LAYER_CHANGE
G1 X143.732 Y112.592 F7800.000
G1 E1.00000 F1800.00000
G1 F3600
G1 X143.732 Y87.408 E2.17988
G1 X142.978 Y87.408 E2.21521
G1 X142.978 Y112.592 E3.39509
G1 X142.224 Y112.592 E3.43041
G1 X142.224 Y87.408 E4.61029
G1 X141.470 Y87.408 E4.64562
G1 X141.470 Y112.592 E5.82550
G1 X140.716 Y112.592 E5.86082
G1 X140.716 Y87.408 E7.04070
G1 X139.962 Y87.408 E7.07603
G1 X139.962 Y112.592 E8.25591
G1 X139.208 Y112.592 E8.29123
G1 X139.208 Y87.408 E9.47111
G1 X138.454 Y87.408 E9.50644
G1 X138.454 Y112.592 E10.68632
G1 X137.700 Y112.592 E10.72164
G1 X137.700 Y87.408 E11.90152
G1 X136.946 Y87.408 E11.93685
G1 X136.946 Y112.592 E13.11673
G1 X136.192 Y112.592 E13.15205
G1 X136.192 Y87.408 E14.33193
G1 X135.438 Y87.408 E14.36726
G1 X135.438 Y112.592 E15.54714
G1 X134.684 Y112.592 E15.58246
G1 X134.684 Y87.408 E16.76234
G1 X133.930 Y87.408 E16.79767
G1 X133.930 Y112.592 E17.97755
G1 X133.176 Y112.592 E18.01287
G1 X133.176 Y87.408 E19.19275
G1 X132.422 Y87.408 E19.22808
G1 X132.422 Y112.592 E20.40796
G1 X131.668 Y112.592 E20.44328
G1 X131.668 Y87.408 E21.62316
G1 X130.914 Y87.408 E21.65849
G1 X130.914 Y112.592 E22.83837
G1 X130.160 Y112.592 E22.87369
G1 X130.160 Y87.408 E24.05357
G1 X129.406 Y87.408 E24.08890
G1 X129.406 Y112.592 E25.26878
G1 X128.652 Y112.592 E25.30410
G1 X128.652 Y87.408 E26.48398
G1 X127.898 Y87.408 E26.51931
G1 X127.898 Y112.592 E27.69919
G1 X127.144 Y112.592 E27.73451
G1 X127.144 Y87.408 E28.91439
G1 X126.390 Y87.408 E28.94972
G1 X126.390 Y112.592 E30.12960
G1 X125.636 Y112.592 E30.16492
G1 X125.636 Y87.408 E31.34480
G1 X124.882 Y87.408 E31.38013
G1 X124.882 Y112.592 E32.56001
G1 X124.128 Y112.592 E32.59533
G1 X124.128 Y87.408 E33.77521
G1 X123.374 Y87.408 E33.81054
G1 X123.374 Y112.592 E34.99042
G1 X122.620 Y112.592 E35.02574
G1 X122.620 Y87.408 E36.20562
G1 X121.866 Y87.408 E36.24095
G1 X121.866 Y112.592 E37.42083
G1 X121.112 Y112.592 E37.45615
G1 X121.112 Y87.408 E38.63603
G1 X120.358 Y87.408 E38.67136
G1 X120.358 Y112.592 E39.85124
G1 X119.604 Y112.592 E39.88656
G1 X119.604 Y87.408 E41.06644
G1 X118.850 Y87.408 E41.10177
G1 X118.850 Y112.592 E42.28165
G1 X118.096 Y112.592 E42.31697
G1 X118.096 Y87.408 E43.49685
G1 X117.342 Y87.408 E43.53218
G1 X117.342 Y112.592 E44.71206
G1 X116.588 Y112.592 E44.74738
G1 X116.588 Y87.408 E45.92726
G1 X115.834 Y87.408 E45.96259
G1 X115.834 Y112.592 E47.14247
G1 X115.080 Y112.592 E47.17779
G1 X115.080 Y87.408 E48.35767
G1 X114.326 Y87.408 E48.39300
G1 X114.326 Y112.592 E49.57288
G1 X113.572 Y112.592 E49.60820
G1 X113.572 Y87.408 E50.78808
G1 X112.818 Y87.408 E50.82341
G1 X112.818 Y112.592 E52.00329
G1 X112.064 Y112.592 E52.03861
G1 X112.064 Y87.408 E53.21849
G1 X111.310 Y87.408 E53.25382
G1 X111.310 Y112.592 E54.43370
G1 X110.556 Y112.592 E54.46902
G1 X110.556 Y87.408 E55.64890
G1 X109.802 Y87.408 E55.68423
G1 X109.802 Y112.592 E56.86411
G1 X109.048 Y112.592 E56.89943
G1 X109.048 Y87.408 E58.07931
G1 X108.294 Y87.408 E58.11464
G1 X108.294 Y112.592 E59.29452
G1 X107.540 Y112.592 E59.32984
G1 X107.540 Y87.408 E60.50972
G1 X106.786 Y87.408 E60.54505
G1 X106.786 Y112.592 E61.72493
G1 X106.032 Y112.592 E61.76025
G1 X106.032 Y87.408 E62.94013
G1 X105.278 Y87.408 E62.97546
G1 X105.278 Y112.592 E64.15534
G1 X104.524 Y112.592 E64.19066
G1 X104.524 Y87.408 E65.37054
G1 X103.770 Y87.408 E65.40587
G1 X103.770 Y112.592 E66.58575
G1 X103.016 Y112.592 E66.62107
G1 X103.016 Y87.408 E67.80095
G1 X102.262 Y87.408 E67.83628
G1 X102.262 Y112.592 E69.01616
G1 X101.508 Y112.592 E69.05148
G1 X101.508 Y87.408 E70.23136
G1 X100.754 Y87.408 E70.26669
G1 X100.754 Y112.592 E71.44657
G1 X100.000 Y112.592 E71.48189
G1 X100.000 Y87.408 E72.66177
G1 X99.246 Y87.408 E72.69710
G1 X99.246 Y112.592 E73.87698
G1 X98.492 Y112.592 E73.91230
G1 X98.492 Y87.408 E75.09218
G1 X97.738 Y87.408 E75.12751
G1 X97.738 Y112.592 E76.30739
G1 X96.984 Y112.592 E76.34271
G1 X96.984 Y87.408 E77.52259
G1 X96.230 Y87.408 E77.55792
G1 X96.230 Y112.592 E78.73780
G1 X95.476 Y112.592 E78.77312
G1 X95.476 Y87.408 E79.95300
G1 X94.722 Y87.408 E79.98833
G1 X94.722 Y112.592 E81.16821
G1 X93.968 Y112.592 E81.20353
G1 X93.968 Y87.408 E82.38341
G1 X93.214 Y87.408 E82.41874
G1 X93.214 Y112.592 E83.59862
G1 X92.460 Y112.592 E83.63394
G1 X92.460 Y87.408 E84.81382
G1 X91.706 Y87.408 E84.84915
G1 X91.706 Y112.592 E86.02903
G1 X90.952 Y112.592 E86.06435
G1 X90.952 Y87.408 E87.24423
G1 X90.198 Y87.408 E87.27956
G1 X90.198 Y112.592 E88.45944
G1 X89.444 Y112.592 E88.49476
G1 X89.444 Y87.408 E89.67464
G1 X88.690 Y87.408 E89.70997
G1 X88.690 Y112.592 E90.88985
G1 X87.936 Y112.592 E90.92517
G1 X87.936 Y87.408 E92.10505
G1 X87.182 Y87.408 E92.14038
G1 X87.182 Y112.592 E93.32026
G1 X86.428 Y112.592 E93.35558
G1 X86.428 Y87.408 E94.53546
G1 X85.674 Y87.408 E94.57079
G1 X85.674 Y112.592 E95.75067
G1 X84.920 Y112.592 E95.78599
G1 X84.920 Y87.408 E96.96587
G1 X84.166 Y87.408 E97.00120
G1 X84.166 Y112.592 E98.18108
G1 X83.412 Y112.592 E98.21640
G1 X83.412 Y87.408 E99.39628
G1 X82.658 Y87.408 E99.43161
G1 X82.658 Y112.592 E100.61149
G1 X81.904 Y112.592 E100.64681
G1 X81.904 Y87.408 E101.82669
G1 X81.150 Y87.408 E101.86202
G1 X81.150 Y112.592 E103.04190
G1 X80.396 Y112.592 E103.07722
G1 X80.396 Y87.408 E104.25710
G1 X79.642 Y87.408 E104.29243
G1 X79.642 Y112.592 E105.47231
G1 X78.888 Y112.592 E105.50763
G1 X78.888 Y87.408 E106.68751
G1 X78.134 Y87.408 E106.72284
G1 X78.134 Y112.592 E107.90272
G1 X77.380 Y112.592 E107.93804
G1 X77.380 Y87.408 E109.11792
G1 X76.626 Y87.408 E109.15325
G1 X76.626 Y112.592 E110.33313
G1 X75.872 Y112.592 E110.36845
G1 X75.872 Y87.408 E111.54833
G1 X75.118 Y87.408 E111.58366
G1 X75.118 Y112.592 E112.76354
G1 X74.364 Y112.592 E112.79886
G1 X74.364 Y87.408 E113.97874
G1 X73.610 Y87.408 E114.01407
G1 X73.610 Y112.592 E115.19395
G1 X72.856 Y112.592 E115.22927
G1 X72.856 Y87.408 E116.40915
G1 X72.102 Y87.408 E116.44448
G1 X72.102 Y112.592 E117.62436
G1 X71.348 Y112.592 E117.65968
G1 X71.348 Y87.408 E118.83956
G1 X70.594 Y87.408 E118.87489
G1 X70.594 Y112.592 E120.05477
G1 X69.840 Y112.592 E120.09009
G1 X69.840 Y87.408 E121.26997
G1 X69.086 Y87.408 E121.30530
G1 X69.086 Y112.592 E122.48518
G1 X68.332 Y112.592 E122.52050
G1 X68.332 Y87.408 E123.70038
G1 X67.578 Y87.408 E123.73571
G1 X67.578 Y112.592 E124.91559
G1 X66.824 Y112.592 E124.95091
G1 X66.824 Y87.408 E126.13079
G1 X66.070 Y87.408 E126.16612
G1 X66.070 Y112.592 E127.34600
G1 X65.316 Y112.592 E127.38132
G1 X65.316 Y87.408 E128.56120
G1 X64.562 Y87.408 E128.59653
G1 X64.562 Y112.592 E129.77641
G1 X63.808 Y112.592 E129.81173
G1 X63.808 Y87.408 E130.99161
G1 X63.054 Y87.408 E131.02694
G1 X63.054 Y112.592 E132.20682
G1 X62.300 Y112.592 E132.24214
G1 X62.300 Y87.408 E133.42202
G1 X61.546 Y87.408 E133.45735
G1 X61.546 Y112.592 E134.63723
G1 X60.792 Y112.592 E134.67255
G1 X60.792 Y87.408 E135.85243
G1 X60.038 Y87.408 E135.88776
G1 X60.038 Y112.592 E137.06764
G1 X59.284 Y112.592 E137.10296
G1 X59.284 Y87.408 E138.28284
G1 X58.530 Y87.408 E138.31817
G1 X58.530 Y112.592 E139.49805
G1 X57.776 Y112.592 E139.53337
G1 X57.776 Y87.408 E140.71325
G1 X57.022 Y87.408 E140.74858
G1 X57.022 Y112.592 E141.92846
G1 X56.268 Y112.592 E141.96378
G1 X56.268 Y87.408 E143.14366
M106 S150.45
;BEFORE_LAYER_CHANGE
;G92 E0.0 # Set the current position to the values specified.
G1 E142.14366 F1800.00000
G92 E0
G1 Z0.100 F7800.000
;AFTER_LAYER_CHANGE
G1 X56.158 Y112.064 F7800.000
G1 E1.00000 F1800.00000
G1 F3600
G1 X143.842 Y112.064 E5.10796
G1 X143.842 Y111.310 E5.14329
G1 X56.158 Y111.310 E9.25125
G1 X56.158 Y110.556 E9.28658
G1 X143.842 Y110.556 E13.39454
G1 X143.842 Y109.802 E13.42986
G1 X56.158 Y109.802 E17.53783
G1 X56.158 Y109.048 E17.57315
G1 X143.842 Y109.048 E21.68111
G1 X143.842 Y108.294 E21.71644
G1 X56.158 Y108.294 E25.82440
G1 X56.158 Y107.540 E25.85973
G1 X143.842 Y107.540 E29.96769
G1 X143.842 Y106.786 E30.00301
G1 X56.158 Y106.786 E34.11098
G1 X56.158 Y106.032 E34.14630
G1 X143.842 Y106.032 E38.25427
G1 X143.842 Y105.278 E38.28959
G1 X56.158 Y105.278 E42.39755
G1 X56.158 Y104.524 E42.43288
G1 X143.842 Y104.524 E46.54084
G1 X143.842 Y103.770 E46.57617
G1 X56.158 Y103.770 E50.68413
G1 X56.158 Y103.016 E50.71945
G1 X143.842 Y103.016 E54.82742
G1 X143.842 Y102.262 E54.86274
G1 X56.158 Y102.262 E58.97070
G1 X56.158 Y101.508 E59.00603
G1 X143.842 Y101.508 E63.11399
G1 X143.842 Y100.754 E63.14932
G1 X56.158 Y100.754 E67.25728
G1 X56.158 Y100.000 E67.29260
G1 X143.842 Y100.000 E71.40057
G1 X143.842 Y99.246 E71.43589
G1 X56.158 Y99.246 E75.54386
G1 X56.158 Y98.492 E75.57918
G1 X143.842 Y98.492 E79.68714
G1 X143.842 Y97.738 E79.72247
G1 X56.158 Y97.738 E83.83043
G1 X56.158 Y96.984 E83.86576
G1 X143.842 Y96.984 E87.97372
G1 X143.842 Y96.230 E88.00904
G1 X56.158 Y96.230 E92.11701
G1 X56.158 Y95.476 E92.15233
G1 X143.842 Y95.476 E96.26029
G1 X143.842 Y94.722 E96.29562
G1 X56.158 Y94.722 E100.40358
G1 X56.158 Y93.968 E100.43891
G1 X143.842 Y93.968 E104.54687
G1 X143.842 Y93.214 E104.58219
G1 X56.158 Y93.214 E108.69016
G1 X56.158 Y92.460 E108.72548
G1 X143.842 Y92.460 E112.83345
G1 X143.842 Y91.706 E112.86877
G1 X56.158 Y91.706 E116.97673
G1 X56.158 Y90.952 E117.01206
G1 X143.842 Y90.952 E121.12002
G1 X143.842 Y90.198 E121.15535
G1 X56.158 Y90.198 E125.26331
G1 X56.158 Y89.444 E125.29863
G1 X143.842 Y89.444 E129.40660
G1 X143.842 Y88.690 E129.44192
G1 X56.158 Y88.690 E133.54988
G1 X56.158 Y87.936 E133.58521
G1 X143.842 Y87.936 E137.69317
M106 S255
;BEFORE_LAYER_CHANGE
;G92 E0.0 # Set the current position to the values specified.
G1 E136.69317 F1800.00000
G92 E0
G1 Z0.300 F7800.000
;AFTER_LAYER_CHANGE
G1 X144.250 Y102.636 F7800.000
G1 E1.00000 F1800.00000
G1 F600
G1 X144.250 Y98.430 E1.13887
G1 X143.410 Y98.430 E1.16661
G1 X143.410 Y102.636 E1.30548
G1 X144.250 Y102.636 E1.33321
G1 E0.33321 F1800.00000
G92 E0
G1 X56.590 Y99.050 F7800.000
G1 E1.00000 F1800.00000
G1 F600
G1 X56.590 Y98.430 E1.02047
G1 X55.750 Y98.430 E1.04821
G1 X55.750 Y99.280 E1.07627
G1 X56.590 Y99.280 E1.10401
G1 X56.590 Y99.050 E1.11160
M107
;BEFORE_LAYER_CHANGE
;G92 E0.0 # Set the current position to the values specified.
G1 E0.11160 F1800.00000
G92 E0
G1 Z0.700 F7800.000
;AFTER_LAYER_CHANGE
G1 E1.00000 F1800.00000
G1 F3600
G1 X56.590 Y99.280 E1.01355
G1 X55.750 Y99.280 E1.06302
G1 X55.750 Y98.430 E1.11309
G1 X56.590 Y98.430 E1.16256
G1 X56.590 Y99.050 E1.19908
G1 E0.19908 F1800.00000
G92 E0
G1 X144.250 Y102.636 F7800.000
G1 E1.00000 F1800.00000
G1 F3600
G1 X144.250 Y98.430 E1.24772
G1 X143.410 Y98.430 E1.29720
G1 X143.410 Y102.636 E1.54492
G1 X144.250 Y102.636 E1.59439
;BEFORE_LAYER_CHANGE
;G92 E0.0 # Set the current position to the values specified.
G1 E0.59439 F1800.00000
G92 E0
G1 Z1.100 F7800.000
;AFTER_LAYER_CHANGE
G1 X103.317 Y108.584 F7800.000
G1 E1.00000 F1800.00000
M106 S255

G1 F3600
G1 X101.893 Y108.644 E1.07445
G1 X100.480 Y108.463 E1.14890
G1 X99.117 Y108.046 E1.22335
G1 X97.845 Y107.404 E1.29780
G1 X96.699 Y106.557 E1.37225
G1 X95.713 Y105.528 E1.44670
G1 X94.915 Y104.347 E1.52114
G1 X94.328 Y103.049 E1.59559
G1 X93.969 Y101.670 E1.67004
G1 X93.848 Y100.250 E1.74449
G1 X93.969 Y98.830 E1.81894
G1 X94.328 Y97.451 E1.89339
G1 X94.915 Y96.153 E1.96784
G1 X95.713 Y94.972 E2.04229
G1 X96.699 Y93.943 E2.11674
G1 X97.845 Y93.096 E2.19119
G1 X99.117 Y92.454 E2.26564
G1 X100.480 Y92.037 E2.34009
G1 X101.893 Y91.856 E2.41454
G1 X103.317 Y91.916 E2.48898
G1 X104.710 Y92.217 E2.56343
G1 X106.032 Y92.748 E2.63788
G1 X107.246 Y93.495 E2.71233
G1 X108.316 Y94.437 E2.78678
G1 X109.211 Y95.545 E2.86123
