; generated by Slic3r 1.3.0 on 2022-06-12 at 21:45:11

; external perimeters extrusion width = 0.44mm (1.67mm^3/s)
; perimeters extrusion width = 0.56mm (3.10mm^3/s)
; infill extrusion width = 0.50mm (5.48mm^3/s)
; solid infill extrusion width = 0.56mm (6.20mm^3/s)
; top infill extrusion width = 0.56mm (5.17mm^3/s)
; support material extrusion width = 0.44mm (4.76mm^3/s)

M107
M190 S50 ; set bed temperature and wait for it to be reached
M104 S205 ; set temperature
G28 ; home all axes
;G29; Automatic (Bilinear) Bed Leveling probes the bed at some fixed number of points and produces a mesh representing the imperfections across the bed.
G1 Z5 F5000 ; lift nozzle
G92 E0.0 # Set the current position to the values specified.
; Filament gcode

M109 S205 ; set temperature and wait for it to be reached
G21 ; set units to millimeters
G90 ; use absolute coordinates
M82 ; use absolute distances for extrusion
G92 E0
;BEFORE_LAYER_CHANGE
;G92 E0.0 # Set the current position to the values specified.
G1 E-1.00000 F1800.00000
G92 E0
G1 Z-0.350 F7800.000
;AFTER_LAYER_CHANGE
G1 X63.622 Y84.408 F7800.000
G1 E1.00000 F1800.00000
G1 F1080
G1 X65.447 Y83.020 E1.20854
G1 X68.484 Y82.283 E1.49265
G1 X130.160 Y82.283 E7.10086
G1 X131.492 Y82.418 E7.22257
G1 X132.005 Y82.523 E7.27024
G1 X134.138 Y83.366 E7.47878
G1 X135.856 Y84.886 E7.68732
G1 X136.952 Y86.900 E7.89587
G1 X137.298 Y89.013 E8.09054
G1 X137.298 Y110.987 E10.08861
G1 X136.901 Y113.246 E10.29715
G1 X135.758 Y115.234 E10.50570
G1 X134.005 Y116.713 E10.71424
G1 X132.005 Y117.477 E10.90891
G1 X131.492 Y117.582 E10.95658
G1 X130.160 Y117.717 E11.07829
G1 X68.484 Y117.717 E16.68650
G1 X66.225 Y117.320 E16.89505
G1 X64.237 Y116.177 E17.10359
G1 X62.757 Y114.424 E17.31213
G1 X61.867 Y111.429 E17.59624
G1 X61.451 Y100.309 E18.60810
G1 X61.457 Y98.446 E18.77753
G1 X61.867 Y88.571 E19.67622
G1 X62.379 Y86.335 E19.88476
G1 X63.589 Y84.458 E20.08785
G1 E19.08785 F1800.00000
G92 E0
G1 X68.478 Y110.987 F7800.000
G1 E1.00000 F1800.00000
G1 F1080
G1 X130.674 Y110.987 E4.30233
G1 X130.674 Y110.254 E4.34122
G1 X68.478 Y110.254 E7.64356
G1 X68.478 Y109.522 E7.68245
G1 X130.674 Y109.522 E10.98478
G1 X130.674 Y108.790 E11.02367
G1 X68.478 Y108.790 E14.32601
G1 X68.478 Y108.057 E14.36490
G1 X130.674 Y108.057 E17.66723
G1 X130.674 Y107.325 E17.70612
G1 X68.478 Y107.325 E21.00845
G1 X68.478 Y106.592 E21.04735
G1 X130.674 Y106.592 E24.34968
G1 X130.674 Y105.860 E24.38857
G1 X68.478 Y105.860 E27.69090
G1 X68.478 Y105.127 E27.72979
G1 X130.674 Y105.127 E31.03213
G1 X130.674 Y104.395 E31.07102
G1 X68.478 Y104.395 E34.37335
G1 X68.478 Y103.662 E34.41224
G1 X130.674 Y103.662 E37.71458
G1 X130.674 Y102.930 E37.75347
G1 X68.478 Y102.930 E41.05580
G1 X68.478 Y102.197 E41.09469
G1 X130.674 Y102.197 E44.39702
G1 X130.674 Y101.465 E44.43592
G1 X68.478 Y101.465 E47.73825
G1 X68.478 Y100.732 E47.77714
G1 X130.674 Y100.732 E51.07947
G1 X130.674 Y100.000 E51.11836
G1 X68.478 Y100.000 E54.42070
G1 X68.478 Y99.268 E54.45959
G1 X130.674 Y99.268 E57.76192
G1 X130.674 Y98.535 E57.80081
G1 X68.478 Y98.535 E61.10315
G1 X68.478 Y97.803 E61.14204
G1 X130.674 Y97.803 E64.44437
G1 X130.674 Y97.070 E64.48326
G1 X68.478 Y97.070 E67.78559
G1 X68.478 Y96.338 E67.82449
G1 X130.674 Y96.338 E71.12682
G1 X130.674 Y95.605 E71.16571
G1 X68.478 Y95.605 E74.46804
G1 X68.478 Y94.873 E74.50693
G1 X130.674 Y94.873 E77.80927
G1 X130.674 Y94.140 E77.84816
G1 X68.478 Y94.140 E81.15049
G1 X68.478 Y93.408 E81.18938
G1 X130.674 Y93.408 E84.49172
G1 X130.674 Y92.675 E84.53061
G1 X68.478 Y92.675 E87.83294
G1 X68.478 Y91.943 E87.87183
G1 X130.674 Y91.943 E91.17416
G1 X130.674 Y91.210 E91.21305
G1 X68.478 Y91.210 E94.51539
G1 X68.478 Y90.478 E94.55428
G1 X130.674 Y90.478 E97.85661
G1 X130.674 Y89.746 E97.89550
G1 X68.478 Y89.746 E101.19784
G1 X68.478 Y89.013 E101.23673
G1 X130.674 Y89.013 E104.53906
M106 S244.8
M104 S200 ; set temperature
M140 S45 ; set bed temperature
;BEFORE_LAYER_CHANGE
;G92 E0.0 # Set the current position to the values specified.
G1 E103.53906 F1800.00000
G92 E0
G1 Z-0.050 F7800.000
;AFTER_LAYER_CHANGE
G1 X130.160 Y111.092 F7800.000
G1 E1.00000 F1800.00000
G1 F3600
G1 X130.160 Y88.908 E2.03933
G1 X129.406 Y88.908 E2.07466
G1 X129.406 Y111.092 E3.11399
G1 X128.652 Y111.092 E3.14931
G1 X128.652 Y88.908 E4.18865
G1 X127.898 Y88.908 E4.22397
G1 X127.898 Y111.092 E5.26330
G1 X127.144 Y111.092 E5.29863
G1 X127.144 Y88.908 E6.33796
G1 X126.390 Y88.908 E6.37329
G1 X126.390 Y111.092 E7.41262
G1 X125.636 Y111.092 E7.44794
G1 X125.636 Y88.908 E8.48727
G1 X124.882 Y88.908 E8.52260
G1 X124.882 Y111.092 E9.56193
G1 X124.128 Y111.092 E9.59726
G1 X124.128 Y88.908 E10.63659
G1 X123.374 Y88.908 E10.67191
G1 X123.374 Y111.092 E11.71125
G1 X122.620 Y111.092 E11.74657
G1 X122.620 Y88.908 E12.78590
G1 X121.866 Y88.908 E12.82123
G1 X121.866 Y111.092 E13.86056
G1 X121.112 Y111.092 E13.89588
G1 X121.112 Y88.908 E14.93522
G1 X120.358 Y88.908 E14.97054
G1 X120.358 Y111.092 E16.00987
G1 X119.604 Y111.092 E16.04520
G1 X119.604 Y88.908 E17.08453
G1 X118.850 Y88.908 E17.11986
G1 X118.850 Y111.092 E18.15919
G1 X118.096 Y111.092 E18.19451
G1 X118.096 Y88.908 E19.23385
G1 X117.342 Y88.908 E19.26917
G1 X117.342 Y111.092 E20.30850
G1 X116.588 Y111.092 E20.34383
G1 X116.588 Y88.908 E21.38316
G1 X115.834 Y88.908 E21.41848
G1 X115.834 Y111.092 E22.45782
G1 X115.080 Y111.092 E22.49314
G1 X115.080 Y88.908 E23.53247
G1 X114.326 Y88.908 E23.56780
G1 X114.326 Y111.092 E24.60713
G1 X113.572 Y111.092 E24.64246
G1 X113.572 Y88.908 E25.68179
G1 X112.818 Y88.908 E25.71711
G1 X112.818 Y111.092 E26.75645
G1 X112.064 Y111.092 E26.79177
G1 X112.064 Y88.908 E27.83110
G1 X111.310 Y88.908 E27.86643
G1 X111.310 Y111.092 E28.90576
G1 X110.556 Y111.092 E28.94108
G1 X110.556 Y88.908 E29.98042
G1 X109.802 Y88.908 E30.01574
G1 X109.802 Y111.092 E31.05507
G1 X109.048 Y111.092 E31.09040
G1 X109.048 Y88.908 E32.12973
G1 X108.294 Y88.908 E32.16505
G1 X108.294 Y111.092 E33.20439
G1 X107.540 Y111.092 E33.23971
G1 X107.540 Y88.908 E34.27904
G1 X106.786 Y88.908 E34.31437
G1 X106.786 Y111.092 E35.35370
G1 X106.032 Y111.092 E35.38903
G1 X106.032 Y88.908 E36.42836
G1 X105.278 Y88.908 E36.46368
G1 X105.278 Y111.092 E37.50302
G1 X104.524 Y111.092 E37.53834
G1 X104.524 Y88.908 E38.57767
G1 X103.770 Y88.908 E38.61300
G1 X103.770 Y111.092 E39.65233
G1 X103.016 Y111.092 E39.68765
G1 X103.016 Y88.908 E40.72699
G1 X102.262 Y88.908 E40.76231
G1 X102.262 Y111.092 E41.80164
G1 X101.508 Y111.092 E41.83697
G1 X101.508 Y88.908 E42.87630
G1 X100.754 Y88.908 E42.91163
G1 X100.754 Y111.092 E43.95096
G1 X100.000 Y111.092 E43.98628
G1 X100.000 Y88.908 E45.02562
G1 X99.246 Y88.908 E45.06094
G1 X99.246 Y111.092 E46.10027
G1 X98.492 Y111.092 E46.13560
G1 X98.492 Y88.908 E47.17493
G1 X97.738 Y88.908 E47.21025
G1 X97.738 Y111.092 E48.24959
G1 X96.984 Y111.092 E48.28491
G1 X96.984 Y88.908 E49.32424
G1 X96.230 Y88.908 E49.35957
G1 X96.230 Y111.092 E50.39890
G1 X95.476 Y111.092 E50.43422
G1 X95.476 Y88.908 E51.47356
G1 X94.722 Y88.908 E51.50888
G1 X94.722 Y111.092 E52.54821
G1 X93.968 Y111.092 E52.58354
G1 X93.968 Y88.908 E53.62287
G1 X93.214 Y88.908 E53.65820
G1 X93.214 Y111.092 E54.69753
G1 X92.460 Y111.092 E54.73285
G1 X92.460 Y88.908 E55.77219
G1 X91.706 Y88.908 E55.80751
G1 X91.706 Y111.092 E56.84684
G1 X90.952 Y111.092 E56.88217
G1 X90.952 Y88.908 E57.92150
G1 X90.198 Y88.908 E57.95682
G1 X90.198 Y111.092 E58.99616
G1 X89.444 Y111.092 E59.03148
G1 X89.444 Y88.908 E60.07081
G1 X88.690 Y88.908 E60.10614
G1 X88.690 Y111.092 E61.14547
G1 X87.936 Y111.092 E61.18079
G1 X87.936 Y88.908 E62.22013
G1 X87.182 Y88.908 E62.25545
G1 X87.182 Y111.092 E63.29478
G1 X86.428 Y111.092 E63.33011
G1 X86.428 Y88.908 E64.36944
G1 X85.674 Y88.908 E64.40477
G1 X85.674 Y111.092 E65.44410
G1 X84.920 Y111.092 E65.47942
G1 X84.920 Y88.908 E66.51876
G1 X84.166 Y88.908 E66.55408
G1 X84.166 Y111.092 E67.59341
G1 X83.412 Y111.092 E67.62874
G1 X83.412 Y88.908 E68.66807
G1 X82.658 Y88.908 E68.70339
G1 X82.658 Y111.092 E69.74273
G1 X81.904 Y111.092 E69.77805
G1 X81.904 Y88.908 E70.81738
G1 X81.150 Y88.908 E70.85271
G1 X81.150 Y111.092 E71.89204
G1 X80.396 Y111.092 E71.92736
G1 X80.396 Y88.908 E72.96670
G1 X79.642 Y88.908 E73.00202
G1 X79.642 Y111.092 E74.04135
G1 X78.888 Y111.092 E74.07668
G1 X78.888 Y88.908 E75.11601
G1 X78.134 Y88.908 E75.15134
G1 X78.134 Y111.092 E76.19067
G1 X77.380 Y111.092 E76.22599
G1 X77.380 Y88.908 E77.26533
G1 X76.626 Y88.908 E77.30065
G1 X76.626 Y111.092 E78.33998
G1 X75.872 Y111.092 E78.37531
G1 X75.872 Y88.908 E79.41464
G1 X75.118 Y88.908 E79.44996
G1 X75.118 Y111.092 E80.48930
G1 X74.364 Y111.092 E80.52462
G1 X74.364 Y88.908 E81.56395
G1 X73.610 Y88.908 E81.59928
G1 X73.610 Y111.092 E82.63861
G1 X72.856 Y111.092 E82.67394
G1 X72.856 Y88.908 E83.71327
G1 X72.102 Y88.908 E83.74859
G1 X72.102 Y111.092 E84.78793
G1 X71.348 Y111.092 E84.82325
G1 X71.348 Y88.908 E85.86258
G1 X70.594 Y88.908 E85.89791
G1 X70.594 Y111.092 E86.93724
G1 X69.840 Y111.092 E86.97256
G1 X69.840 Y88.908 E88.01190
G1 X69.086 Y88.908 E88.04722
G1 X69.086 Y111.092 E89.08655
G1 X68.484 Y111.092 E89.11478
G1 X68.484 Y88.908 E90.15411
G1 X69.086 Y88.908 E90.18233
M106 S252.45
;BEFORE_LAYER_CHANGE
;G92 E0.0 # Set the current position to the values specified.
G1 E89.18233 F1800.00000
G92 E0
G1 Z0.250 F7800.000
;AFTER_LAYER_CHANGE
G1 X68.484 Y110.556 F7800.000
G1 E1.00000 F1800.00000
G1 F3600
G1 X130.668 Y110.556 E3.91331
G1 X130.668 Y109.802 E3.94863
G1 X68.484 Y109.802 E6.86194
G1 X68.484 Y109.048 E6.89726
G1 X130.668 Y109.048 E9.81057
G1 X130.668 Y108.294 E9.84589
G1 X68.484 Y108.294 E12.75920
G1 X68.484 Y107.540 E12.79452
G1 X130.668 Y107.540 E15.70783
G1 X130.668 Y106.786 E15.74315
G1 X68.484 Y106.786 E18.65646
G1 X68.484 Y106.032 E18.69178
G1 X130.668 Y106.032 E21.60509
G1 X130.668 Y105.278 E21.64041
G1 X68.484 Y105.278 E24.55372
G1 X68.484 Y104.524 E24.58904
G1 X130.668 Y104.524 E27.50235
G1 X130.668 Y103.770 E27.53767
G1 X68.484 Y103.770 E30.45098
G1 X68.484 Y103.016 E30.48630
G1 X130.668 Y103.016 E33.39961
G1 X130.668 Y102.262 E33.43493
G1 X68.484 Y102.262 E36.34824
G1 X68.484 Y101.508 E36.38356
G1 X130.668 Y101.508 E39.29687
G1 X130.668 Y100.754 E39.33219
G1 X68.484 Y100.754 E42.24550
G1 X68.484 Y100.000 E42.28082
G1 X130.668 Y100.000 E45.19413
G1 X130.668 Y99.246 E45.22945
G1 X68.484 Y99.246 E48.14276
G1 X68.484 Y98.492 E48.17808
G1 X130.668 Y98.492 E51.09139
G1 X130.668 Y97.738 E51.12671
G1 X68.484 Y97.738 E54.04002
G1 X68.484 Y96.984 E54.07534
G1 X130.668 Y96.984 E56.98865
G1 X130.668 Y96.230 E57.02397
G1 X68.484 Y96.230 E59.93728
G1 X68.484 Y95.476 E59.97260
G1 X130.668 Y95.476 E62.88591
G1 X130.668 Y94.722 E62.92123
G1 X68.484 Y94.722 E65.83454
G1 X68.484 Y93.968 E65.86986
G1 X130.668 Y93.968 E68.78317
G1 X130.668 Y93.214 E68.81849
G1 X68.484 Y93.214 E71.73180
G1 X68.484 Y92.460 E71.76712
G1 X130.668 Y92.460 E74.68043
G1 X130.668 Y91.706 E74.71575
G1 X68.484 Y91.706 E77.62906
G1 X68.484 Y90.952 E77.66438
G1 X130.668 Y90.952 E80.57769
G1 X130.668 Y90.198 E80.61301
G1 X68.484 Y90.198 E83.52632
G1 X68.484 Y89.444 E83.56164
G1 X130.668 Y89.444 E86.47495
M106 S255
;BEFORE_LAYER_CHANGE
;G92 E0.0 # Set the current position to the values specified.
G1 E85.47495 F1800.00000
G92 E0
G1 Z0.650 F7800.000
;AFTER_LAYER_CHANGE
G1 X68.916 Y99.689 F7800.000
G1 E1.00000 F1800.00000
G1 F600
G1 X68.916 Y98.720 E1.05707
G1 X68.076 Y98.720 E1.10654
G1 X68.076 Y100.309 E1.20012
G1 X68.916 Y100.309 E1.24960
G1 X68.916 Y99.719 E1.28437
G1 X69.136 Y99.719 E1.29733
G1 X69.136 Y99.689 E1.29907
G1 X68.916 Y99.689 E1.31203
M106 S160.65
;BEFORE_LAYER_CHANGE
;G92 E0.0 # Set the current position to the values specified.
G1 E0.31203 F1800.00000
G92 E0
G1 Z1.050 F7800.000
;AFTER_LAYER_CHANGE
G1 E1.00000 F1800.00000
G1 F3600
G1 X68.916 Y100.309 E1.03652
G1 X68.076 Y100.309 E1.08599
G1 X68.076 Y98.720 E1.17957
G1 X68.916 Y98.720 E1.22905
G1 X68.916 Y99.689 E1.28611
;BEFORE_LAYER_CHANGE
;G92 E0.0 # Set the current position to the values specified.
G1 E0.28611 F1800.00000
G92 E0
G1 Z1.250 F7800.000
;AFTER_LAYER_CHANGE
G1 X128.678 Y109.102 F7800.000
G1 E1.00000 F1800.00000
M106 S255

G1 F3600
G1 X70.474 Y109.102 E4.04083
G1 X70.474 Y90.898 E4.99186
G1 X128.678 Y90.898 E8.03269
G1 X128.678 Y109.042 E8.98059
M106 S160.65

G1 X129.012 Y109.436 F7800.000
M106 S255

G1 F3600
G1 X70.140 Y109.436 E12.05634
G1 X70.140 Y90.564 E13.04228
G1 X129.012 Y90.564 E16.11803
G1 X129.012 Y109.376 E17.10084
M106 S160.65

G1 X129.356 Y109.780 F7800.000
M106 S255

G1 F3600
G1 X69.796 Y109.780 E20.21255
G1 X69.796 Y90.220 E21.23446
G1 X129.356 Y90.220 E24.34617
G1 X129.356 Y109.720 E25.36494
M106 S160.65

G1 E24.36494 F1800.00000
G92 E0
G1 X128.438 Y91.443 F7800.000
G1 E1.00000 F1800.00000
M106 S255

G1 F3600
G1 X128.133 Y91.138 E1.02280
G1 X127.493 Y91.138 E1.05661
G1 X128.438 Y92.083 E1.12721
G1 X128.438 Y92.722 E1.16101
G1 X126.854 Y91.138 E1.27942
G1 X126.214 Y91.138 E1.31323
G1 X128.438 Y93.362 E1.47944
G1 X128.438 Y94.002 E1.51324
G1 X125.574 Y91.138 E1.72726
G1 X124.935 Y91.138 E1.76107
G1 X128.438 Y94.641 E2.02289
G1 X128.438 Y95.281 E2.05669
G1 X124.295 Y91.138 E2.36632
G1 X123.655 Y91.138 E2.40012
G1 X128.438 Y95.920 E2.75755
G1 X128.438 Y96.560 E2.79135
G1 X123.016 Y91.138 E3.19659
G1 X122.376 Y91.138 E3.23039
G1 X128.438 Y97.200 E3.68343
G1 X128.438 Y97.839 E3.71723
G1 X121.736 Y91.138 E4.21808
G1 X121.097 Y91.138 E4.25188
G1 X128.438 Y98.479 E4.80053
G1 X128.438 Y99.119 E4.83433
G1 X120.457 Y91.138 E5.43078
G1 X119.818 Y91.138 E5.46458
G1 X128.438 Y99.758 E6.10884
G1 X128.438 Y100.398 E6.14264
G1 X119.178 Y91.138 E6.83470
G1 X118.538 Y91.138 E6.86850
G1 X128.438 Y101.038 E7.60837
G1 X128.438 Y101.677 E7.64217
G1 X117.899 Y91.138 E8.42984
G1 X117.259 Y91.138 E8.46364
G1 X128.438 Y102.317 E9.29911
G1 X128.438 Y102.957 E9.33291
G1 X116.619 Y91.138 E10.21619
G1 X115.980 Y91.138 E10.24999
G1 X128.438 Y103.596 E11.18107
G1 X128.438 Y104.236 E11.21488
G1 X115.340 Y91.138 E12.19376
G1 X114.700 Y91.138 E12.22756
G1 X128.438 Y104.875 E13.25425
G1 X128.438 Y105.515 E13.28805
G1 X114.061 Y91.138 E14.36254
G1 X113.421 Y91.138 E14.39635
G1 X128.438 Y106.155 E15.51864
G1 X128.438 Y106.794 E15.55245
G1 X112.781 Y91.138 E16.72255
G1 X112.142 Y91.138 E16.75635
G1 X128.438 Y107.434 E17.97425
G1 X128.438 Y108.074 E18.00806
G1 X111.502 Y91.138 E19.27376
G1 X110.863 Y91.138 E19.30757
G1 X128.438 Y108.713 E20.62108
G1 X128.438 Y108.862 E20.62894
G1 X127.947 Y108.862 E20.65488
G1 X110.223 Y91.138 E21.97951
G1 X109.583 Y91.138 E22.01332
G1 X127.307 Y108.862 E23.33795
G1 X126.668 Y108.862 E23.37175
G1 X108.944 Y91.138 E24.69638
G1 X108.304 Y91.138 E24.73019
G1 X126.028 Y108.862 E26.05482
G1 X125.389 Y108.862 E26.08862
G1 X107.664 Y91.138 E27.41325
G1 X107.025 Y91.138 E27.44705
G1 X124.749 Y108.862 E28.77169
G1 X124.109 Y108.862 E28.80549
G1 X106.385 Y91.138 E30.13012
G1 X105.745 Y91.138 E30.16392
G1 X123.470 Y108.862 E31.48855
G1 X122.830 Y108.862 E31.52236
G1 X105.106 Y91.138 E32.84699
G1 X104.466 Y91.138 E32.88079
G1 X122.190 Y108.862 E34.20542
G1 X121.551 Y108.862 E34.23922
G1 X103.826 Y91.138 E35.56386
G1 X103.187 Y91.138 E35.59766
G1 X120.911 Y108.862 E36.92229
G1 X120.271 Y108.862 E36.95609
G1 X102.547 Y91.138 E38.28072
G1 X101.908 Y91.138 E38.31453
G1 X119.632 Y108.862 E39.63916
G1 X118.992 Y108.862 E39.67296
G1 X101.268 Y91.138 E40.99759
G1 X100.628 Y91.138 E41.03140
G1 X118.352 Y108.862 E42.35603
G1 X117.713 Y108.862 E42.38983
G1 X99.989 Y91.138 E43.71446
G1 X99.349 Y91.138 E43.74826
G1 X117.073 Y108.862 E45.07290
G1 X116.434 Y108.862 E45.10670
