; generated by Slic3r 1.3.0 on 2022-06-12 at 17:34:18

; external perimeters extrusion width = 0.44mm (2.68mm^3/s)
; perimeters extrusion width = 0.43mm (3.77mm^3/s)
; infill extrusion width = 0.43mm (7.54mm^3/s)
; solid infill extrusion width = 0.43mm (7.54mm^3/s)
; top infill extrusion width = 0.43mm (6.28mm^3/s)
; support material extrusion width = 0.44mm (7.66mm^3/s)

M107
M190 S50 ; set bed temperature and wait for it to be reached
M104 S205 ; set temperature
G28 ; home all axes
G29; Automatic (Bilinear) Bed Leveling probes the bed at some fixed number of points and produces a mesh representing the imperfections across the bed.
G1 Z5 F5000 ; lift nozzle
G92 E0.0 # Set the current position to the values specified.
; Filament gcode

M109 S205 ; set temperature and wait for it to be reached
G21 ; set units to millimeters
G90 ; use absolute coordinates
M82 ; use absolute distances for extrusion
G92 E0
;BEFORE_LAYER_CHANGE
;G92 E0.0 # Set the current position to the values specified.
G1 E-1.00000 F1800.00000
G92 E0
G1 Z0.350 F7800.000
;AFTER_LAYER_CHANGE
G1 X64.007 Y89.043 F7800.000
G1 E1.00000 F1800.00000
G1 F1080
G1 X65.936 Y87.801 E1.20854
G1 X68.505 Y87.283 E1.44686
G1 X129.920 Y87.283 E7.03137
G1 X132.179 Y87.680 E7.23991
G1 X133.984 Y88.675 E7.42730
G1 X134.731 Y89.256 E7.51338
G1 X136.272 Y90.955 E7.72192
G1 X137.141 Y93.077 E7.93047
G1 X137.289 Y94.263 E8.03910
G1 X137.298 Y94.646 E8.07394
G1 X137.295 Y105.580 E9.06816
G1 X137.289 Y105.737 E9.08249
G1 X136.816 Y107.981 E9.29103
G1 X135.605 Y109.929 E9.49957
G1 X134.731 Y110.744 E9.60821
G1 X133.984 Y111.325 E9.69429
G1 X131.956 Y112.397 E9.90283
G1 X129.920 Y112.717 E10.09022
G1 X68.505 Y112.717 E15.67472
G1 X66.246 Y112.320 E15.88327
G1 X64.258 Y111.177 E16.09181
G1 X62.779 Y109.424 E16.30035
G1 X61.941 Y106.993 E16.53417
G1 X61.512 Y103.867 E16.82105
G1 X61.451 Y102.967 E16.90313
G1 X61.451 Y97.221 E17.42558
G1 X61.506 Y96.370 E17.50308
G1 X61.935 Y93.057 E17.80685
G1 X62.618 Y90.868 E18.01540
G1 X63.971 Y89.091 E18.21848
G1 E17.21848 F1800.00000
G92 E0
G1 X68.478 Y105.354 F7800.000
G1 E1.00000 F1800.00000
G1 F1080
G1 X130.674 Y105.354 E4.30233
G1 X130.674 Y104.589 E4.34295
G1 X68.478 Y104.589 E7.64528
G1 X68.478 Y103.824 E7.68589
G1 X130.674 Y103.824 E10.98823
G1 X130.674 Y103.060 E11.02884
G1 X68.478 Y103.060 E14.33117
G1 X68.478 Y102.295 E14.37178
G1 X130.674 Y102.295 E17.67412
G1 X130.674 Y101.530 E17.71473
G1 X68.478 Y101.530 E21.01706
G1 X68.478 Y100.765 E21.05768
G1 X130.674 Y100.765 E24.36001
G1 X130.674 Y100.000 E24.40062
G1 X68.478 Y100.000 E27.70296
G1 X68.478 Y99.235 E27.74357
G1 X130.674 Y99.235 E31.04590
G1 X130.674 Y98.470 E31.08651
G1 X68.478 Y98.470 E34.38885
G1 X68.478 Y97.705 E34.42946
G1 X130.674 Y97.705 E37.73179
G1 X130.674 Y96.940 E37.77241
G1 X68.478 Y96.940 E41.07474
G1 X68.478 Y96.176 E41.11535
G1 X130.674 Y96.176 E44.41769
G1 X130.674 Y95.411 E44.45830
G1 X68.478 Y95.411 E47.76063
G1 X68.478 Y94.646 E47.80124
G1 X130.674 Y94.646 E51.10358
M106 S255
M104 S200 ; set temperature
M140 S45 ; set bed temperature
;BEFORE_LAYER_CHANGE
;G92 E0.0 # Set the current position to the values specified.
G1 E50.10358 F1800.00000
G92 E0
G1 Z0.650 F7800.000
;AFTER_LAYER_CHANGE
G1 X129.920 Y106.092 F7800.000
G1 E1.00000 F1800.00000
G1 F2048
G1 X129.920 Y93.908 E1.57084
G1 X129.133 Y93.908 E1.60773
G1 X129.133 Y106.092 E2.17857
G1 X128.346 Y106.092 E2.21546
G1 X128.346 Y93.908 E2.78629
G1 X127.558 Y93.908 E2.82318
G1 X127.558 Y106.092 E3.39402
G1 X126.771 Y106.092 E3.43091
G1 X126.771 Y93.908 E4.00175
G1 X125.984 Y93.908 E4.03864
G1 X125.984 Y106.092 E4.60948
G1 X125.196 Y106.092 E4.64637
G1 X125.196 Y93.908 E5.21721
G1 X124.409 Y93.908 E5.25409
G1 X124.409 Y106.092 E5.82493
G1 X123.621 Y106.092 E5.86182
G1 X123.621 Y93.908 E6.43266
G1 X122.834 Y93.908 E6.46955
G1 X122.834 Y106.092 E7.04039
G1 X122.047 Y106.092 E7.07728
G1 X122.047 Y93.908 E7.64812
G1 X121.259 Y93.908 E7.68500
G1 X121.259 Y106.092 E8.25584
G1 X120.472 Y106.092 E8.29273
G1 X120.472 Y93.908 E8.86357
G1 X119.685 Y93.908 E8.90046
G1 X119.685 Y106.092 E9.47130
G1 X118.897 Y106.092 E9.50819
G1 X118.897 Y93.908 E10.07903
G1 X118.110 Y93.908 E10.11592
G1 X118.110 Y106.092 E10.68675
G1 X117.322 Y106.092 E10.72364
G1 X117.322 Y93.908 E11.29448
G1 X116.535 Y93.908 E11.33137
G1 X116.535 Y106.092 E11.90221
G1 X115.748 Y106.092 E11.93910
G1 X115.748 Y93.908 E12.50994
G1 X114.960 Y93.908 E12.54683
G1 X114.960 Y106.092 E13.11767
G1 X114.173 Y106.092 E13.15455
G1 X114.173 Y93.908 E13.72539
G1 X113.385 Y93.908 E13.76228
G1 X113.385 Y106.092 E14.33312
G1 X112.598 Y106.092 E14.37001
G1 X112.598 Y93.908 E14.94085
G1 X111.811 Y93.908 E14.97774
G1 X111.811 Y106.092 E15.54858
G1 X111.023 Y106.092 E15.58546
G1 X111.023 Y93.908 E16.15630
G1 X110.236 Y93.908 E16.19319
G1 X110.236 Y106.092 E16.76403
G1 X109.449 Y106.092 E16.80092
G1 X109.449 Y93.908 E17.37176
G1 X108.661 Y93.908 E17.40865
G1 X108.661 Y106.092 E17.97949
G1 X107.874 Y106.092 E18.01637
G1 X107.874 Y93.908 E18.58721
G1 X107.086 Y93.908 E18.62410
G1 X107.086 Y106.092 E19.19494
G1 X106.299 Y106.092 E19.23183
G1 X106.299 Y93.908 E19.80267
G1 X105.512 Y93.908 E19.83956
G1 X105.512 Y106.092 E20.41040
G1 X104.724 Y106.092 E20.44729
G1 X104.724 Y93.908 E21.01812
G1 X103.937 Y93.908 E21.05501
G1 X103.937 Y106.092 E21.62585
G1 X103.150 Y106.092 E21.66274
G1 X103.150 Y93.908 E22.23358
G1 X102.362 Y93.908 E22.27047
G1 X102.362 Y106.092 E22.84131
G1 X101.575 Y106.092 E22.87820
G1 X101.575 Y93.908 E23.44904
G1 X100.787 Y93.908 E23.48592
G1 X100.787 Y106.092 E24.05676
G1 X100.000 Y106.092 E24.09365
G1 X100.000 Y93.908 E24.66449
G1 X99.213 Y93.908 E24.70138
G1 X99.213 Y106.092 E25.27222
G1 X98.425 Y106.092 E25.30911
G1 X98.425 Y93.908 E25.87995
G1 X97.638 Y93.908 E25.91683
G1 X97.638 Y106.092 E26.48767
G1 X96.850 Y106.092 E26.52456
G1 X96.850 Y93.908 E27.09540
G1 X96.063 Y93.908 E27.13229
G1 X96.063 Y106.092 E27.70313
G1 X95.276 Y106.092 E27.74002
G1 X95.276 Y93.908 E28.31086
G1 X94.488 Y93.908 E28.34775
G1 X94.488 Y106.092 E28.91858
G1 X93.701 Y106.092 E28.95547
G1 X93.701 Y93.908 E29.52631
G1 X92.914 Y93.908 E29.56320
G1 X92.914 Y106.092 E30.13404
G1 X92.126 Y106.092 E30.17093
G1 X92.126 Y93.908 E30.74177
G1 X91.339 Y93.908 E30.77866
G1 X91.339 Y106.092 E31.34950
G1 X90.551 Y106.092 E31.38638
G1 X90.551 Y93.908 E31.95722
G1 X89.764 Y93.908 E31.99411
G1 X89.764 Y106.092 E32.56495
G1 X88.977 Y106.092 E32.60184
G1 X88.977 Y93.908 E33.17268
G1 X88.189 Y93.908 E33.20957
G1 X88.189 Y106.092 E33.78041
G1 X87.402 Y106.092 E33.81729
G1 X87.402 Y93.908 E34.38813
G1 X86.615 Y93.908 E34.42502
G1 X86.615 Y106.092 E34.99586
G1 X85.827 Y106.092 E35.03275
G1 X85.827 Y93.908 E35.60359
G1 X85.040 Y93.908 E35.64048
G1 X85.040 Y106.092 E36.21132
G1 X84.252 Y106.092 E36.24820
G1 X84.252 Y93.908 E36.81904
G1 X83.465 Y93.908 E36.85593
G1 X83.465 Y106.092 E37.42677
G1 X82.678 Y106.092 E37.46366
G1 X82.678 Y93.908 E38.03450
G1 X81.890 Y93.908 E38.07139
G1 X81.890 Y106.092 E38.64223
G1 X81.103 Y106.092 E38.67912
G1 X81.103 Y93.908 E39.24995
G1 X80.315 Y93.908 E39.28684
G1 X80.315 Y106.092 E39.85768
G1 X79.528 Y106.092 E39.89457
G1 X79.528 Y93.908 E40.46541
G1 X78.741 Y93.908 E40.50230
G1 X78.741 Y106.092 E41.07314
G1 X77.953 Y106.092 E41.11003
G1 X77.953 Y93.908 E41.68087
G1 X77.166 Y93.908 E41.71775
G1 X77.166 Y106.092 E42.28859
G1 X76.379 Y106.092 E42.32548
G1 X76.379 Y93.908 E42.89632
G1 X75.591 Y93.908 E42.93321
G1 X75.591 Y106.092 E43.50405
G1 X74.804 Y106.092 E43.54094
G1 X74.804 Y93.908 E44.11178
G1 X74.016 Y93.908 E44.14866
G1 X74.016 Y106.092 E44.71950
G1 X73.229 Y106.092 E44.75639
G1 X73.229 Y93.908 E45.32723
G1 X72.442 Y93.908 E45.36412
G1 X72.442 Y106.092 E45.93496
G1 X71.654 Y106.092 E45.97185
G1 X71.654 Y93.908 E46.54269
G1 X70.867 Y93.908 E46.57958
G1 X70.867 Y106.092 E47.15041
G1 X70.080 Y106.092 E47.18730
G1 X70.080 Y93.908 E47.75814
G1 X69.292 Y93.908 E47.79503
G1 X69.292 Y106.092 E48.36587
G1 X68.505 Y106.092 E48.40276
G1 X68.505 Y93.908 E48.97360
;BEFORE_LAYER_CHANGE
;G92 E0.0 # Set the current position to the values specified.
G1 E47.97360 F1800.00000
G92 E0
G1 Z0.950 F7800.000
;AFTER_LAYER_CHANGE
G1 X68.484 Y105.512 F7800.000
G1 E1.00000 F1800.00000
G1 F1887.58
G1 X130.668 Y105.512 E3.91331
G1 X130.668 Y104.724 E3.95019
G1 X68.484 Y104.724 E6.86350
G1 X68.484 Y103.937 E6.90039
G1 X130.668 Y103.937 E9.81369
G1 X130.668 Y103.150 E9.85058
G1 X68.484 Y103.150 E12.76389
G1 X68.484 Y102.362 E12.80078
G1 X130.668 Y102.362 E15.71408
G1 X130.668 Y101.575 E15.75097
G1 X68.484 Y101.575 E18.66428
G1 X68.484 Y100.787 E18.70116
G1 X130.668 Y100.787 E21.61447
G1 X130.668 Y100.000 E21.65136
G1 X68.484 Y100.000 E24.56466
G1 X68.484 Y99.213 E24.60155
G1 X130.668 Y99.213 E27.51486
G1 X130.668 Y98.425 E27.55175
G1 X68.484 Y98.425 E30.46505
G1 X68.484 Y97.638 E30.50194
G1 X130.668 Y97.638 E33.41525
G1 X130.668 Y96.850 E33.45213
G1 X68.484 Y96.850 E36.36544
G1 X68.484 Y96.063 E36.40233
G1 X130.668 Y96.063 E39.31563
G1 X130.668 Y95.276 E39.35252
G1 X68.484 Y95.276 E42.26583
G1 X68.484 Y94.488 E42.30272
G1 X130.668 Y94.488 E45.21602
;BEFORE_LAYER_CHANGE
;G92 E0.0 # Set the current position to the values specified.
G1 E44.21602 F1800.00000
G92 E0
G1 Z1.100 F7800.000
;AFTER_LAYER_CHANGE
G1 X68.916 Y97.893 F7800.000
G1 E1.00000 F1800.00000
G1 F600
G1 X68.916 Y97.221 E1.01709
G1 X68.076 Y97.221 E1.03846
G1 X68.076 Y102.967 E1.18458
G1 X68.916 Y102.967 E1.20595
G1 X68.916 Y97.893 E1.33498
;BEFORE_LAYER_CHANGE
;G92 E0.0 # Set the current position to the values specified.
G1 E0.33498 F1800.00000
G92 E0
G1 Z1.500 F7800.000
;AFTER_LAYER_CHANGE
G1 E1.00000 F1800.00000
G1 F600
G1 X68.916 Y102.967 E1.29881
G1 X68.076 Y102.967 E1.34829
G1 X68.076 Y97.221 E1.68669
G1 X68.916 Y97.221 E1.73616
G1 X68.916 Y97.893 E1.77575
;BEFORE_LAYER_CHANGE
;G92 E0.0 # Set the current position to the values specified.
G1 E0.77575 F1800.00000
G92 E0
G1 Z1.900 F7800.000
;AFTER_LAYER_CHANGE
G1 E1.00000 F1800.00000
G1 F600
G1 X68.916 Y102.967 E1.29881
G1 X68.076 Y102.967 E1.34829
G1 X68.076 Y97.221 E1.68669
G1 X68.916 Y97.221 E1.73616
G1 X68.916 Y97.893 E1.77575
;BEFORE_LAYER_CHANGE
;G92 E0.0 # Set the current position to the values specified.
G1 E0.77575 F1800.00000
G92 E0
G1 Z1.950 F7800.000
;AFTER_LAYER_CHANGE
G1 X128.678 Y104.102 F7800.000
G1 E1.00000 F1800.00000
M106 S255

G1 F3600
G1 X70.474 Y104.102 E4.04083
G1 X70.474 Y95.898 E4.46941
G1 X128.678 Y95.898 E7.51024
G1 X128.678 Y104.042 E7.93569
M106 S255

G1 X129.012 Y104.436 F7800.000
M106 S255

G1 F3600
G1 X70.140 Y104.436 E11.01144
G1 X70.140 Y95.564 E11.47494
G1 X129.012 Y95.564 E14.55068
G1 X129.012 Y104.376 E15.01105
M106 S255

G1 X129.356 Y104.780 F7800.000
M106 S255

G1 F3600
G1 X69.796 Y104.780 E18.12275
G1 X69.796 Y95.220 E18.62222
G1 X129.356 Y95.220 E21.73392
G1 X129.356 Y104.720 E22.23025
M106 S255

G1 E21.23025 F1800.00000
G92 E0
G1 X128.438 Y96.443 F7800.000
G1 E1.00000 F1800.00000
M106 S255

G1 F3600
G1 X128.133 Y96.138 E1.02299
G1 X127.491 Y96.138 E1.05719
G1 X128.438 Y97.085 E1.12855
G1 X128.438 Y97.727 E1.16275
G1 X126.849 Y96.138 E1.28248
G1 X126.207 Y96.138 E1.31668
G1 X128.438 Y98.369 E1.48478
G1 X128.438 Y99.011 E1.51898
G1 X125.565 Y96.138 E1.73545
G1 X124.923 Y96.138 E1.76965
G1 X128.438 Y99.653 E2.03449
G1 X128.438 Y100.295 E2.06869
G1 X124.281 Y96.138 E2.38190
G1 X123.639 Y96.138 E2.41610
G1 X128.438 Y100.937 E2.77768
G1 X128.438 Y101.579 E2.81188
G1 X122.997 Y96.138 E3.22183
G1 X122.355 Y96.138 E3.25603
G1 X128.438 Y102.221 E3.71435
G1 X128.438 Y102.863 E3.74855
G1 X121.713 Y96.138 E4.25524
G1 X121.071 Y96.138 E4.28944
G1 X128.438 Y103.505 E4.84449
G1 X128.438 Y103.862 E4.86354
G1 X128.154 Y103.862 E4.87870
G1 X120.429 Y96.138 E5.46069
G1 X119.787 Y96.138 E5.49489
G1 X127.512 Y103.862 E6.07689
G1 X126.870 Y103.862 E6.11109
G1 X119.145 Y96.138 E6.69308
G1 X118.503 Y96.138 E6.72729
G1 X126.228 Y103.862 E7.30928
G1 X125.586 Y103.862 E7.34348
G1 X117.861 Y96.138 E7.92548
G1 X117.220 Y96.138 E7.95968
G1 X124.944 Y103.862 E8.54167
G1 X124.302 Y103.862 E8.57587
G1 X116.578 Y96.138 E9.15787
G1 X115.936 Y96.138 E9.19207
G1 X123.660 Y103.862 E9.77406
G1 X123.018 Y103.862 E9.80827
G1 X115.294 Y96.138 E10.39026
G1 X114.652 Y96.138 E10.42446
G1 X122.376 Y103.862 E11.00646
G1 X121.734 Y103.862 E11.04066
G1 X114.010 Y96.138 E11.62265
G1 X113.368 Y96.138 E11.65686
G1 X121.092 Y103.862 E12.23885
G1 X120.450 Y103.862 E12.27305
G1 X112.726 Y96.138 E12.85505
G1 X112.084 Y96.138 E12.88925
G1 X119.808 Y103.862 E13.47124
G1 X119.166 Y103.862 E13.50544
G1 X111.442 Y96.138 E14.08744
G1 X110.800 Y96.138 E14.12164
G1 X118.524 Y103.862 E14.70363
G1 X117.882 Y103.862 E14.73784
G1 X110.158 Y96.138 E15.31983
G1 X109.516 Y96.138 E15.35403
G1 X117.240 Y103.862 E15.93603
G1 X116.598 Y103.862 E15.97023
G1 X108.874 Y96.138 E16.55222
G1 X108.232 Y96.138 E16.58643
G1 X115.956 Y103.862 E17.16842
G1 X115.314 Y103.862 E17.20262
G1 X107.590 Y96.138 E17.78462
G1 X106.948 Y96.138 E17.81882
G1 X114.672 Y103.862 E18.40081
G1 X114.030 Y103.862 E18.43502
G1 X106.306 Y96.138 E19.01701
G1 X105.664 Y96.138 E19.05121
G1 X113.388 Y103.862 E19.63321
G1 X112.746 Y103.862 E19.66741
G1 X105.022 Y96.138 E20.24940
G1 X104.380 Y96.138 E20.28360
G1 X112.104 Y103.862 E20.86560
G1 X111.463 Y103.862 E20.89980
G1 X103.738 Y96.138 E21.48179
G1 X103.096 Y96.138 E21.51600
G1 X110.821 Y103.862 E22.09799
G1 X110.179 Y103.862 E22.13219
G1 X102.454 Y96.138 E22.71419
G1 X101.812 Y96.138 E22.74839
G1 X109.537 Y103.862 E23.33038
G1 X108.895 Y103.862 E23.36459
G1 X101.170 Y96.138 E23.94658
G1 X100.528 Y96.138 E23.98078
G1 X108.253 Y103.862 E24.56278
G1 X107.611 Y103.862 E24.59698
G1 X99.887 Y96.138 E25.17897
G1 X99.245 Y96.138 E25.21317
G1 X106.969 Y103.862 E25.79517
G1 X106.327 Y103.862 E25.82937
G1 X98.603 Y96.138 E26.41136
G1 X97.961 Y96.138 E26.44557
G1 X105.685 Y103.862 E27.02756
G1 X105.043 Y103.862 E27.06176
G1 X97.319 Y96.138 E27.64376
G1 X96.677 Y96.138 E27.67796
G1 X104.401 Y103.862 E28.25995
G1 X103.759 Y103.862 E28.29416
G1 X96.035 Y96.138 E28.87615
G1 X95.393 Y96.138 E28.91035
G1 X103.117 Y103.862 E29.49235
G1 X102.475 Y103.862 E29.52655
G1 X94.751 Y96.138 E30.10854
G1 X94.109 Y96.138 E30.14274
G1 X101.833 Y103.862 E30.72474
G1 X101.191 Y103.862 E30.75894
G1 X93.467 Y96.138 E31.34093
G1 X92.825 Y96.138 E31.37514
G1 X100.549 Y103.862 E31.95713
G1 X99.907 Y103.862 E31.99133
G1 X92.183 Y96.138 E32.57333
G1 X91.541 Y96.138 E32.60753
G1 X99.265 Y103.862 E33.18952
G1 X98.623 Y103.862 E33.22373
G1 X90.899 Y96.138 E33.80572
G1 X90.257 Y96.138 E33.83992
G1 X97.981 Y103.862 E34.42192
G1 X97.339 Y103.862 E34.45612
G1 X89.615 Y96.138 E35.03811
G1 X88.973 Y96.138 E35.07231
G1 X96.697 Y103.862 E35.65431
G1 X96.055 Y103.862 E35.68851
G1 X88.331 Y96.138 E36.27050
G1 X87.689 Y96.138 E36.30471
G1 X95.413 Y103.862 E36.88670
G1 X94.771 Y103.862 E36.92090
G1 X87.047 Y96.138 E37.50290
G1 X86.405 Y96.138 E37.53710
G1 X94.130 Y103.862 E38.11909
G1 X93.488 Y103.862 E38.15330
G1 X85.763 Y96.138 E38.73529
G1 X85.121 Y96.138 E38.76949
G1 X92.846 Y103.862 E39.35149
G1 X92.204 Y103.862 E39.38569
G1 X84.479 Y96.138 E39.96768
G1 X83.837 Y96.138 E40.00189
G1 X91.562 Y103.862 E40.58388
G1 X90.920 Y103.862 E40.61808
G1 X83.196 Y96.138 E41.20008
G1 X82.554 Y96.138 E41.23428
G1 X90.278 Y103.862 E41.81627
G1 X89.636 Y103.862 E41.85047
G1 X81.912 Y96.138 E42.43247
G1 X81.270 Y96.138 E42.46667
G1 X88.994 Y103.862 E43.04866
G1 X88.352 Y103.862 E43.08287
G1 X80.628 Y96.138 E43.66486
G1 X79.986 Y96.138 E43.69906
G1 X87.710 Y103.862 E44.28106
G1 X87.068 Y103.862 E44.31526
