; generated by Slic3r 1.3.0 on 2023-07-12 at 21:27:36

; external perimeters extrusion width = 0.44mm (1.67mm^3/s)
; perimeters extrusion width = 0.56mm (3.10mm^3/s)
; infill extrusion width = 0.50mm (5.48mm^3/s)
; solid infill extrusion width = 0.56mm (6.20mm^3/s)
; top infill extrusion width = 0.56mm (5.17mm^3/s)
; support material extrusion width = 0.44mm (4.76mm^3/s)

M107
M190 S65 ; set bed temperature and wait for it to be reached
M104 S205 ; set temperature
G28 ; home all axes
G29; Automatic (Bilinear) Bed Leveling probes the bed at some fixed number of points and produces a mesh representing the imperfections across the bed.
G1 Z5 F5000 ; lift nozzle
G92 E0.0 # Set the current position to the values specified.
; Filament gcode

M109 S205 ; set temperature and wait for it to be reached
G21 ; set units to millimeters
G90 ; use absolute coordinates
M82 ; use absolute distances for extrusion
G92 E0
;BEFORE_LAYER_CHANGE
;G92 E0.0 # Set the current position to the values specified.
G1 E-1.00000 F1800.00000
G92 E0
G1 Z-0.500 F7800.000
;AFTER_LAYER_CHANGE
G1 X97.205 Y48.470 F7800.000
G1 E1.00000 F1800.00000
G1 F1080
G1 X98.467 Y47.517 E1.01174
G1 X99.691 Y47.272 E1.02100
G1 X133.691 Y47.272 E1.27338
G1 X135.223 Y47.666 E1.28512
G1 X136.420 Y48.822 E1.29748
G1 X137.631 Y50.851 E1.31502
G1 X138.026 Y51.897 E1.32331
G1 X148.125 Y105.966 E1.73160
G1 X148.179 Y106.549 E1.73595
G1 X148.179 Y149.549 E2.05513
G1 X147.785 Y151.081 E2.06687
G1 X146.701 Y152.234 E2.07861
G1 X145.000 Y152.728 E2.09176
G1 X55.000 Y152.728 E2.75982
G1 X53.468 Y152.334 E2.77156
G1 X52.315 Y151.250 E2.78330
G1 X51.821 Y149.549 E2.79645
G1 X51.821 Y106.549 E3.11563
G1 X52.514 Y104.569 E3.13121
G1 X97.167 Y48.517 E3.66315
G1 E2.66315 F1800.00000
G92 E0
G1 X144.543 Y149.092 F7800.000
G1 E1.00000 F1800.00000
G1 F540
G1 X55.457 Y149.092 E1.66127
G1 X55.457 Y107.006 E1.97366
G1 X144.543 Y107.006 E2.63493
G1 X144.543 Y149.032 E2.94688
G1 X144.721 Y149.271 F7800.000
G1 F540
G1 X55.279 Y149.271 E3.61080
G1 X55.279 Y106.828 E3.92585
G1 X144.721 Y106.828 E4.58977
G1 X144.721 Y149.211 E4.90437
G1 X144.900 Y149.449 F7800.000
G1 F378
G1 X55.100 Y149.449 E5.57094
G1 X55.100 Y106.649 E5.88863
G1 X144.900 Y106.649 E6.55520
G1 X144.900 Y149.389 E6.87246
G1 X144.504 Y149.390 F7800.000
G1 X144.295 Y148.983 F7800.000
G1 F1080
G1 X144.434 Y148.844 E6.87392
G1 X144.434 Y148.591 E6.87580
G1 X144.042 Y148.983 E6.87991
G1 X143.789 Y148.983 E6.88179
G1 X144.434 Y148.338 E6.88857
G1 X144.434 Y148.085 E6.89045
G1 X143.536 Y148.983 E6.89988
G1 X143.284 Y148.983 E6.90176
G1 X144.434 Y147.833 E6.91385
G1 X144.434 Y147.580 E6.91573
G1 X143.031 Y148.983 E6.93048
G1 X142.778 Y148.983 E6.93236
G1 X144.434 Y147.327 E6.94977
G1 X144.434 Y147.074 E6.95164
G1 X142.525 Y148.983 E6.97171
G1 X142.272 Y148.983 E6.97359
G1 X144.434 Y146.821 E6.99631
G1 X144.434 Y146.569 E6.99819
G1 X142.019 Y148.983 E7.02357
G1 X141.767 Y148.983 E7.02544
G1 X144.434 Y146.316 E7.05348
G1 X144.434 Y146.063 E7.05536
G1 X141.514 Y148.983 E7.08605
G1 X141.261 Y148.983 E7.08793
G1 X144.434 Y145.810 E7.12128
G1 X144.434 Y145.557 E7.12316
G1 X141.008 Y148.983 E7.15917
G1 X140.755 Y148.983 E7.16105
G1 X144.434 Y145.304 E7.19972
G1 X144.434 Y145.052 E7.20159
G1 X140.502 Y148.983 E7.24292
G1 X140.250 Y148.983 E7.24480
G1 X144.434 Y144.799 E7.28878
G1 X144.434 Y144.546 E7.29066
G1 X139.997 Y148.983 E7.33729
G1 X139.744 Y148.983 E7.33917
G1 X144.434 Y144.293 E7.38847
G1 X144.434 Y144.040 E7.39035
G1 X139.491 Y148.983 E7.44230
G1 X139.238 Y148.983 E7.44418
G1 X144.434 Y143.787 E7.49879
G1 X144.434 Y143.535 E7.50067
G1 X138.986 Y148.983 E7.55794
G1 X138.733 Y148.983 E7.55982
G1 X144.434 Y143.282 E7.61974
G1 X144.434 Y143.029 E7.62162
G1 X138.480 Y148.983 E7.68420
G1 X138.227 Y148.983 E7.68608
G1 X144.434 Y142.776 E7.75132
G1 X144.434 Y142.523 E7.75320
G1 X137.974 Y148.983 E7.82110
G1 X137.721 Y148.983 E7.82298
G1 X144.434 Y142.271 E7.89354
G1 X144.434 Y142.018 E7.89541
G1 X137.469 Y148.983 E7.96863
G1 X137.216 Y148.983 E7.97051
G1 X144.434 Y141.765 E8.04638
G1 X144.434 Y141.512 E8.04826
G1 X136.963 Y148.983 E8.12678
G1 X136.710 Y148.983 E8.12866
G1 X144.434 Y141.259 E8.20985
G1 X144.434 Y141.006 E8.21173
G1 X136.457 Y148.983 E8.29557
G1 X136.204 Y148.983 E8.29745
G1 X144.434 Y140.754 E8.38395
G1 X144.434 Y140.501 E8.38583
G1 X135.952 Y148.983 E8.47499
G1 X135.699 Y148.983 E8.47686
G1 X144.434 Y140.248 E8.56868
G1 X144.434 Y139.995 E8.57056
G1 X135.446 Y148.983 E8.66503
G1 X135.193 Y148.983 E8.66691
G1 X144.434 Y139.742 E8.76404
G1 X144.434 Y139.489 E8.76592
G1 X134.940 Y148.983 E8.86571
G1 X134.688 Y148.983 E8.86759
G1 X144.434 Y139.237 E8.97003
G1 X144.434 Y138.984 E8.97191
G1 X134.435 Y148.983 E9.07701
G1 X134.182 Y148.983 E9.07889
G1 X144.434 Y138.731 E9.18665
G1 X144.434 Y138.478 E9.18853
G1 X133.929 Y148.983 E9.29895
G1 X133.676 Y148.983 E9.30083
G1 X144.434 Y138.225 E9.41390
G1 X144.434 Y137.973 E9.41578
G1 X133.423 Y148.983 E9.53151
G1 X133.171 Y148.983 E9.53339
G1 X144.434 Y137.720 E9.65178
G1 X144.434 Y137.467 E9.65366
G1 X132.918 Y148.983 E9.77471
G1 X132.665 Y148.983 E9.77659
G1 X144.434 Y137.214 E9.90029
G1 X144.434 Y136.961 E9.90217
G1 X132.412 Y148.983 E10.02853
G1 X132.159 Y148.983 E10.03041
G1 X144.434 Y136.708 E10.15943
G1 X144.434 Y136.456 E10.16131
G1 X131.906 Y148.983 E10.29299
G1 X131.654 Y148.983 E10.29487
G1 X144.434 Y136.203 E10.42920
G1 X144.434 Y135.950 E10.43108
G1 X131.401 Y148.983 E10.56807
G1 X131.148 Y148.983 E10.56995
G1 X144.434 Y135.697 E10.70960
G1 X144.434 Y135.444 E10.71148
G1 X130.895 Y148.983 E10.85379
G1 X130.642 Y148.983 E10.85567
G1 X144.434 Y135.191 E11.00063
G1 X144.434 Y134.939 E11.00251
G1 X130.390 Y148.983 E11.15013
G1 X130.137 Y148.983 E11.15201
G1 X144.434 Y134.686 E11.30229
G1 X144.434 Y134.433 E11.30417
G1 X129.884 Y148.983 E11.45711
G1 X129.631 Y148.983 E11.45899
G1 X144.434 Y134.180 E11.61458
G1 X144.434 Y133.927 E11.61646
G1 X129.378 Y148.983 E11.77471
G1 X129.125 Y148.983 E11.77659
G1 X144.434 Y133.675 E11.93750
G1 X144.434 Y133.422 E11.93938
G1 X128.873 Y148.983 E12.10295
G1 X128.620 Y148.983 E12.10482
G1 X144.434 Y133.169 E12.27105
G1 X144.434 Y132.916 E12.27293
G1 X128.367 Y148.983 E12.44181
G1 X128.114 Y148.983 E12.44369
G1 X144.434 Y132.663 E12.61523
G1 X144.434 Y132.410 E12.61711
G1 X127.861 Y148.983 E12.79130
G1 X127.608 Y148.983 E12.79318
G1 X144.434 Y132.158 E12.97004
G1 X144.434 Y131.905 E12.97192
G1 X127.356 Y148.983 E13.15143
G1 X127.103 Y148.983 E13.15331
G1 X144.434 Y131.652 E13.33547
G1 X144.434 Y131.399 E13.33735
G1 X126.850 Y148.983 E13.52218
G1 X126.597 Y148.983 E13.52406
G1 X144.434 Y131.146 E13.71154
G1 X144.434 Y130.893 E13.71342
G1 X126.344 Y148.983 E13.90356
G1 X126.092 Y148.983 E13.90544
G1 X144.434 Y130.641 E14.09824
G1 X144.434 Y130.388 E14.10012
G1 X125.839 Y148.983 E14.29558
G1 X125.586 Y148.983 E14.29746
G1 X144.434 Y130.135 E14.49557
G1 X144.434 Y129.882 E14.49745
G1 X125.333 Y148.983 E14.69822
G1 X125.080 Y148.983 E14.70010
G1 X144.434 Y129.629 E14.90353
G1 X144.434 Y129.377 E14.90541
G1 X124.827 Y148.983 E15.11149
G1 X124.575 Y148.983 E15.11337
G1 X144.434 Y129.124 E15.32212
G1 X144.434 Y128.871 E15.32400
G1 X124.322 Y148.983 E15.53540
G1 X124.069 Y148.983 E15.53728
G1 X144.434 Y128.618 E15.75133
G1 X144.434 Y128.365 E15.75321
G1 X123.816 Y148.983 E15.96993
G1 X123.563 Y148.983 E15.97181
G1 X144.434 Y128.112 E16.19118
G1 X144.434 Y127.860 E16.19306
G1 X123.310 Y148.983 E16.41509
G1 X123.058 Y148.983 E16.41697
G1 X144.434 Y127.607 E16.64166
G1 X144.434 Y127.354 E16.64354
G1 X122.805 Y148.983 E16.87088
G1 X122.552 Y148.983 E16.87276
G1 X144.434 Y127.101 E17.10277
G1 X144.434 Y126.848 E17.10465
G1 X122.299 Y148.983 E17.33731
G1 X122.046 Y148.983 E17.33919
G1 X144.434 Y126.596 E17.57450
G1 X144.434 Y126.343 E17.57638
G1 X121.794 Y148.983 E17.81436
G1 X121.541 Y148.983 E17.81624
G1 X144.434 Y126.090 E18.05687
G1 X144.434 Y125.837 E18.05875
G1 X121.288 Y148.983 E18.30204
G1 X121.035 Y148.983 E18.30392
G1 X144.434 Y125.584 E18.54987
G1 X144.434 Y125.331 E18.55175
G1 X120.782 Y148.983 E18.80035
G1 X120.529 Y148.983 E18.80223
G1 X144.434 Y125.079 E19.05350
G1 X144.434 Y124.826 E19.05537
G1 X120.277 Y148.983 E19.30929
G1 X120.024 Y148.983 E19.31117
G1 X144.434 Y124.573 E19.56775
G1 X144.434 Y124.320 E19.56963
G1 X119.771 Y148.983 E19.82887
G1 X119.518 Y148.983 E19.83075
G1 X144.434 Y124.067 E20.09264
G1 X144.434 Y123.814 E20.09452
G1 X119.265 Y148.983 E20.35907
G1 X119.013 Y148.983 E20.36095
G1 X144.434 Y123.562 E20.62816
G1 X144.434 Y123.309 E20.63003
G1 X118.760 Y148.983 E20.89990
G1 X118.507 Y148.983 E20.90178
G1 X144.434 Y123.056 E21.17430
G1 X144.434 Y122.803 E21.17618
G1 X118.254 Y148.983 E21.45136
G1 X118.001 Y148.983 E21.45324
G1 X144.434 Y122.550 E21.73108
G1 X144.434 Y122.298 E21.73296
G1 X117.748 Y148.983 E22.01345
G1 X117.496 Y148.983 E22.01533
G1 X144.434 Y122.045 E22.29848
G1 X144.434 Y121.792 E22.30036
G1 X117.243 Y148.983 E22.58617
G1 X116.990 Y148.983 E22.58805
G1 X144.434 Y121.539 E22.87652
G1 X144.434 Y121.286 E22.87840
G1 X116.737 Y148.983 E23.16952
G1 X116.484 Y148.983 E23.17140
G1 X144.434 Y121.033 E23.46519
G1 X144.434 Y120.781 E23.46707
G1 X116.231 Y148.983 E23.76351
G1 X115.979 Y148.983 E23.76538
G1 X144.434 Y120.528 E24.06448
G1 X144.434 Y120.275 E24.06636
G1 X115.726 Y148.983 E24.36812
G1 X115.473 Y148.983 E24.36999
G1 X144.434 Y120.022 E24.67441
G1 X144.434 Y119.769 E24.67629
G1 X115.220 Y148.983 E24.98336
G1 X114.967 Y148.983 E24.98524
G1 X144.434 Y119.516 E25.29496
G1 X144.434 Y119.264 E25.29684
G1 X114.715 Y148.983 E25.60923
G1 X114.462 Y148.983 E25.61111
G1 X144.434 Y119.011 E25.92615
G1 X144.434 Y118.758 E25.92803
G1 X114.209 Y148.983 E26.24573
G1 X113.956 Y148.983 E26.24761
G1 X144.434 Y118.505 E26.56796
G1 X144.434 Y118.252 E26.56984
G1 X113.703 Y148.983 E26.89286
G1 X113.450 Y148.983 E26.89474
G1 X144.434 Y118.000 E27.22041
G1 X144.434 Y117.747 E27.22229
G1 X113.198 Y148.983 E27.55062
G1 X112.945 Y148.983 E27.55250
G1 X144.434 Y117.494 E27.88348
G1 X144.434 Y117.241 E27.88536
G1 X112.692 Y148.983 E28.21901
G1 X112.439 Y148.983 E28.22089
G1 X144.434 Y116.988 E28.55719
G1 X144.434 Y116.735 E28.55907
G1 X112.186 Y148.983 E28.89803
G1 X111.933 Y148.983 E28.89991
G1 X144.434 Y116.483 E29.24152
G1 X144.434 Y116.230 E29.24340
G1 X111.681 Y148.983 E29.58768
G1 X111.428 Y148.983 E29.58956
G1 X144.434 Y115.977 E29.93649
G1 X144.434 Y115.724 E29.93837
G1 X111.175 Y148.983 E30.28796
G1 X110.922 Y148.983 E30.28984
G1 X144.434 Y115.471 E30.64208
G1 X144.434 Y115.218 E30.64396
G1 X110.669 Y148.983 E30.99887
G1 X110.417 Y148.983 E31.00074
G1 X144.434 Y114.966 E31.35831
G1 X144.434 Y114.713 E31.36019
G1 X110.164 Y148.983 E31.72040
G1 X109.911 Y148.983 E31.72228
G1 X144.434 Y114.460 E32.08516
G1 X144.434 Y114.207 E32.08704
G1 X109.658 Y148.983 E32.45257
G1 X109.405 Y148.983 E32.45445
G1 X144.434 Y113.954 E32.82264
G1 X144.434 Y113.702 E32.82452
G1 X109.152 Y148.983 E33.19537
G1 X108.900 Y148.983 E33.19725
G1 X144.434 Y113.449 E33.57076
G1 X144.434 Y113.196 E33.57264
G1 X108.647 Y148.983 E33.94880
G1 X108.394 Y148.983 E33.95068
G1 X144.434 Y112.943 E34.32950
G1 X144.434 Y112.690 E34.33138
G1 X108.141 Y148.983 E34.71286
G1 X107.888 Y148.983 E34.71474
G1 X144.434 Y112.437 E35.09888
G1 X144.434 Y112.185 E35.10076
G1 X107.635 Y148.983 E35.48755
G1 X107.383 Y148.983 E35.48943
G1 X144.434 Y111.932 E35.87888
G1 X144.434 Y111.679 E35.88076
G1 X107.130 Y148.983 E36.27287
G1 X106.877 Y148.983 E36.27475
G1 X144.434 Y111.426 E36.66951
G1 X144.434 Y111.173 E36.67139
G1 X106.624 Y148.983 E37.06882
G1 X106.371 Y148.983 E37.07070
G1 X144.434 Y110.920 E37.47078
G1 X144.434 Y110.668 E37.47266
G1 X106.119 Y148.983 E37.87539
G1 X105.866 Y148.983 E37.87727
G1 X144.434 Y110.415 E38.28267
G1 X144.434 Y110.162 E38.28455
G1 X105.613 Y148.983 E38.69260
G1 X105.360 Y148.983 E38.69448
G1 X144.434 Y109.909 E39.10519
G1 X144.434 Y109.656 E39.10707
G1 X105.107 Y148.983 E39.52044
G1 X104.854 Y148.983 E39.52232
G1 X144.434 Y109.404 E39.93835
G1 X144.434 Y109.151 E39.94022
G1 X104.602 Y148.983 E40.35891
G1 X104.349 Y148.983 E40.36079
G1 X144.434 Y108.898 E40.78213
G1 X144.434 Y108.645 E40.78401
G1 X104.096 Y148.983 E41.20801
G1 X103.843 Y148.983 E41.20988
G1 X144.434 Y108.392 E41.63654
G1 X144.434 Y108.139 E41.63842
G1 X103.590 Y148.983 E42.06773
G1 X103.337 Y148.983 E42.06961
G1 X144.434 Y107.887 E42.50158
G1 X144.434 Y107.634 E42.50346
G1 X103.085 Y148.983 E42.93809
G1 X102.832 Y148.983 E42.93997
G1 X144.434 Y107.381 E43.37726
G1 X144.434 Y107.128 E43.37913
G1 X102.579 Y148.983 E43.81908
G1 X102.326 Y148.983 E43.82096
G1 X144.194 Y107.115 E44.26104
G1 X143.941 Y107.115 E44.26291
G1 X102.073 Y148.983 E44.70299
G1 X101.821 Y148.983 E44.70487
G1 X143.688 Y107.115 E45.14495
G1 X143.435 Y107.115 E45.14683
G1 X101.568 Y148.983 E45.58691
G1 X101.315 Y148.983 E45.58879
G1 X143.183 Y107.115 E46.02887
G1 X142.930 Y107.115 E46.03074
G1 X101.062 Y148.983 E46.47082
G1 X100.809 Y148.983 E46.47270
G1 X142.677 Y107.115 E46.91278
G1 X142.424 Y107.115 E46.91466
G1 X100.556 Y148.983 E47.35474
G1 X100.304 Y148.983 E47.35662
G1 X142.171 Y107.115 E47.79669
G1 X141.918 Y107.115 E47.79857
G1 X100.051 Y148.983 E48.23865
G1 X99.798 Y148.983 E48.24053
G1 X141.666 Y107.115 E48.68061
G1 X141.413 Y107.115 E48.68249
G1 X99.545 Y148.983 E49.12257
G1 X99.292 Y148.983 E49.12445
G1 X141.160 Y107.115 E49.56452
G1 X140.907 Y107.115 E49.56640
G1 X99.039 Y148.983 E50.00648
G1 X98.787 Y148.983 E50.00836
G1 X140.654 Y107.115 E50.44844
G1 X140.402 Y107.115 E50.45032
G1 X98.534 Y148.983 E50.89040
G1 X98.281 Y148.983 E50.89228
G1 X140.149 Y107.115 E51.33235
G1 X139.896 Y107.115 E51.33423
G1 X98.028 Y148.983 E51.77431
G1 X97.775 Y148.983 E51.77619
G1 X139.643 Y107.115 E52.21627
G1 X139.390 Y107.115 E52.21815
G1 X97.523 Y148.983 E52.65823
G1 X97.270 Y148.983 E52.66011
G1 X139.137 Y107.115 E53.10018
G1 X138.885 Y107.115 E53.10206
G1 X97.017 Y148.983 E53.54214
G1 X96.764 Y148.983 E53.54402
G1 X138.632 Y107.115 E53.98410
G1 X138.379 Y107.115 E53.98598
G1 X96.511 Y148.983 E54.42606
G1 X96.258 Y148.983 E54.42793
G1 X138.126 Y107.115 E54.86801
G1 X137.873 Y107.115 E54.86989
G1 X96.006 Y148.983 E55.30997
G1 X95.753 Y148.983 E55.31185
G1 X137.620 Y107.115 E55.75193
G1 X137.368 Y107.115 E55.75381
G1 X95.500 Y148.983 E56.19389
G1 X95.247 Y148.983 E56.19576
G1 X137.115 Y107.115 E56.63584
G1 X136.862 Y107.115 E56.63772
G1 X94.994 Y148.983 E57.07780
G1 X94.741 Y148.983 E57.07968
G1 X136.609 Y107.115 E57.51976
G1 X136.356 Y107.115 E57.52164
G1 X94.489 Y148.983 E57.96171
G1 X94.236 Y148.983 E57.96359
G1 X136.104 Y107.115 E58.40367
G1 X135.851 Y107.115 E58.40555
G1 X93.983 Y148.983 E58.84563
G1 X93.730 Y148.983 E58.84751
G1 X135.598 Y107.115 E59.28759
G1 X135.345 Y107.115 E59.28947
G1 X93.477 Y148.983 E59.72954
G1 X93.225 Y148.983 E59.73142
G1 X135.092 Y107.115 E60.17150
G1 X134.839 Y107.115 E60.17338
G1 X92.972 Y148.983 E60.61346
G1 X92.719 Y148.983 E60.61534
G1 X134.587 Y107.115 E61.05542
G1 X134.334 Y107.115 E61.05730
G1 X92.466 Y148.983 E61.49737
G1 X92.213 Y148.983 E61.49925
G1 X134.081 Y107.115 E61.93933
G1 X133.828 Y107.115 E61.94121
G1 X91.960 Y148.983 E62.38129
G1 X91.708 Y148.983 E62.38317
G1 X133.575 Y107.115 E62.82325
G1 X133.322 Y107.115 E62.82513
G1 X91.455 Y148.983 E63.26520
G1 X91.202 Y148.983 E63.26708
G1 X133.070 Y107.115 E63.70716
G1 X132.817 Y107.115 E63.70904
G1 X90.949 Y148.983 E64.14912
G1 X90.696 Y148.983 E64.15100
G1 X132.564 Y107.115 E64.59108
G1 X132.311 Y107.115 E64.59295
G1 X90.443 Y148.983 E65.03303
G1 X90.191 Y148.983 E65.03491
G1 X132.058 Y107.115 E65.47499
G1 X131.806 Y107.115 E65.47687
G1 X89.938 Y148.983 E65.91695
G1 X89.685 Y148.983 E65.91883
G1 X131.553 Y107.115 E66.35891
G1 X131.300 Y107.115 E66.36078
G1 X89.432 Y148.983 E66.80086
G1 X89.179 Y148.983 E66.80274
G1 X131.047 Y107.115 E67.24282
G1 X130.794 Y107.115 E67.24470
G1 X88.927 Y148.983 E67.68478
G1 X88.674 Y148.983 E67.68666
G1 X130.541 Y107.115 E68.12673
G1 X130.289 Y107.115 E68.12861
G1 X88.421 Y148.983 E68.56869
G1 X88.168 Y148.983 E68.57057
G1 X130.036 Y107.115 E69.01065
G1 X129.783 Y107.115 E69.01253
