; generated by Slic3r 1.3.0 on 2022-06-12 at 23:19:01

; external perimeters extrusion width = 0.44mm (1.67mm^3/s)
; perimeters extrusion width = 0.56mm (3.10mm^3/s)
; infill extrusion width = 0.50mm (5.48mm^3/s)
; solid infill extrusion width = 0.56mm (6.20mm^3/s)
; top infill extrusion width = 0.56mm (5.17mm^3/s)
; support material extrusion width = 0.44mm (4.76mm^3/s)

M107
M190 S50 ; set bed temperature and wait for it to be reached
M104 S205 ; set temperature
G28 ; home all axes
;G29; Automatic (Bilinear) Bed Leveling probes the bed at some fixed number of points and produces a mesh representing the imperfections across the bed.
G1 Z5 F5000 ; lift nozzle
G92 E0.0 # Set the current position to the values specified.
; Filament gcode

M109 S205 ; set temperature and wait for it to be reached
G21 ; set units to millimeters
G90 ; use absolute coordinates
M82 ; use absolute distances for extrusion
G92 E0
;BEFORE_LAYER_CHANGE
;G92 E0.0 # Set the current position to the values specified.
G1 E-1.00000 F1800.00000
G92 E0
G1 Z-0.350 F7800.000
;AFTER_LAYER_CHANGE
G1 X40.725 Y63.522 F7800.000
G1 E1.00000 F1800.00000
G1 F1080
G1 X41.849 Y62.863 E1.11841
G1 X42.858 Y62.381 E1.22010
G1 X44.159 Y61.895 E1.34644
G1 X45.206 Y61.600 E1.44531
G1 X45.953 Y61.454 E1.51454
G1 X46.950 Y61.294 E1.60634
G1 X47.819 Y61.216 E1.68568
G1 X48.694 Y61.197 E1.76526
G1 X150.484 Y60.673 E11.02110
G1 X150.941 Y60.686 E11.06267
G1 X152.505 Y60.793 E11.20526
G1 X153.578 Y60.960 E11.30399
G1 X155.118 Y61.331 E11.44800
G1 X156.237 Y61.709 E11.55543
G1 X157.686 Y62.348 E11.69934
G1 X158.508 Y62.781 E11.78390
G1 X159.942 Y63.723 E11.93989
G1 X160.681 Y64.294 E12.02479
G1 X161.075 Y64.648 E12.07294
G1 X162.044 Y65.560 E12.19398
G1 X162.441 Y65.971 E12.24595
G1 X169.826 Y74.318 E13.25936
G1 X171.026 Y76.273 E13.46791
G1 X171.487 Y78.519 E13.67645
G1 X171.155 Y80.789 E13.88499
G1 X169.656 Y83.283 E14.14962
G1 X119.613 Y135.676 E20.73763
G1 X118.902 Y136.351 E20.82679
G1 X118.015 Y137.051 E20.92955
G1 X117.224 Y137.573 E21.01571
G1 X116.236 Y138.110 E21.11798
G1 X115.300 Y138.514 E21.21066
G1 X114.301 Y138.847 E21.30637
G1 X113.655 Y139.007 E21.36693
G1 X112.949 Y139.141 E21.43227
G1 X112.195 Y139.243 E21.50145
G1 X111.331 Y139.318 E21.58032
G1 X110.204 Y139.303 E21.68279
G1 X109.735 Y139.255 E21.72566
G1 X108.981 Y139.161 E21.79475
G1 X108.045 Y138.975 E21.88156
G1 X107.291 Y138.767 E21.95266
G1 X106.436 Y138.468 E22.03500
G1 X105.282 Y137.938 E22.15046
G1 X104.394 Y137.424 E22.24375
G1 X103.482 Y136.792 E22.34468
G1 X34.909 Y87.011 E30.04983
G1 X34.135 Y86.353 E30.14221
G1 X30.488 Y82.703 E30.61134
G1 X29.883 Y82.004 E30.69540
G1 X28.831 Y79.966 E30.90394
G1 X28.531 Y77.962 E31.08819
G1 X28.928 Y75.703 E31.29673
G1 X30.452 Y73.297 E31.55568
G1 X38.347 Y65.418 E32.56989
G1 X38.759 Y65.040 E32.62077
G1 X39.791 Y64.179 E32.74298
G1 X40.197 Y63.867 E32.78955
G1 X40.675 Y63.555 E32.84148
G1 E31.84148 F1800.00000
G92 E0
G1 X40.961 Y72.166 F7800.000
G1 E1.00000 F1800.00000
G1 F1080
G1 X40.227 Y72.899 E1.05508
G1 X48.151 Y72.899 E1.47581
G1 X47.749 Y73.020 E1.49809
G1 X47.369 Y73.208 E1.52058
G1 X47.025 Y73.455 E1.54307
G1 X46.849 Y73.631 E1.55631
G1 X39.492 Y73.631 E1.94693
G1 X38.757 Y74.364 E2.00202
G1 X46.116 Y74.364 E2.39271
G1 X45.381 Y75.096 E2.44779
G1 X38.023 Y75.096 E2.83848
G1 X37.288 Y75.829 E2.89357
G1 X44.646 Y75.829 E3.28426
G1 X43.912 Y76.561 E3.33934
G1 X36.554 Y76.561 E3.73003
G1 X35.819 Y77.294 E3.78512
G1 X43.177 Y77.294 E4.17581
G1 X42.442 Y78.026 E4.23089
G1 X35.180 Y78.026 E4.61648
G1 X35.910 Y78.759 E4.67139
G1 X41.708 Y78.759 E4.97921
G1 X40.973 Y79.491 E5.03429
G1 X36.641 Y79.491 E5.26433
G1 X37.371 Y80.224 E5.31925
G1 X40.239 Y80.224 E5.47151
G1 X39.504 Y80.956 E5.52659
G1 X38.101 Y80.956 E5.60106
G1 E4.60106 F1800.00000
G92 E0
G1 X51.953 Y68.504 F7800.000
G1 E1.00000 F1800.00000
G1 F1080
G1 X45.395 Y68.504 E1.34821
G1 X45.200 Y68.578 E1.35928
G1 X44.077 Y69.237 E1.42842
G1 X53.215 Y69.237 E1.91361
G1 X53.945 Y69.969 E1.96853
G1 X43.191 Y69.969 E2.53950
G1 X43.024 Y70.110 E2.55111
G1 X42.431 Y70.702 E2.59561
G1 X54.675 Y70.702 E3.24575
G1 X55.406 Y71.434 E3.30067
G1 X41.696 Y71.434 E4.02860
G1 X40.961 Y72.166 E4.08368
G1 X56.136 Y72.166 E4.88939
G1 X56.866 Y72.899 E4.94431
G1 X49.195 Y72.899 E5.35162
G1 X49.413 Y72.943 E5.36341
G1 X49.674 Y73.043 E5.37825
G1 X50.260 Y73.631 E5.42236
G1 X57.596 Y73.631 E5.81189
G1 X58.327 Y74.364 E5.86681
G1 X50.990 Y74.364 E6.25634
G1 X51.721 Y75.096 E6.31126
G1 X59.057 Y75.096 E6.70080
G1 X59.787 Y75.829 E6.75572
G1 X52.451 Y75.829 E7.14525
G1 X53.181 Y76.561 E7.20017
G1 X60.518 Y76.561 E7.58970
G1 X61.248 Y77.294 E7.64462
G1 X53.912 Y77.294 E8.03416
G1 X54.642 Y78.026 E8.08907
G1 X61.978 Y78.026 E8.47861
G1 X62.709 Y78.759 E8.53353
G1 X55.372 Y78.759 E8.92306
G1 X56.102 Y79.491 E8.97798
G1 X63.439 Y79.491 E9.36751
G1 X64.169 Y80.224 E9.42243
G1 X56.833 Y80.224 E9.81197
G1 X57.563 Y80.956 E9.86688
G1 X64.899 Y80.956 E10.25642
G1 X65.630 Y81.688 E10.31134
G1 X58.293 Y81.688 E10.70087
G1 X59.024 Y82.421 E10.75579
G1 X66.360 Y82.421 E11.14532
G1 X67.090 Y83.153 E11.20024
G1 X59.754 Y83.153 E11.58978
G1 X60.484 Y83.886 E11.64470
G1 X67.821 Y83.886 E12.03423
G1 X68.551 Y84.618 E12.08915
G1 X61.214 Y84.618 E12.47868
G1 X61.945 Y85.351 E12.53360
G1 X69.281 Y85.351 E12.92313
G1 X70.011 Y86.083 E12.97805
G1 X62.675 Y86.083 E13.36759
G1 X63.405 Y86.816 E13.42251
G1 X70.742 Y86.816 E13.81204
G1 X71.472 Y87.548 E13.86696
G1 X64.136 Y87.548 E14.25649
G1 X64.866 Y88.281 E14.31141
G1 X72.202 Y88.281 E14.70095
G1 X72.933 Y89.013 E14.75586
G1 X65.596 Y89.013 E15.14540
G1 X66.326 Y89.746 E15.20032
G1 X73.663 Y89.746 E15.58985
G1 X74.393 Y90.478 E15.64477
G1 X67.057 Y90.478 E16.03430
G1 X67.787 Y91.210 E16.08922
G1 X75.123 Y91.210 E16.47876
G1 X75.854 Y91.943 E16.53368
G1 X68.517 Y91.943 E16.92321
G1 X69.248 Y92.675 E16.97813
G1 X76.584 Y92.675 E17.36766
G1 X77.314 Y93.408 E17.42258
G1 X69.978 Y93.408 E17.81212
G1 X70.708 Y94.140 E17.86703
G1 X78.045 Y94.140 E18.25657
G1 X78.775 Y94.873 E18.31149
G1 X71.438 Y94.873 E18.70102
G1 X72.169 Y95.605 E18.75594
G1 X79.505 Y95.605 E19.14547
G1 X80.235 Y96.338 E19.20039
G1 X72.899 Y96.338 E19.58993
G1 X73.629 Y97.070 E19.64485
G1 X80.966 Y97.070 E20.03438
G1 X81.696 Y97.803 E20.08930
G1 X74.360 Y97.803 E20.47883
G1 X75.090 Y98.535 E20.53375
G1 X82.426 Y98.535 E20.92329
G1 X83.157 Y99.268 E20.97821
G1 X75.820 Y99.268 E21.36774
G1 X76.550 Y100.000 E21.42266
G1 X83.887 Y100.000 E21.81219
G1 X84.617 Y100.732 E21.86711
G1 X77.281 Y100.732 E22.25665
G1 X78.011 Y101.465 E22.31156
G1 X85.347 Y101.465 E22.70110
G1 X86.078 Y102.197 E22.75602
G1 X78.741 Y102.197 E23.14555
G1 X79.472 Y102.930 E23.20047
G1 X86.808 Y102.930 E23.59000
G1 X87.538 Y103.662 E23.64492
G1 X80.202 Y103.662 E24.03446
G1 X80.932 Y104.395 E24.08938
G1 X88.269 Y104.395 E24.47891
G1 X88.999 Y105.127 E24.53383
G1 X81.662 Y105.127 E24.92336
G1 X82.393 Y105.860 E24.97828
G1 X89.729 Y105.860 E25.36782
G1 X90.459 Y106.592 E25.42273
G1 X83.123 Y106.592 E25.81227
G1 X83.853 Y107.325 E25.86719
G1 X91.190 Y107.325 E26.25672
G1 X91.920 Y108.057 E26.31164
G1 X84.584 Y108.057 E26.70118
G1 X85.314 Y108.790 E26.75609
G1 X92.650 Y108.790 E27.14563
G1 X93.381 Y109.522 E27.20055
G1 X86.044 Y109.522 E27.59008
G1 X86.774 Y110.254 E27.64500
G1 X94.111 Y110.254 E28.03453
G1 X94.841 Y110.987 E28.08945
G1 X87.505 Y110.987 E28.47899
G1 X88.235 Y111.719 E28.53391
G1 X95.571 Y111.719 E28.92344
G1 X96.302 Y112.452 E28.97836
G1 X88.965 Y112.452 E29.36789
G1 X89.696 Y113.184 E29.42281
G1 X97.032 Y113.184 E29.81235
G1 X97.762 Y113.917 E29.86727
G1 X90.426 Y113.917 E30.25680
G1 X91.156 Y114.649 E30.31172
G1 X98.493 Y114.649 E30.70125
G1 X99.223 Y115.382 E30.75617
G1 X91.886 Y115.382 E31.14571
G1 X92.617 Y116.114 E31.20063
G1 X99.953 Y116.114 E31.59016
G1 X100.683 Y116.847 E31.64508
G1 X93.347 Y116.847 E32.03461
G1 X94.077 Y117.579 E32.08953
G1 X101.414 Y117.579 E32.47907
G1 X102.144 Y118.312 E32.53398
G1 X94.808 Y118.312 E32.92352
G1 X95.538 Y119.044 E32.97844
G1 X102.874 Y119.044 E33.36797
G1 X103.605 Y119.776 E33.42289
G1 X96.268 Y119.776 E33.81243
G1 X96.999 Y120.509 E33.86734
G1 X104.335 Y120.509 E34.25688
G1 X105.065 Y121.241 E34.31180
G1 X97.729 Y121.241 E34.70133
G1 X98.459 Y121.974 E34.75625
G1 X105.795 Y121.974 E35.14579
G1 X106.526 Y122.706 E35.20070
G1 X99.189 Y122.706 E35.59024
G1 X99.920 Y123.439 E35.64516
G1 X107.256 Y123.439 E36.03469
G1 X107.986 Y124.171 E36.08961
G1 X100.650 Y124.171 E36.47915
G1 X101.380 Y124.904 E36.53406
G1 X108.717 Y124.904 E36.92360
G1 X109.447 Y125.636 E36.97852
G1 X102.111 Y125.636 E37.36805
G1 X102.841 Y126.369 E37.42297
G1 X109.974 Y126.369 E37.80170
G1 X110.006 Y126.766 E37.82287
G1 X110.038 Y126.892 E37.82977
G1 X110.149 Y127.101 E37.84235
G1 X103.571 Y127.101 E38.19162
G1 E37.19162 F1800.00000
G92 E0
G1 X108.695 Y132.228 F7800.000
G1 E1.00000 F1800.00000
G1 F1080
G1 X113.152 Y132.228 E1.23664
G1 X113.578 Y132.042 E1.26130
G1 X114.394 Y131.496 E1.31344
G1 X107.467 Y131.496 E1.68125
G1 X107.374 Y131.431 E1.68726
G1 X106.699 Y130.763 E1.73766
G1 X115.140 Y130.763 E2.18583
G1 X115.625 Y130.121 E2.22855
G1 X115.671 Y130.031 E2.23395
G1 X106.175 Y130.031 E2.73815
G1 X105.862 Y129.399 E2.77562
G1 X105.762 Y129.298 E2.78313
G1 X116.049 Y129.298 E3.32935
G1 X116.289 Y128.566 E3.37027
G1 X105.032 Y128.566 E3.96801
G1 X104.301 Y127.834 E4.02293
G1 X116.714 Y127.834 E4.68197
G1 X117.138 Y127.101 E4.72692
G1 X111.416 Y127.101 E5.03071
G1 X111.528 Y126.892 E5.04328
G1 X111.559 Y126.766 E5.05018
G1 X111.592 Y126.369 E5.07135
G1 X117.562 Y126.369 E5.38833
G1 X117.987 Y125.636 E5.43328
G1 X111.982 Y125.636 E5.75208
G1 X112.407 Y124.904 E5.79702
G1 X118.411 Y124.904 E6.11582
G1 X118.835 Y124.171 E6.16077
G1 X112.831 Y124.171 E6.47957
G1 X113.255 Y123.439 E6.52451
G1 X119.260 Y123.439 E6.84331
G1 X119.684 Y122.706 E6.88826
G1 X113.680 Y122.706 E7.20706
G1 X114.104 Y121.974 E7.25200
G1 X120.108 Y121.974 E7.57080
G1 X120.533 Y121.241 E7.61575
G1 X114.528 Y121.241 E7.93455
G1 X114.953 Y120.509 E7.97949
G1 X120.957 Y120.509 E8.29829
G1 X121.381 Y119.776 E8.34324
G1 X115.377 Y119.776 E8.66204
G1 X115.802 Y119.044 E8.70698
G1 X121.806 Y119.044 E9.02578
G1 X122.230 Y118.312 E9.07073
G1 X116.226 Y118.312 E9.38953
G1 X116.650 Y117.579 E9.43447
G1 X122.654 Y117.579 E9.75327
G1 X123.079 Y116.847 E9.79822
G1 X117.075 Y116.847 E10.11702
G1 X117.499 Y116.114 E10.16196
G1 X123.503 Y116.114 E10.48076
G1 X123.927 Y115.382 E10.52571
G1 X117.923 Y115.382 E10.84451
G1 X118.348 Y114.649 E10.88945
G1 X124.352 Y114.649 E11.20825
G1 X124.776 Y113.917 E11.25320
G1 X118.772 Y113.917 E11.57200
G1 X119.196 Y113.184 E11.61695
G1 X125.200 Y113.184 E11.93574
G1 X125.625 Y112.452 E11.98069
G1 X119.621 Y112.452 E12.29949
G1 X120.045 Y111.719 E12.34444
G1 X126.049 Y111.719 E12.66324
G1 X126.473 Y110.987 E12.70818
G1 X120.469 Y110.987 E13.02698
G1 X120.894 Y110.254 E13.07193
G1 X126.898 Y110.254 E13.39073
G1 X127.322 Y109.522 E13.43567
G1 X121.318 Y109.522 E13.75447
G1 X121.742 Y108.790 E13.79942
G1 X127.746 Y108.790 E14.11822
G1 X128.171 Y108.057 E14.16316
G1 X122.167 Y108.057 E14.48196
G1 X122.591 Y107.325 E14.52691
G1 X128.595 Y107.325 E14.84571
G1 X129.019 Y106.592 E14.89065
G1 X123.015 Y106.592 E15.20945
G1 X123.440 Y105.860 E15.25440
G1 X129.444 Y105.860 E15.57320
G1 X129.868 Y105.127 E15.61814
G1 X123.864 Y105.127 E15.93694
G1 X124.288 Y104.395 E15.98189
G1 X130.292 Y104.395 E16.30069
G1 X130.717 Y103.662 E16.34563
G1 X124.713 Y103.662 E16.66443
G1 X125.137 Y102.930 E16.70938
G1 X131.141 Y102.930 E17.02818
G1 X131.566 Y102.197 E17.07312
G1 X125.561 Y102.197 E17.39192
G1 X125.986 Y101.465 E17.43687
G1 X131.990 Y101.465 E17.75567
G1 X132.414 Y100.732 E17.80062
G1 X126.410 Y100.732 E18.11941
G1 X126.834 Y100.000 E18.16436
G1 X132.839 Y100.000 E18.48316
G1 X133.263 Y99.268 E18.52811
G1 X127.259 Y99.268 E18.84691
G1 X127.683 Y98.535 E18.89185
G1 X133.687 Y98.535 E19.21065
G1 X134.112 Y97.803 E19.25560
G1 X128.107 Y97.803 E19.57440
G1 X128.532 Y97.070 E19.61934
G1 X134.536 Y97.070 E19.93814
G1 X134.960 Y96.338 E19.98309
G1 X128.956 Y96.338 E20.30189
G1 X129.380 Y95.605 E20.34683
G1 X135.385 Y95.605 E20.66563
G1 X135.809 Y94.873 E20.71058
G1 X129.805 Y94.873 E21.02938
G1 X130.229 Y94.140 E21.07432
G1 X136.233 Y94.140 E21.39312
G1 X136.658 Y93.408 E21.43807
G1 X130.653 Y93.408 E21.75687
G1 X131.078 Y92.675 E21.80182
G1 X137.082 Y92.675 E22.12061
G1 X137.506 Y91.943 E22.16556
G1 X131.502 Y91.943 E22.48436
G1 X131.926 Y91.210 E22.52931
G1 X137.931 Y91.210 E22.84811
G1 X138.355 Y90.478 E22.89305
G1 X132.351 Y90.478 E23.21185
G1 X132.775 Y89.746 E23.25680
G1 X138.779 Y89.746 E23.57560
G1 X139.204 Y89.013 E23.62054
G1 X133.199 Y89.013 E23.93934
G1 X133.624 Y88.281 E23.98429
G1 X139.628 Y88.281 E24.30309
G1 X140.052 Y87.548 E24.34803
G1 X134.048 Y87.548 E24.66683
G1 X134.472 Y86.816 E24.71178
G1 X140.477 Y86.816 E25.03058
G1 X140.901 Y86.083 E25.07552
G1 X134.897 Y86.083 E25.39432
G1 X135.321 Y85.351 E25.43927
G1 X141.325 Y85.351 E25.75807
G1 X141.750 Y84.618 E25.80302
G1 X135.745 Y84.618 E26.12182
G1 X136.170 Y83.886 E26.16676
G1 X142.174 Y83.886 E26.48556
G1 X142.598 Y83.153 E26.53051
G1 X136.594 Y83.153 E26.84931
G1 X137.018 Y82.421 E26.89425
G1 X143.023 Y82.421 E27.21305
G1 X143.447 Y81.688 E27.25800
G1 X137.443 Y81.688 E27.57680
G1 X137.867 Y80.956 E27.62174
G1 X143.871 Y80.956 E27.94054
G1 X144.296 Y80.224 E27.98549
G1 X138.291 Y80.224 E28.30429
G1 X138.716 Y79.491 E28.34923
G1 X144.720 Y79.491 E28.66803
G1 X145.144 Y78.759 E28.71298
G1 X139.140 Y78.759 E29.03178
G1 X139.564 Y78.026 E29.07673
G1 X145.569 Y78.026 E29.39553
G1 X145.993 Y77.294 E29.44047
G1 X139.989 Y77.294 E29.75927
G1 X140.413 Y76.561 E29.80422
G1 X146.417 Y76.561 E30.12302
G1 X146.842 Y75.829 E30.16796
G1 X140.838 Y75.829 E30.48676
G1 X141.262 Y75.096 E30.53171
G1 X147.266 Y75.096 E30.85051
G1 X147.690 Y74.364 E30.89545
G1 X141.686 Y74.364 E31.21425
G1 X142.111 Y73.631 E31.25920
G1 X148.115 Y73.631 E31.57800
G1 X148.539 Y72.899 E31.62295
G1 X142.535 Y72.899 E31.94175
G1 X142.959 Y72.166 E31.98669
G1 X159.077 Y72.166 E32.84246
G1 X158.428 Y71.434 E32.89439
G1 X143.384 Y71.434 E33.69322
G1 X143.808 Y70.702 E33.73816
G1 X157.780 Y70.702 E34.48005
G1 X157.479 Y70.361 E34.50417
G1 X157.066 Y69.969 E34.53442
G1 X144.232 Y69.969 E35.21586
G1 X144.421 Y69.643 E35.23585
G1 X144.977 Y69.237 E35.27241
G1 X156.270 Y69.237 E35.87205
G1 X155.166 Y68.504 E35.94242
G1 X146.053 Y68.504 E36.42629
G1 X147.260 Y67.909 E36.49778
G1 X147.731 Y67.772 E36.52381
G1 X153.566 Y67.772 E36.83361
G1 E35.83361 F1800.00000
G92 E0
G1 X159.077 Y72.166 F7800.000
G1 E1.00000 F1800.00000
G1 F1080
G1 X159.725 Y72.899 E1.05193
G1 X152.685 Y72.899 E1.42569
G1 X153.134 Y73.272 E1.45669
G1 X153.442 Y73.631 E1.48179
G1 X160.373 Y73.631 E1.84980
G1 X161.021 Y74.364 E1.90173
G1 X154.084 Y74.364 E2.27006
G1 X154.732 Y75.096 E2.32199
G1 X161.669 Y75.096 E2.69032
G1 X162.317 Y75.829 E2.74225
G1 X155.380 Y75.829 E3.11058
G1 X156.028 Y76.561 E3.16251
G1 X162.965 Y76.561 E3.53084
G1 X163.613 Y77.294 E3.58277
G1 X156.676 Y77.294 E3.95110
G1 X157.324 Y78.026 E4.00303
G1 X164.261 Y78.026 E4.37136
G1 X164.865 Y78.708 E4.41972
G1 X164.808 Y78.759 E4.42376
G1 X157.972 Y78.759 E4.78670
G1 X158.620 Y79.491 E4.83862
G1 X163.980 Y79.491 E5.12319
G1 X163.152 Y80.224 E5.18188
G1 X159.269 Y80.224 E5.38809
G1 X159.917 Y80.956 E5.44002
G1 X162.324 Y80.956 E5.56785
G1 X161.497 Y81.688 E5.62653
G1 X160.565 Y81.688 E5.67602
M106 S255
M104 S200 ; set temperature
M140 S45 ; set bed temperature
;BEFORE_LAYER_CHANGE
