; generated by Slic3r 1.3.0 on 2022-06-05 at 02:42:30

; external perimeters extrusion width = 0.44mm (1.67mm^3/s)
; perimeters extrusion width = 0.56mm (3.10mm^3/s)
; infill extrusion width = 0.50mm (5.48mm^3/s)
; solid infill extrusion width = 0.56mm (6.20mm^3/s)
; top infill extrusion width = 0.56mm (5.17mm^3/s)
; support material extrusion width = 0.44mm (4.76mm^3/s)

M107
M190 S50 ; set bed temperature and wait for it to be reached
M104 S205 ; set temperature
G28 ; home all axes
G1 Z5 F5000 ; lift nozzle

; Filament gcode

M109 S205 ; set temperature and wait for it to be reached
G21 ; set units to millimeters
G90 ; use absolute coordinates
M82 ; use absolute distances for extrusion
G92 E0
G1 E-1.00000 F1800.00000
G92 E0
G1 Z5.450 F7800.000
G1 X103.638 Y63.496 F7800.000
G1 E1.00000 F1800.00000
G1 F1080
G1 X104.108 Y63.137 E1.05379
G1 X104.583 Y62.812 E1.10613
G1 X105.701 Y62.142 E1.22468
G1 X106.068 Y61.942 E1.26265
G1 X106.718 Y61.628 E1.32827
G1 X107.772 Y61.240 E1.43036
G1 X108.684 Y60.989 E1.51639
G1 X109.790 Y60.784 E1.61873
G1 X110.635 Y60.701 E1.69589
G1 X111.857 Y60.677 E1.80707
G1 X112.799 Y60.745 E1.89295
G1 X113.913 Y60.921 E1.99545
G1 X114.834 Y61.149 E2.08179
G1 X115.897 Y61.511 E2.18387
G1 X116.762 Y61.890 E2.26971
G1 X117.752 Y62.428 E2.37222
G1 X118.541 Y62.949 E2.45811
G1 X119.426 Y63.647 E2.56062
G1 X120.262 Y64.444 E2.66565
G1 X120.707 Y64.936 E2.72596
G1 X165.350 Y123.257 E9.40445
G1 X166.408 Y125.292 E9.61299
G1 X166.708 Y127.566 E9.82153
G1 X166.215 Y129.806 E10.03008
G1 X165.051 Y131.673 E10.23020
G1 X163.204 Y133.760 E10.48362
G1 X162.712 Y134.286 E10.54902
G1 X161.440 Y135.513 E10.70978
G1 X160.540 Y136.230 E10.81444
G1 X159.204 Y137.116 E10.96018
G1 X158.194 Y137.666 E11.06480
G1 X156.739 Y138.301 E11.20910
G1 X155.644 Y138.669 E11.31413
G1 X154.068 Y139.049 E11.46155
G1 X152.938 Y139.220 E11.56544
G1 X150.883 Y139.335 E11.75260
G1 X49.655 Y138.814 E20.95737
G1 X48.175 Y138.780 E21.09199
G1 X47.065 Y138.660 E21.19353
G1 X45.732 Y138.400 E21.31696
G1 X44.685 Y138.105 E21.41586
G1 X43.136 Y137.511 E21.56675
G1 X42.384 Y137.136 E21.64313
G1 X41.201 Y136.448 E21.76759
G1 X40.289 Y135.804 E21.86909
G1 X39.166 Y134.850 E22.00312
G1 X38.279 Y133.990 E22.11543
G1 X35.230 Y130.950 E22.50698
G1 X33.911 Y129.074 E22.71552
G1 X33.310 Y126.860 E22.92406
G1 X33.500 Y124.575 E23.13261
G1 X34.458 Y122.491 E23.34115
G1 X35.216 Y121.581 E23.44887
G1 X38.759 Y118.028 E23.90511
G1 X39.282 Y117.547 E23.96971
G1 X103.592 Y63.535 E31.60624
G1 E30.60624 F1800.00000
G92 E0
G1 X113.678 Y67.772 F7800.000
G1 E1.00000 F1800.00000
G1 F1080
G1 X113.239 Y67.579 E1.02546
G1 X112.322 Y67.352 E1.07564
G1 X111.380 Y67.284 E1.12579
G1 X110.440 Y67.377 E1.17594
G1 X109.529 Y67.627 E1.22608
G1 X109.222 Y67.772 E1.24413
G1 X113.678 Y67.772 E1.48076
G1 X114.104 Y67.958 E1.50543
G1 X114.920 Y68.504 E1.55757
G1 X107.993 Y68.504 E1.92538
G1 X107.899 Y68.570 E1.93144
G1 X107.225 Y69.237 E1.98178
G1 X115.666 Y69.237 E2.42995
G1 X116.151 Y69.879 E2.47266
G1 X116.197 Y69.969 E2.47807
G1 X106.701 Y69.969 E2.98227
G1 X106.388 Y70.601 E3.01974
G1 X106.288 Y70.702 E3.02725
G1 X116.575 Y70.702 E3.57346
G1 X116.815 Y71.434 E3.61439
G1 X105.558 Y71.434 E4.21213
G1 X104.828 Y72.166 E4.26704
G1 X117.240 Y72.166 E4.92609
G1 X117.664 Y72.899 E4.97103
G1 X111.943 Y72.899 E5.27482
G1 X112.054 Y73.108 E5.28740
G1 X112.086 Y73.234 E5.29430
G1 X112.118 Y73.631 E5.31547
G1 X118.088 Y73.631 E5.63246
G1 X118.513 Y74.364 E5.67741
G1 X112.509 Y74.364 E5.99621
G1 X112.933 Y75.096 E6.04115
G1 X118.937 Y75.096 E6.35995
G1 X119.361 Y75.829 E6.40490
G1 X113.357 Y75.829 E6.72370
G1 X113.782 Y76.561 E6.76865
G1 X119.786 Y76.561 E7.08744
G1 X120.210 Y77.294 E7.13239
G1 X114.206 Y77.294 E7.45119
G1 X114.630 Y78.026 E7.49614
G1 X120.635 Y78.026 E7.81494
G1 X121.059 Y78.759 E7.85988
G1 X115.055 Y78.759 E8.17868
G1 X115.479 Y79.491 E8.22363
G1 X121.483 Y79.491 E8.54243
G1 X121.908 Y80.224 E8.58737
G1 X115.903 Y80.224 E8.90617
G1 X116.328 Y80.956 E8.95112
G1 X122.332 Y80.956 E9.26992
G1 X122.756 Y81.688 E9.31486
G1 X116.752 Y81.688 E9.63366
G1 X117.176 Y82.421 E9.67861
G1 X123.181 Y82.421 E9.99741
G1 X123.605 Y83.153 E10.04235
G1 X117.601 Y83.153 E10.36115
G1 X118.025 Y83.886 E10.40610
G1 X124.029 Y83.886 E10.72490
G1 X124.454 Y84.618 E10.76984
G1 X118.449 Y84.618 E11.08864
G1 X118.874 Y85.351 E11.13359
G1 X124.878 Y85.351 E11.45239
G1 X125.302 Y86.083 E11.49733
G1 X119.298 Y86.083 E11.81613
G1 X119.722 Y86.816 E11.86108
G1 X125.727 Y86.816 E12.17988
G1 X126.151 Y87.548 E12.22482
G1 X120.147 Y87.548 E12.54362
G1 X120.571 Y88.281 E12.58857
G1 X126.575 Y88.281 E12.90737
G1 X127.000 Y89.013 E12.95231
G1 X120.995 Y89.013 E13.27111
G1 X121.420 Y89.746 E13.31606
G1 X127.424 Y89.746 E13.63486
G1 X127.848 Y90.478 E13.67980
G1 X121.844 Y90.478 E13.99860
G1 X122.268 Y91.210 E14.04355
G1 X128.273 Y91.210 E14.36235
G1 X128.697 Y91.943 E14.40730
G1 X122.693 Y91.943 E14.72609
G1 X123.117 Y92.675 E14.77104
G1 X129.121 Y92.675 E15.08984
G1 X129.546 Y93.408 E15.13479
G1 X123.541 Y93.408 E15.45359
G1 X123.966 Y94.140 E15.49853
G1 X129.970 Y94.140 E15.81733
G1 X130.394 Y94.873 E15.86228
G1 X124.390 Y94.873 E16.18108
G1 X124.814 Y95.605 E16.22602
G1 X130.819 Y95.605 E16.54482
G1 X131.243 Y96.338 E16.58977
G1 X125.239 Y96.338 E16.90857
G1 X125.663 Y97.070 E16.95351
G1 X131.667 Y97.070 E17.27231
G1 X132.092 Y97.803 E17.31726
G1 X126.087 Y97.803 E17.63606
G1 X126.512 Y98.535 E17.68100
G1 X132.516 Y98.535 E17.99980
G1 X132.940 Y99.268 E18.04475
G1 X126.936 Y99.268 E18.36355
G1 X127.360 Y100.000 E18.40849
G1 X133.365 Y100.000 E18.72729
G1 X133.789 Y100.732 E18.77224
G1 X127.785 Y100.732 E19.09104
G1 X128.209 Y101.465 E19.13598
G1 X134.213 Y101.465 E19.45478
G1 X134.638 Y102.197 E19.49973
G1 X128.634 Y102.197 E19.81853
G1 X129.058 Y102.930 E19.86347
G1 X135.062 Y102.930 E20.18227
G1 X135.486 Y103.662 E20.22722
G1 X129.482 Y103.662 E20.54602
G1 X129.907 Y104.395 E20.59097
G1 X135.911 Y104.395 E20.90976
G1 X136.335 Y105.127 E20.95471
G1 X130.331 Y105.127 E21.27351
G1 X130.755 Y105.860 E21.31846
G1 X136.759 Y105.860 E21.63725
G1 X137.184 Y106.592 E21.68220
G1 X131.180 Y106.592 E22.00100
G1 X131.604 Y107.325 E22.04595
G1 X137.608 Y107.325 E22.36474
G1 X138.032 Y108.057 E22.40969
G1 X132.028 Y108.057 E22.72849
G1 X132.453 Y108.790 E22.77344
G1 X138.457 Y108.790 E23.09224
G1 X138.881 Y109.522 E23.13718
G1 X132.877 Y109.522 E23.45598
G1 X133.301 Y110.254 E23.50093
G1 X139.305 Y110.254 E23.81973
G1 X139.730 Y110.987 E23.86467
G1 X133.726 Y110.987 E24.18347
G1 X134.150 Y111.719 E24.22842
G1 X140.154 Y111.719 E24.54722
G1 X140.578 Y112.452 E24.59216
G1 X134.574 Y112.452 E24.91096
G1 X134.999 Y113.184 E24.95591
G1 X141.003 Y113.184 E25.27471
G1 X141.427 Y113.917 E25.31965
G1 X135.423 Y113.917 E25.63845
G1 X135.847 Y114.649 E25.68340
G1 X141.851 Y114.649 E26.00220
G1 X142.276 Y115.382 E26.04714
G1 X136.272 Y115.382 E26.36594
G1 X136.696 Y116.114 E26.41089
G1 X142.700 Y116.114 E26.72969
G1 X143.124 Y116.847 E26.77463
G1 X137.120 Y116.847 E27.09343
G1 X137.545 Y117.579 E27.13838
G1 X143.549 Y117.579 E27.45718
G1 X143.973 Y118.312 E27.50213
G1 X137.969 Y118.312 E27.82092
G1 X138.393 Y119.044 E27.86587
G1 X144.397 Y119.044 E28.18467
G1 X144.822 Y119.776 E28.22962
G1 X138.818 Y119.776 E28.54842
G1 X139.242 Y120.509 E28.59336
G1 X145.246 Y120.509 E28.91216
G1 X145.671 Y121.241 E28.95711
G1 X139.666 Y121.241 E29.27591
G1 X140.091 Y121.974 E29.32085
G1 X146.095 Y121.974 E29.63965
G1 X146.519 Y122.706 E29.68460
G1 X140.515 Y122.706 E30.00340
G1 X140.939 Y123.439 E30.04834
G1 X146.944 Y123.439 E30.36714
G1 X147.368 Y124.171 E30.41209
G1 X141.364 Y124.171 E30.73089
G1 X141.788 Y124.904 E30.77583
G1 X147.792 Y124.904 E31.09463
G1 X148.217 Y125.636 E31.13958
G1 X142.212 Y125.636 E31.45838
G1 X142.637 Y126.369 E31.50332
G1 X148.641 Y126.369 E31.82212
G1 X149.065 Y127.101 E31.86707
G1 X143.061 Y127.101 E32.18587
G1 E31.18587 F1800.00000
G92 E0
G1 X148.257 Y132.228 F7800.000
G1 E1.00000 F1800.00000
G1 F1080
G1 X154.092 Y132.228 E1.30979
G1 X155.543 Y131.595 E1.39385
G1 X155.692 Y131.496 E1.40336
G1 X146.579 Y131.496 E1.88723
G1 X146.349 Y131.383 E1.90084
G1 X145.503 Y130.763 E1.95651
G1 X156.796 Y130.763 E2.55615
G1 X156.878 Y130.709 E2.56137
G1 X157.592 Y130.031 E2.61366
G1 X144.758 Y130.031 E3.29510
G1 X144.334 Y129.298 E3.34004
G1 X158.307 Y129.298 E4.08193
G1 X158.955 Y128.566 E4.13386
G1 X143.910 Y128.566 E4.93269
G1 X143.485 Y127.834 E4.97763
G1 X159.603 Y127.834 E5.83340
G1 X160.089 Y127.283 E5.87240
G1 X159.883 Y127.101 E5.88701
G1 X153.212 Y127.101 E6.24126
G1 X153.661 Y126.728 E6.27226
G1 X153.968 Y126.369 E6.29737
G1 X159.056 Y126.369 E6.56753
G1 X158.228 Y125.636 E6.62621
G1 X154.610 Y125.636 E6.81833
G1 X155.258 Y124.904 E6.87026
G1 X157.400 Y124.904 E6.98401
G1 X156.573 Y124.171 E7.04270
G1 X155.906 Y124.171 E7.07809
G1 X156.199 Y123.840 E7.10155
G1 X156.573 Y124.171 E7.12807
G1 E6.12807 F1800.00000
G92 E0
G1 X110.675 Y72.899 F7800.000
G1 E1.00000 F1800.00000
G1 F1080
G1 X104.097 Y72.899 E1.34927
G1 X103.367 Y73.631 E1.40419
G1 X110.499 Y73.631 E1.78290
G1 X110.481 Y73.854 E1.79478
G1 X109.973 Y74.364 E1.83298
G1 X102.637 Y74.364 E2.22251
G1 X101.906 Y75.096 E2.27743
G1 X109.243 Y75.096 E2.66696
G1 X108.513 Y75.829 E2.72188
G1 X101.176 Y75.829 E3.11142
G1 X100.446 Y76.561 E3.16633
G1 X107.782 Y76.561 E3.55587
G1 X107.052 Y77.294 E3.61079
G1 X99.716 Y77.294 E4.00032
G1 X98.985 Y78.026 E4.05524
G1 X106.322 Y78.026 E4.44477
G1 X105.591 Y78.759 E4.49969
G1 X98.255 Y78.759 E4.88923
G1 X97.525 Y79.491 E4.94414
G1 X104.861 Y79.491 E5.33368
G1 X104.131 Y80.224 E5.38860
G1 X96.794 Y80.224 E5.77813
G1 X96.064 Y80.956 E5.83305
G1 X103.400 Y80.956 E6.22258
G1 X102.670 Y81.688 E6.27750
G1 X95.334 Y81.688 E6.66704
G1 X94.604 Y82.421 E6.72195
G1 X101.940 Y82.421 E7.11149
G1 X101.210 Y83.153 E7.16641
G1 X93.873 Y83.153 E7.55594
G1 X93.143 Y83.886 E7.61086
G1 X100.479 Y83.886 E8.00039
G1 X99.749 Y84.618 E8.05531
G1 X92.413 Y84.618 E8.44485
G1 X91.682 Y85.351 E8.49977
G1 X99.019 Y85.351 E8.88930
G1 X98.288 Y86.083 E8.94422
G1 X90.952 Y86.083 E9.33375
G1 X90.222 Y86.816 E9.38867
G1 X97.558 Y86.816 E9.77820
G1 X96.828 Y87.548 E9.83312
G1 X89.492 Y87.548 E10.22266
G1 X88.761 Y88.281 E10.27758
G1 X96.098 Y88.281 E10.66711
G1 X95.367 Y89.013 E10.72203
G1 X88.031 Y89.013 E11.11156
G1 X87.301 Y89.746 E11.16648
G1 X94.637 Y89.746 E11.55602
G1 X93.907 Y90.478 E11.61093
G1 X86.570 Y90.478 E12.00047
G1 X85.840 Y91.210 E12.05539
G1 X93.176 Y91.210 E12.44492
G1 X92.446 Y91.943 E12.49984
G1 X85.110 Y91.943 E12.88937
G1 X84.379 Y92.675 E12.94429
G1 X91.716 Y92.675 E13.33383
G1 X90.986 Y93.408 E13.38874
G1 X83.649 Y93.408 E13.77828
G1 X82.919 Y94.140 E13.83320
G1 X90.255 Y94.140 E14.22273
G1 X89.525 Y94.873 E14.27765
G1 X82.189 Y94.873 E14.66718
G1 X81.458 Y95.605 E14.72210
G1 X88.795 Y95.605 E15.11164
G1 X88.064 Y96.338 E15.16655
G1 X80.728 Y96.338 E15.55609
G1 X79.998 Y97.070 E15.61101
G1 X87.334 Y97.070 E16.00054
G1 X86.604 Y97.803 E16.05546
G1 X79.267 Y97.803 E16.44499
G1 X78.537 Y98.535 E16.49991
G1 X85.874 Y98.535 E16.88945
G1 X85.143 Y99.268 E16.94437
G1 X77.807 Y99.268 E17.33390
G1 X77.077 Y100.000 E17.38882
G1 X84.413 Y100.000 E17.77835
G1 X83.683 Y100.732 E17.83327
G1 X76.346 Y100.732 E18.22281
G1 X75.616 Y101.465 E18.27772
G1 X82.952 Y101.465 E18.66726
G1 X82.222 Y102.197 E18.72218
G1 X74.886 Y102.197 E19.11171
G1 X74.155 Y102.930 E19.16663
G1 X81.492 Y102.930 E19.55616
G1 X80.762 Y103.662 E19.61108
G1 X73.425 Y103.662 E20.00062
G1 X72.695 Y104.395 E20.05553
G1 X80.031 Y104.395 E20.44507
G1 X79.301 Y105.127 E20.49999
G1 X71.965 Y105.127 E20.88952
G1 X71.234 Y105.860 E20.94444
G1 X78.571 Y105.860 E21.33397
G1 X77.840 Y106.592 E21.38889
G1 X70.504 Y106.592 E21.77843
G1 X69.774 Y107.325 E21.83334
G1 X77.110 Y107.325 E22.22288
G1 X76.380 Y108.057 E22.27780
G1 X69.043 Y108.057 E22.66733
G1 X68.313 Y108.790 E22.72225
G1 X75.650 Y108.790 E23.11178
G1 X74.919 Y109.522 E23.16670
G1 X67.583 Y109.522 E23.55624
G1 X66.853 Y110.254 E23.61116
G1 X74.189 Y110.254 E24.00069
G1 X73.459 Y110.987 E24.05561
G1 X66.122 Y110.987 E24.44514
G1 X65.392 Y111.719 E24.50006
G1 X72.728 Y111.719 E24.88959
G1 X71.998 Y112.452 E24.94451
G1 X64.662 Y112.452 E25.33405
G1 X63.931 Y113.184 E25.38897
G1 X71.268 Y113.184 E25.77850
G1 X70.538 Y113.917 E25.83342
G1 X63.201 Y113.917 E26.22295
G1 X62.471 Y114.649 E26.27787
G1 X69.807 Y114.649 E26.66740
G1 X69.077 Y115.382 E26.72232
G1 X61.741 Y115.382 E27.11186
G1 X61.010 Y116.114 E27.16678
G1 X68.347 Y116.114 E27.55631
G1 X67.616 Y116.847 E27.61123
G1 X60.280 Y116.847 E28.00076
G1 X59.550 Y117.579 E28.05568
G1 X66.886 Y117.579 E28.44522
G1 X66.156 Y118.312 E28.50013
G1 X58.819 Y118.312 E28.88967
G1 X58.089 Y119.044 E28.94459
G1 X65.426 Y119.044 E29.33412
G1 X64.695 Y119.776 E29.38904
G1 X57.359 Y119.776 E29.77857
G1 X56.629 Y120.509 E29.83349
G1 X63.965 Y120.509 E30.22303
G1 X63.235 Y121.241 E30.27794
G1 X55.898 Y121.241 E30.66748
G1 X55.168 Y121.974 E30.72240
G1 X62.504 Y121.974 E31.11193
G1 X61.774 Y122.706 E31.16685
G1 X54.438 Y122.706 E31.55638
G1 X53.707 Y123.439 E31.61130
G1 X61.044 Y123.439 E32.00084
G1 X60.314 Y124.171 E32.05575
G1 X52.977 Y124.171 E32.44529
G1 X52.247 Y124.904 E32.50021
G1 X59.583 Y124.904 E32.88974
G1 X58.853 Y125.636 E32.94466
G1 X51.517 Y125.636 E33.33419
G1 X50.786 Y126.369 E33.38911
G1 X58.123 Y126.369 E33.77865
G1 X57.392 Y127.101 E33.83356
G1 X49.721 Y127.101 E34.24088
G1 E33.24088 F1800.00000
G92 E0
G1 X45.921 Y131.496 F7800.000
G1 E1.00000 F1800.00000
G1 F1080
G1 X52.479 Y131.496 E1.34821
G1 X53.595 Y130.910 E1.41510
G1 X53.741 Y130.763 E1.42610
G1 X44.603 Y130.763 E1.91128
G1 X43.718 Y130.031 E1.97230
G1 X54.471 Y130.031 E2.54327
G1 X55.202 Y129.298 E2.59819
G1 X42.957 Y129.298 E3.24834
G1 X42.222 Y128.566 E3.30342
G1 X55.932 Y128.566 E4.03135
G1 X56.662 Y127.834 E4.08626
G1 X41.488 Y127.834 E4.89197
G1 X40.753 Y127.101 E4.94705
G1 X48.677 Y127.101 E5.36778
G1 X48.275 Y126.980 E5.39007
G1 X47.895 Y126.792 E5.41255
G1 X47.551 Y126.545 E5.43504
G1 X47.375 Y126.369 E5.44829
G1 X40.018 Y126.369 E5.83891
G1 X39.907 Y126.258 E5.84722
G1 X40.528 Y125.636 E5.89386
G1 X46.642 Y125.636 E6.21850
G1 X45.907 Y124.904 E6.27358
G1 X41.258 Y124.904 E6.52044
G1 X41.988 Y124.171 E6.57536
G1 X45.173 Y124.171 E6.74444
G1 X44.438 Y123.439 E6.79952
G1 X42.718 Y123.439 E6.89082
G1 X43.449 Y122.706 E6.94575
G1 X43.703 Y122.706 E6.95925
M106 S255
M104 S200 ; set temperature
M140 S45 ; set bed temperature
G1 E5.95925 F1800.00000
G92 E0
G1 Z5.750 F7800.000
G1 X40.434 Y125.738 F7800.000
G1 E1.00000 F1800.00000
G1 F2816.46
G1 X40.434 Y126.776 E1.04863
G1 X41.188 Y127.527 E1.09851
G1 X41.188 Y124.981 E1.21778
G1 X41.942 Y124.225 E1.26781
G1 X41.942 Y128.279 E1.45774
G1 X42.696 Y129.031 E1.50762
G1 X42.696 Y123.469 E1.76819
G1 X43.450 Y122.713 E1.81821
G1 X43.450 Y129.783 E2.14942
G1 X44.204 Y130.433 E2.19607
G1 X44.204 Y123.213 E2.53432
G1 X44.958 Y123.965 E2.58420
G1 X44.958 Y130.965 E2.91217
G1 X45.712 Y131.408 E2.95312
G1 X45.712 Y124.717 E3.26659
G1 X46.466 Y125.468 E3.31647
G1 X46.466 Y131.696 E3.60823
G1 X46.999 Y131.897 E3.63492
G1 X47.220 Y131.940 E3.64547
G1 X47.220 Y126.220 E3.91345
G1 X47.548 Y126.549 E3.93521
G1 X47.974 Y126.837 E3.95931
G1 X47.974 Y132.087 E4.20527
G1 X48.331 Y132.157 E4.22233
G1 X48.728 Y132.166 E4.24092
G1 X48.728 Y127.114 E4.47763
G1 X49.100 Y127.162 E4.49521
G1 X49.482 Y127.148 E4.51311
G1 X49.482 Y132.184 E4.74903
G1 X49.689 Y132.189 E4.75874
G1 X50.236 Y132.109 E4.78463
G1 X50.236 Y126.928 E5.02734
G1 X50.990 Y126.172 E5.07737
