; generated by Slic3r 1.3.0 on 2022-06-02 at 22:43:45

; external perimeters extrusion width = 0.44mm (1.67mm^3/s)
; perimeters extrusion width = 0.56mm (3.10mm^3/s)
; infill extrusion width = 0.50mm (5.48mm^3/s)
; solid infill extrusion width = 0.56mm (6.20mm^3/s)
; top infill extrusion width = 0.56mm (5.17mm^3/s)
; support material extrusion width = 0.44mm (4.76mm^3/s)

M107
M190 S50 ; set bed temperature and wait for it to be reached
M104 S205 ; set temperature
G28 ; home all axes
G1 Z5 F5000 ; lift nozzle

; Filament gcode

M109 S205 ; set temperature and wait for it to be reached
G21 ; set units to millimeters
G90 ; use absolute coordinates
M82 ; use absolute distances for extrusion
G92 E0
G1 E-1.00000 F1800.00000
G92 E0
G1 Z0.850 F7800.000
G1 X76.958 Y89.565 F7800.000
G1 E1.00000 F1800.00000
G1 F1080
G1 X78.756 Y88.141 E1.20854
G1 X81.377 Y87.364 E1.45714
G1 X82.436 Y87.287 E1.55373
G1 X94.622 Y86.879 E2.66237
G1 X104.659 Y86.878 E3.57508
G1 X117.873 Y87.304 E4.77717
G1 X118.623 Y87.364 E4.84562
G1 X120.843 Y87.941 E5.05416
G1 X122.733 Y89.240 E5.26270
G1 X124.067 Y91.106 E5.47124
G1 X124.714 Y93.762 E5.71985
G1 X124.714 Y106.238 E6.85431
G1 X124.247 Y108.484 E7.06285
G1 X123.042 Y110.435 E7.27139
G1 X121.244 Y111.859 E7.47993
G1 X118.623 Y112.636 E7.72854
G1 X117.873 Y112.696 E7.79698
G1 X97.666 Y113.123 E9.63475
G1 X94.843 Y113.125 E9.89143
G1 X82.127 Y112.696 E11.04835
G1 X81.377 Y112.636 E11.11680
G1 X79.157 Y112.059 E11.32534
G1 X77.267 Y110.760 E11.53388
G1 X75.933 Y108.894 E11.74242
G1 X75.286 Y106.238 E11.99102
G1 X75.286 Y93.762 E13.12549
G1 X75.753 Y91.516 E13.33403
G1 X76.926 Y89.616 E13.53712
G1 E12.53712 F1800.00000
G92 E0
G1 X81.902 Y105.860 F7800.000
G1 E1.00000 F1800.00000
G1 F1080
G1 X118.098 Y105.860 E2.92183
G1 X118.098 Y105.127 E2.96072
G1 X81.902 Y105.127 E4.88256
G1 X81.902 Y104.395 E4.92145
G1 X118.098 Y104.395 E6.84328
G1 X118.098 Y103.662 E6.88217
G1 X81.902 Y103.662 E8.80400
G1 X81.902 Y102.930 E8.84289
G1 X118.098 Y102.930 E10.76473
G1 X118.098 Y102.197 E10.80362
G1 X81.902 Y102.197 E12.72545
G1 X81.902 Y101.465 E12.76434
G1 X118.098 Y101.465 E14.68617
G1 X118.098 Y100.732 E14.72507
G1 X81.902 Y100.732 E16.64690
G1 X81.902 Y100.000 E16.68579
G1 X118.098 Y100.000 E18.60762
G1 X118.098 Y99.268 E18.64651
G1 X81.902 Y99.268 E20.56835
G1 X81.902 Y98.535 E20.60724
G1 X118.098 Y98.535 E22.52907
G1 X118.098 Y97.803 E22.56796
G1 X81.902 Y97.803 E24.48979
G1 X81.902 Y97.070 E24.52868
G1 X118.098 Y97.070 E26.45052
G1 X118.098 Y96.338 E26.48941
G1 X81.902 Y96.338 E28.41124
G1 X81.902 Y95.605 E28.45013
G1 X118.098 Y95.605 E30.37196
G1 X118.098 Y94.873 E30.41085
G1 X81.902 Y94.873 E32.33269
G1 X81.902 Y94.140 E32.37158
G1 X118.098 Y94.140 E34.29341
M106 S255
M104 S200 ; set temperature
M140 S45 ; set bed temperature
G1 E33.29341 F1800.00000
G92 E0
G1 Z1.150 F7800.000
G1 X117.342 Y106.092 F7800.000
G1 E1.00000 F1800.00000
G1 F1214.72
G1 X117.342 Y93.908 E1.57084
G1 X116.588 Y93.908 E1.60616
G1 X116.588 Y106.092 E2.17700
G1 X115.834 Y106.092 E2.21233
G1 X115.834 Y93.908 E2.78317
G1 X115.080 Y93.908 E2.81849
G1 X115.080 Y106.092 E3.38933
G1 X114.326 Y106.092 E3.42466
G1 X114.326 Y93.908 E3.99549
G1 X113.572 Y93.908 E4.03082
G1 X113.572 Y106.092 E4.60166
G1 X112.818 Y106.092 E4.63698
G1 X112.818 Y93.908 E5.20782
G1 X112.064 Y93.908 E5.24315
G1 X112.064 Y106.092 E5.81399
G1 X111.310 Y106.092 E5.84931
G1 X111.310 Y93.908 E6.42015
G1 X110.556 Y93.908 E6.45547
G1 X110.556 Y106.092 E7.02631
G1 X109.802 Y106.092 E7.06164
G1 X109.802 Y93.908 E7.63248
G1 X109.048 Y93.908 E7.66780
G1 X109.048 Y106.092 E8.23864
G1 X108.294 Y106.092 E8.27397
G1 X108.294 Y93.908 E8.84480
G1 X107.540 Y93.908 E8.88013
G1 X107.540 Y106.092 E9.45097
G1 X106.786 Y106.092 E9.48629
G1 X106.786 Y93.908 E10.05713
G1 X106.032 Y93.908 E10.09246
G1 X106.032 Y106.092 E10.66330
G1 X105.278 Y106.092 E10.69862
G1 X105.278 Y93.908 E11.26946
G1 X104.524 Y93.908 E11.30478
G1 X104.524 Y106.092 E11.87562
G1 X103.770 Y106.092 E11.91095
G1 X103.770 Y93.908 E12.48179
G1 X103.016 Y93.908 E12.51711
G1 X103.016 Y106.092 E13.08795
G1 X102.262 Y106.092 E13.12328
G1 X102.262 Y93.908 E13.69412
G1 X101.508 Y93.908 E13.72944
G1 X101.508 Y106.092 E14.30028
G1 X100.754 Y106.092 E14.33560
G1 X100.754 Y93.908 E14.90644
G1 X100.000 Y93.908 E14.94177
G1 X100.000 Y106.092 E15.51261
G1 X99.246 Y106.092 E15.54793
G1 X99.246 Y93.908 E16.11877
G1 X98.492 Y93.908 E16.15409
G1 X98.492 Y106.092 E16.72493
G1 X97.738 Y106.092 E16.76026
G1 X97.738 Y93.908 E17.33110
G1 X96.984 Y93.908 E17.36642
G1 X96.984 Y106.092 E17.93726
G1 X96.230 Y106.092 E17.97259
G1 X96.230 Y93.908 E18.54343
G1 X95.476 Y93.908 E18.57875
G1 X95.476 Y106.092 E19.14959
G1 X94.722 Y106.092 E19.18491
G1 X94.722 Y93.908 E19.75575
G1 X93.968 Y93.908 E19.79108
G1 X93.968 Y106.092 E20.36192
G1 X93.214 Y106.092 E20.39724
G1 X93.214 Y93.908 E20.96808
G1 X92.460 Y93.908 E21.00341
G1 X92.460 Y106.092 E21.57424
G1 X91.706 Y106.092 E21.60957
G1 X91.706 Y93.908 E22.18041
G1 X90.952 Y93.908 E22.21573
G1 X90.952 Y106.092 E22.78657
G1 X90.198 Y106.092 E22.82190
G1 X90.198 Y93.908 E23.39274
G1 X89.444 Y93.908 E23.42806
G1 X89.444 Y106.092 E23.99890
G1 X88.690 Y106.092 E24.03422
G1 X88.690 Y93.908 E24.60506
G1 X87.936 Y93.908 E24.64039
G1 X87.936 Y106.092 E25.21123
G1 X87.182 Y106.092 E25.24655
G1 X87.182 Y93.908 E25.81739
G1 X86.428 Y93.908 E25.85272
G1 X86.428 Y106.092 E26.42355
G1 X85.674 Y106.092 E26.45888
G1 X85.674 Y93.908 E27.02972
G1 X84.920 Y93.908 E27.06504
G1 X84.920 Y106.092 E27.63588
G1 X84.166 Y106.092 E27.67121
G1 X84.166 Y93.908 E28.24205
G1 X83.412 Y93.908 E28.27737
G1 X83.412 Y106.092 E28.84821
G1 X82.658 Y106.092 E28.88353
G1 X82.658 Y93.908 E29.45437
G1 E28.45437 F1800.00000
G92 E0
G1 Z1.450 F7800.000
G1 X81.908 Y106.032 F7800.000
G1 E1.00000 F1800.00000
G1 F1254.4
G1 X118.092 Y106.032 E2.69522
G1 X118.092 Y105.278 E2.73055
G1 X81.908 Y105.278 E4.42577
G1 X81.908 Y104.524 E4.46110
G1 X118.092 Y104.524 E6.15632
G1 X118.092 Y103.770 E6.19164
G1 X81.908 Y103.770 E7.88687
G1 X81.908 Y103.016 E7.92219
G1 X118.092 Y103.016 E9.61741
G1 X118.092 Y102.262 E9.65274
G1 X81.908 Y102.262 E11.34796
G1 X81.908 Y101.508 E11.38329
G1 X118.092 Y101.508 E13.07851
G1 X118.092 Y100.754 E13.11383
G1 X81.908 Y100.754 E14.80906
G1 X81.908 Y100.000 E14.84438
G1 X118.092 Y100.000 E16.53960
G1 X118.092 Y99.246 E16.57493
G1 X81.908 Y99.246 E18.27015
G1 X81.908 Y98.492 E18.30548
G1 X118.092 Y98.492 E20.00070
G1 X118.092 Y97.738 E20.03602
G1 X81.908 Y97.738 E21.73125
G1 X81.908 Y96.984 E21.76657
G1 X118.092 Y96.984 E23.46180
G1 X118.092 Y96.230 E23.49712
G1 X81.908 Y96.230 E25.19234
G1 X81.908 Y95.476 E25.22767
G1 X118.092 Y95.476 E26.92289
G1 X118.092 Y94.722 E26.95822
G1 X81.908 Y94.722 E28.65344
G1 X81.908 Y93.968 E28.68876
G1 X118.092 Y93.968 E30.38399
G1 E29.38399 F1800.00000
G92 E0
G1 Z1.850 F7800.000
G1 X104.230 Y94.340 F7800.000
G1 E1.00000 F1800.00000
G1 F600
G1 X104.230 Y93.500 E1.04947
G1 X101.270 Y93.500 E1.22381
G1 X101.270 Y94.340 E1.27328
G1 X101.305 Y94.340 E1.27532
G1 X101.305 Y94.560 E1.28828
G1 X101.463 Y94.560 E1.29763
G1 X101.463 Y94.340 E1.31059
G1 X104.230 Y94.340 E1.47353
G1 X97.530 Y94.340 F7800.000
G1 F600
G1 X97.530 Y93.500 E1.52301
G1 X94.843 Y93.500 E1.68124
G1 X94.843 Y94.340 E1.73071
G1 X95.305 Y94.340 E1.75788
G1 X95.305 Y94.560 E1.77083
G1 X95.463 Y94.560 E1.78019
G1 X95.463 Y94.340 E1.79314
G1 X97.530 Y94.340 E1.91486
G1 E0.91486 F1800.00000
G92 E0
G1 X95.463 Y105.660 F7800.000
G1 E1.00000 F1800.00000
G1 F600
G1 X95.463 Y105.440 E1.01296
G1 X95.305 Y105.440 E1.02231
G1 X95.305 Y105.660 E1.03527
G1 X94.843 Y105.660 E1.06243
G1 X94.843 Y106.500 E1.11190
G1 X97.530 Y106.500 E1.27014
G1 X97.530 Y105.660 E1.31961
G1 X95.463 Y105.660 E1.44133
G1 E0.44133 F1800.00000
G92 E0
G1 X101.463 Y105.660 F7800.000
G1 E1.00000 F1800.00000
G1 F600
G1 X101.463 Y105.440 E1.01296
G1 X101.305 Y105.440 E1.02231
G1 X101.305 Y105.660 E1.03527
G1 X101.270 Y105.660 E1.03731
G1 X101.270 Y106.010 E1.05792
G1 X104.230 Y106.010 E1.23226
G1 X104.230 Y105.660 E1.25287
G1 X101.463 Y105.660 E1.41581
G1 E0.41581 F1800.00000
G92 E0
G1 Z2.250 F7800.000
G1 X116.102 Y104.102 F7800.000
G1 E1.00000 F1800.00000
M106 S255

G1 F3600
G1 X83.898 Y104.102 E2.68246
G1 X83.898 Y95.898 E3.11105
G1 X116.102 Y95.898 E4.79351
G1 X116.102 Y104.042 E5.21896
M106 S255

G1 X116.436 Y104.436 F7800.000
M106 S255

G1 F3600
G1 X83.564 Y104.436 E6.93633
G1 X83.564 Y95.564 E7.39983
G1 X116.436 Y95.564 E9.11721
G1 X116.436 Y104.376 E9.57758
M106 S255

G1 X116.780 Y104.780 F7800.000
M106 S255

G1 F3600
G1 X83.220 Y104.780 E11.33092
G1 X83.220 Y95.220 E11.83038
G1 X116.780 Y95.220 E13.58372
G1 X116.780 Y104.720 E14.08004
M106 S255

G1 E13.08004 F1800.00000
G92 E0
G1 X115.862 Y96.443 F7800.000
G1 E1.00000 F1800.00000
M106 S255

G1 F3600
G1 X115.557 Y96.138 E1.02257
G1 X114.920 Y96.138 E1.05587
G1 X115.862 Y97.080 E1.12552
G1 X115.862 Y97.716 E1.15882
G1 X114.284 Y96.138 E1.27557
G1 X113.647 Y96.138 E1.30887
G1 X115.862 Y98.353 E1.47271
G1 X115.862 Y98.990 E1.50601
G1 X113.010 Y96.138 E1.71694
G1 X112.374 Y96.138 E1.75024
G1 X115.862 Y99.626 E2.00826
G1 X115.862 Y100.263 E2.04156
G1 X111.737 Y96.138 E2.34668
G1 X111.100 Y96.138 E2.37998
G1 X115.862 Y100.900 E2.73218
G1 X115.862 Y101.537 E2.76548
G1 X110.463 Y96.138 E3.16478
G1 X109.827 Y96.138 E3.19808
G1 X115.862 Y102.173 E3.64447
G1 X115.862 Y102.810 E3.67777
G1 X109.190 Y96.138 E4.17125
G1 X108.553 Y96.138 E4.20455
G1 X115.862 Y103.447 E4.74512
G1 X115.862 Y103.862 E4.76685
G1 X115.641 Y103.862 E4.77842
G1 X107.917 Y96.138 E5.34972
G1 X107.280 Y96.138 E5.38302
G1 X115.004 Y103.862 E5.95432
G1 X114.368 Y103.862 E5.98762
G1 X106.643 Y96.138 E6.55892
G1 X106.007 Y96.138 E6.59222
G1 X113.731 Y103.862 E7.16353
G1 X113.094 Y103.862 E7.19683
G1 X105.370 Y96.138 E7.76813
G1 X104.733 Y96.138 E7.80143
G1 X112.457 Y103.862 E8.37273
G1 X111.821 Y103.862 E8.40603
G1 X104.097 Y96.138 E8.97733
G1 X103.460 Y96.138 E9.01063
G1 X111.184 Y103.862 E9.58194
G1 X110.547 Y103.862 E9.61523
G1 X102.823 Y96.138 E10.18654
G1 X102.186 Y96.138 E10.21984
G1 X109.911 Y103.862 E10.79114
G1 X109.274 Y103.862 E10.82444
G1 X101.550 Y96.138 E11.39574
G1 X100.913 Y96.138 E11.42904
G1 X108.637 Y103.862 E12.00034
G1 X108.001 Y103.862 E12.03364
G1 X100.276 Y96.138 E12.60495
G1 X99.640 Y96.138 E12.63824
G1 X107.364 Y103.862 E13.20955
G1 X106.727 Y103.862 E13.24285
G1 X99.003 Y96.138 E13.81415
G1 X98.366 Y96.138 E13.84745
G1 X106.091 Y103.862 E14.41875
G1 X105.454 Y103.862 E14.45205
G1 X97.730 Y96.138 E15.02335
G1 X97.093 Y96.138 E15.05665
G1 X104.817 Y103.862 E15.62796
G1 X104.180 Y103.862 E15.66126
G1 X96.456 Y96.138 E16.23256
G1 X95.820 Y96.138 E16.26586
G1 X103.544 Y103.862 E16.83716
G1 X102.907 Y103.862 E16.87046
G1 X95.183 Y96.138 E17.44176
G1 X94.546 Y96.138 E17.47506
G1 X102.270 Y103.862 E18.04637
G1 X101.634 Y103.862 E18.07966
G1 X93.909 Y96.138 E18.65097
G1 X93.273 Y96.138 E18.68427
G1 X100.997 Y103.862 E19.25557
G1 X100.360 Y103.862 E19.28887
G1 X92.636 Y96.138 E19.86017
G1 X91.999 Y96.138 E19.89347
G1 X99.724 Y103.862 E20.46477
G1 X99.087 Y103.862 E20.49807
G1 X91.363 Y96.138 E21.06938
G1 X90.726 Y96.138 E21.10267
G1 X98.450 Y103.862 E21.67398
G1 X97.814 Y103.862 E21.70728
G1 X90.089 Y96.138 E22.27858
G1 X89.453 Y96.138 E22.31188
G1 X97.177 Y103.862 E22.88318
G1 X96.540 Y103.862 E22.91648
G1 X88.816 Y96.138 E23.48778
G1 X88.179 Y96.138 E23.52108
G1 X95.903 Y103.862 E24.09239
G1 X95.267 Y103.862 E24.12569
G1 X87.543 Y96.138 E24.69699
G1 X86.906 Y96.138 E24.73029
G1 X94.630 Y103.862 E25.30159
G1 X93.993 Y103.862 E25.33489
G1 X86.269 Y96.138 E25.90619
G1 X85.632 Y96.138 E25.93949
G1 X93.357 Y103.862 E26.51079
G1 X92.720 Y103.862 E26.54409
G1 X84.996 Y96.138 E27.11540
G1 X84.359 Y96.138 E27.14870
G1 X92.083 Y103.862 E27.72000
G1 X91.447 Y103.862 E27.75330
G1 X84.138 Y96.553 E28.29387
G1 X84.138 Y97.190 E28.32717
G1 X90.810 Y103.862 E28.82065
G1 X90.173 Y103.862 E28.85395
G1 X84.138 Y97.827 E29.30034
G1 X84.138 Y98.463 E29.33364
G1 X89.537 Y103.862 E29.73294
G1 X88.900 Y103.862 E29.76624
G1 X84.138 Y99.100 E30.11845
G1 X84.138 Y99.737 E30.15175
G1 X88.263 Y103.862 E30.45686
G1 X87.626 Y103.862 E30.49016
G1 X84.138 Y100.374 E30.74819
G1 X84.138 Y101.010 E30.78148
G1 X86.990 Y103.862 E30.99242
G1 X86.353 Y103.862 E31.02572
G1 X84.138 Y101.647 E31.18956
G1 X84.138 Y102.284 E31.22286
G1 X85.716 Y103.862 E31.33961
G1 X85.080 Y103.862 E31.37291
G1 X84.138 Y102.920 E31.44257
G1 X84.138 Y103.557 E31.47587
G1 X84.443 Y103.862 E31.49842
M106 S255

G1 E30.49842 F1800.00000
G92 E0
G1 Z2.250 F7800.000
G1 X95.463 Y105.660 F7800.000
G1 E1.00000 F1800.00000
G1 F1856.21
G1 X94.843 Y105.660 E1.03652
G1 X94.843 Y106.500 E1.08599
G1 X97.530 Y106.500 E1.24422
G1 X97.530 Y105.660 E1.29369
G1 X95.463 Y105.660 E1.41541
G1 E0.41541 F1800.00000
G92 E0
G1 X101.463 Y105.660 F7800.000
G1 E1.00000 F1800.00000
G1 F1856.21
G1 X101.050 Y105.660 E1.02435
G1 X101.050 Y106.230 E1.05792
G1 X104.450 Y106.230 E1.25817
G1 X104.450 Y105.660 E1.29174
G1 X101.463 Y105.660 E1.46764
G1 E0.46764 F1800.00000
G92 E0
G1 X104.450 Y94.340 F7800.000
G1 E1.00000 F1800.00000
G1 F1856.21
G1 X104.450 Y93.500 E1.04947
G1 X101.050 Y93.500 E1.24972
G1 X101.050 Y94.340 E1.29920
G1 X104.450 Y94.340 E1.49945
G1 X97.530 Y94.340 F7800.000
G1 F1856.21
G1 X97.530 Y93.500 E1.54892
G1 X94.843 Y93.500 E1.70715
G1 X94.843 Y94.340 E1.75663
G1 X97.530 Y94.340 E1.91486
G1 E0.91486 F1800.00000
G92 E0
G1 Z2.450 F7800.000
G1 X115.806 Y103.806 F7800.000
G1 E1.00000 F1800.00000
G1 F928.107
G1 X84.194 Y103.806 E2.35916
G1 X84.194 Y96.194 E2.68642
G1 X115.806 Y96.194 E4.04558
G1 X115.806 Y103.746 E4.37027
G1 X116.323 Y104.323 F7800.000
G1 F928.107
G1 X83.677 Y104.323 E5.77388
G1 X83.677 Y95.677 E6.14562
G1 X116.323 Y95.677 E7.54924
G1 X116.323 Y104.263 E7.91839
G1 X116.780 Y104.780 F7800.000
G1 F1260
G1 X83.220 Y104.780 E9.02645
G1 X83.220 Y95.220 E9.34209
G1 X116.780 Y95.220 E10.45015
G1 X116.780 Y104.720 E10.76382
G1 X116.382 Y104.743 F7800.000
G1 X115.088 Y103.490 F7800.000
G1 F1856.21
G1 X115.490 Y103.088 E10.78868
G1 X115.490 Y102.344 E10.82114
G1 X114.344 Y103.490 E10.89192
G1 X113.601 Y103.490 E10.92439
G1 X115.490 Y101.601 E11.04108
G1 X115.490 Y100.858 E11.07354
G1 X112.858 Y103.490 E11.23615
G1 X112.115 Y103.490 E11.26861
G1 X115.490 Y100.115 E11.47713
G1 X115.490 Y99.372 E11.50960
G1 X111.372 Y103.490 E11.76403
G1 X110.629 Y103.490 E11.79650
G1 X115.490 Y98.629 E12.09685
G1 X115.490 Y97.886 E12.12932
G1 X109.886 Y103.490 E12.47558
G1 X109.143 Y103.490 E12.50805
G1 X115.490 Y97.143 E12.90023
G1 X115.490 Y96.510 E12.92787
G1 X115.379 Y96.510 E12.93269
G1 X108.400 Y103.490 E13.36396
G1 X107.657 Y103.490 E13.39643
G1 X114.636 Y96.510 E13.82770
G1 X113.893 Y96.510 E13.86017
G1 X106.913 Y103.490 E14.29144
G1 X106.170 Y103.490 E14.32390
G1 X113.150 Y96.510 E14.75517
G1 X112.407 Y96.510 E14.78764
G1 X105.427 Y103.490 E15.21891
G1 X104.684 Y103.490 E15.25138
G1 X111.664 Y96.510 E15.68265
G1 X110.921 Y96.510 E15.71511
G1 X103.941 Y103.490 E16.14638
G1 X103.198 Y103.490 E16.17885
G1 X110.178 Y96.510 E16.61012
G1 X109.435 Y96.510 E16.64259
G1 X102.455 Y103.490 E17.07386
G1 X101.712 Y103.490 E17.10633
G1 X108.692 Y96.510 E17.53760
G1 X107.948 Y96.510 E17.57006
G1 X100.969 Y103.490 E18.00133
G1 X100.226 Y103.490 E18.03380
G1 X107.205 Y96.510 E18.46507
G1 X106.462 Y96.510 E18.49754
G1 X99.483 Y103.490 E18.92881
G1 X98.739 Y103.490 E18.96127
G1 X105.719 Y96.510 E19.39254
G1 X104.976 Y96.510 E19.42501
G1 X97.996 Y103.490 E19.85628
G1 X97.253 Y103.490 E19.88875
