; generated by Slic3r 1.3.0 on 2022-06-04 at 14:54:08

; external perimeters extrusion width = 0.44mm (1.67mm^3/s)
; perimeters extrusion width = 0.56mm (3.10mm^3/s)
; infill extrusion width = 0.50mm (5.48mm^3/s)
; solid infill extrusion width = 0.56mm (6.20mm^3/s)
; top infill extrusion width = 0.56mm (5.17mm^3/s)
; support material extrusion width = 0.44mm (4.76mm^3/s)

M107
M190 S50 ; set bed temperature and wait for it to be reached
M104 S205 ; set temperature
G28 ; home all axes
G1 Z5 F5000 ; lift nozzle

; Filament gcode

M109 S205 ; set temperature and wait for it to be reached
G21 ; set units to millimeters
G90 ; use absolute coordinates
M82 ; use absolute distances for extrusion
G92 E0
G1 E-1.00000 F1800.00000
G92 E0
G1 Z5.250 F7800.000
G1 X81.246 Y89.780 F7800.000
G1 E1.00000 F1800.00000
G1 F1080
G1 X82.964 Y88.261 E1.20854
G1 X85.880 Y87.305 E1.48762
G1 X90.796 Y86.898 E1.93611
G1 X91.343 Y86.875 E1.98594
G1 X98.912 Y86.878 E2.67415
G1 X113.754 Y87.285 E4.02423
G1 X116.001 Y87.744 E4.23277
G1 X117.957 Y88.942 E4.44132
G1 X119.387 Y90.734 E4.64986
G1 X119.871 Y91.855 E4.76082
G1 X120.214 Y93.762 E4.93702
G1 X120.219 Y93.934 E4.95269
G1 X120.223 Y105.860 E6.03707
G1 X120.214 Y106.238 E6.07149
G1 X119.851 Y108.206 E6.25342
G1 X118.754 Y110.220 E6.46196
G1 X117.036 Y111.739 E6.67050
G1 X114.903 Y112.582 E6.87905
G1 X113.708 Y112.716 E6.98841
G1 X93.836 Y113.123 E8.79572
G1 X91.343 Y113.125 E9.02238
G1 X90.796 Y113.102 E9.07222
G1 X85.880 Y112.695 E9.52071
G1 X83.662 Y112.112 E9.72925
G1 X81.775 Y110.808 E9.93779
G1 X80.149 Y108.205 E10.21687
G1 X79.786 Y106.238 E10.39877
G1 X79.786 Y93.762 E11.53324
G1 X80.149 Y91.795 E11.71515
G1 X81.217 Y89.833 E11.91823
G1 E10.91823 F1800.00000
G92 E0
G1 X86.402 Y105.860 F7800.000
G1 E1.00000 F1800.00000
G1 F1080
G1 X113.598 Y105.860 E2.44397
G1 X113.598 Y105.127 E2.48286
G1 X86.402 Y105.127 E3.92683
G1 X86.402 Y104.395 E3.96572
G1 X113.598 Y104.395 E5.40968
G1 X113.598 Y103.662 E5.44857
G1 X86.402 Y103.662 E6.89254
G1 X86.402 Y102.930 E6.93143
G1 X113.598 Y102.930 E8.37540
G1 X113.598 Y102.197 E8.41429
G1 X86.402 Y102.197 E9.85826
G1 X86.402 Y101.465 E9.89715
G1 X113.598 Y101.465 E11.34112
G1 X113.598 Y100.732 E11.38001
G1 X86.402 Y100.732 E12.82397
G1 X86.402 Y100.000 E12.86286
G1 X113.598 Y100.000 E14.30683
G1 X113.598 Y99.268 E14.34572
G1 X86.402 Y99.268 E15.78969
G1 X86.402 Y98.535 E15.82858
G1 X113.598 Y98.535 E17.27255
G1 X113.598 Y97.803 E17.31144
G1 X86.402 Y97.803 E18.75541
G1 X86.402 Y97.070 E18.79430
G1 X113.598 Y97.070 E20.23826
G1 X113.598 Y96.338 E20.27715
G1 X86.402 Y96.338 E21.72112
G1 X86.402 Y95.605 E21.76001
G1 X113.598 Y95.605 E23.20398
G1 X113.598 Y94.873 E23.24287
G1 X86.402 Y94.873 E24.68684
G1 X86.402 Y94.140 E24.72573
G1 X113.598 Y94.140 E26.16970
M106 S255
M104 S200 ; set temperature
M140 S45 ; set bed temperature
G1 E25.16970 F1800.00000
G92 E0
G1 Z5.550 F7800.000
G1 X113.572 Y106.092 F7800.000
G1 E1.00000 F1800.00000
G1 F955.947
G1 X113.572 Y93.908 E1.57084
G1 X112.818 Y93.908 E1.60616
G1 X112.818 Y106.092 E2.17700
G1 X112.064 Y106.092 E2.21233
G1 X112.064 Y93.908 E2.78317
G1 X111.310 Y93.908 E2.81849
G1 X111.310 Y106.092 E3.38933
G1 X110.556 Y106.092 E3.42466
G1 X110.556 Y93.908 E3.99549
G1 X109.802 Y93.908 E4.03082
G1 X109.802 Y106.092 E4.60166
G1 X109.048 Y106.092 E4.63698
G1 X109.048 Y93.908 E5.20782
G1 X108.294 Y93.908 E5.24315
G1 X108.294 Y106.092 E5.81399
G1 X107.540 Y106.092 E5.84931
G1 X107.540 Y93.908 E6.42015
G1 X106.786 Y93.908 E6.45547
G1 X106.786 Y106.092 E7.02631
G1 X106.032 Y106.092 E7.06164
G1 X106.032 Y93.908 E7.63248
G1 X105.278 Y93.908 E7.66780
G1 X105.278 Y106.092 E8.23864
G1 X104.524 Y106.092 E8.27397
G1 X104.524 Y93.908 E8.84480
G1 X103.770 Y93.908 E8.88013
G1 X103.770 Y106.092 E9.45097
G1 X103.016 Y106.092 E9.48629
G1 X103.016 Y93.908 E10.05713
G1 X102.262 Y93.908 E10.09246
G1 X102.262 Y106.092 E10.66330
G1 X101.508 Y106.092 E10.69862
G1 X101.508 Y93.908 E11.26946
G1 X100.754 Y93.908 E11.30478
G1 X100.754 Y106.092 E11.87562
G1 X100.000 Y106.092 E11.91095
G1 X100.000 Y93.908 E12.48179
G1 X99.246 Y93.908 E12.51711
G1 X99.246 Y106.092 E13.08795
G1 X98.492 Y106.092 E13.12328
G1 X98.492 Y93.908 E13.69412
G1 X97.738 Y93.908 E13.72944
G1 X97.738 Y106.092 E14.30028
G1 X96.984 Y106.092 E14.33560
G1 X96.984 Y93.908 E14.90644
G1 X96.230 Y93.908 E14.94177
G1 X96.230 Y106.092 E15.51261
G1 X95.476 Y106.092 E15.54793
G1 X95.476 Y93.908 E16.11877
G1 X94.722 Y93.908 E16.15409
G1 X94.722 Y106.092 E16.72493
G1 X93.968 Y106.092 E16.76026
G1 X93.968 Y93.908 E17.33110
G1 X93.214 Y93.908 E17.36642
G1 X93.214 Y106.092 E17.93726
G1 X92.460 Y106.092 E17.97259
G1 X92.460 Y93.908 E18.54343
G1 X91.706 Y93.908 E18.57875
G1 X91.706 Y106.092 E19.14959
G1 X90.952 Y106.092 E19.18491
G1 X90.952 Y93.908 E19.75575
G1 X90.198 Y93.908 E19.79108
G1 X90.198 Y106.092 E20.36192
G1 X89.444 Y106.092 E20.39724
G1 X89.444 Y93.908 E20.96808
G1 X88.690 Y93.908 E21.00341
G1 X88.690 Y106.092 E21.57424
G1 X87.936 Y106.092 E21.60957
G1 X87.936 Y93.908 E22.18041
G1 X87.182 Y93.908 E22.21573
G1 X87.182 Y106.092 E22.78657
G1 X86.428 Y106.092 E22.82190
G1 X86.428 Y93.908 E23.39274
G1 E22.39274 F1800.00000
G92 E0
G1 Z5.850 F7800.000
G1 X86.408 Y106.032 F7800.000
G1 E1.00000 F1800.00000
G1 F948.404
G1 X113.592 Y106.032 E2.27358
G1 X113.592 Y105.278 E2.30890
G1 X86.408 Y105.278 E3.58248
G1 X86.408 Y104.524 E3.61781
G1 X113.592 Y104.524 E4.89139
G1 X113.592 Y103.770 E4.92671
G1 X86.408 Y103.770 E6.20029
G1 X86.408 Y103.016 E6.23562
G1 X113.592 Y103.016 E7.50919
G1 X113.592 Y102.262 E7.54452
G1 X86.408 Y102.262 E8.81810
G1 X86.408 Y101.508 E8.85342
G1 X113.592 Y101.508 E10.12700
G1 X113.592 Y100.754 E10.16233
G1 X86.408 Y100.754 E11.43591
G1 X86.408 Y100.000 E11.47123
G1 X113.592 Y100.000 E12.74481
G1 X113.592 Y99.246 E12.78013
G1 X86.408 Y99.246 E14.05371
G1 X86.408 Y98.492 E14.08904
G1 X113.592 Y98.492 E15.36262
G1 X113.592 Y97.738 E15.39794
G1 X86.408 Y97.738 E16.67152
G1 X86.408 Y96.984 E16.70685
G1 X113.592 Y96.984 E17.98042
G1 X113.592 Y96.230 E18.01575
G1 X86.408 Y96.230 E19.28933
G1 X86.408 Y95.476 E19.32465
G1 X113.592 Y95.476 E20.59823
G1 X113.592 Y94.722 E20.63356
G1 X86.408 Y94.722 E21.90714
G1 X86.408 Y93.968 E21.94246
G1 X113.592 Y93.968 E23.21604
G1 E22.21604 F1800.00000
G92 E0
G1 Z6.050 F7800.000
G1 X98.290 Y94.340 F7800.000
G1 E1.00000 F1800.00000
G1 F600
G1 X98.290 Y93.500 E1.02773
G1 X97.343 Y93.500 E1.05899
G1 X97.343 Y94.340 E1.08672
G1 X97.752 Y94.340 E1.10021
G1 X97.752 Y94.560 E1.10747
G1 X97.963 Y94.560 E1.11446
G1 X97.963 Y94.340 E1.12172
G1 X98.290 Y94.340 E1.13251
G1 X93.700 Y94.340 F7800.000
G1 F600
G1 X93.700 Y93.500 E1.16024
G1 X91.343 Y93.500 E1.23805
G1 X91.343 Y94.340 E1.26579
G1 X91.752 Y94.340 E1.27927
G1 X91.752 Y94.560 E1.28654
G1 X91.963 Y94.560 E1.29352
G1 X91.963 Y94.340 E1.30079
G1 X93.700 Y94.340 E1.35813
G1 E0.35813 F1800.00000
G92 E0
G1 X91.963 Y105.660 F7800.000
G1 E1.00000 F1800.00000
G1 F600
G1 X91.963 Y105.440 E1.00726
G1 X91.752 Y105.440 E1.01425
G1 X91.752 Y105.660 E1.02152
G1 X91.343 Y105.660 E1.03500
G1 X91.343 Y106.500 E1.06273
G1 X93.700 Y106.500 E1.14055
G1 X93.700 Y105.660 E1.16828
G1 X91.963 Y105.660 E1.22563
G1 E0.22563 F1800.00000
G92 E0
G1 X97.963 Y105.570 F7800.000
G1 E1.00000 F1800.00000
G1 F600
G1 X97.963 Y105.440 E1.00429
G1 X97.752 Y105.440 E1.01128
G1 X97.752 Y105.570 E1.01557
G1 X97.963 Y105.570 E1.02256
G1 E0.02256 F1800.00000
G92 E0
G1 Z6.450 F7800.000
G1 X97.963 Y105.660 F7800.000
G1 E1.00000 F1800.00000
G1 F600
G1 X97.963 Y105.440 E1.01296
G1 X97.752 Y105.440 E1.02542
G1 X97.752 Y105.660 E1.03838
G1 X97.343 Y105.660 E1.06243
G1 X97.343 Y105.790 E1.07009
G1 X98.510 Y105.790 E1.13880
G1 X98.510 Y105.660 E1.14645
G1 X97.963 Y105.660 E1.17865
G1 E0.17865 F1800.00000
G92 E0
G1 X91.963 Y105.660 F7800.000
G1 E1.00000 F1800.00000
G1 F600
G1 X91.963 Y105.440 E1.01296
G1 X91.752 Y105.440 E1.02542
G1 X91.752 Y105.660 E1.03838
G1 X91.343 Y105.660 E1.06243
G1 X91.343 Y106.500 E1.11190
G1 X93.700 Y106.500 E1.25071
G1 X93.700 Y105.660 E1.30018
G1 X91.963 Y105.660 E1.40248
G1 E0.40248 F1800.00000
G92 E0
G1 X93.700 Y94.340 F7800.000
G1 E1.00000 F1800.00000
G1 F600
G1 X93.700 Y93.500 E1.04947
G1 X91.343 Y93.500 E1.18828
G1 X91.343 Y94.340 E1.23775
G1 X91.752 Y94.340 E1.26181
G1 X91.752 Y94.560 E1.27476
G1 X91.963 Y94.560 E1.28723
G1 X91.963 Y94.340 E1.30018
G1 X93.700 Y94.340 E1.40248
G1 X98.510 Y94.340 F7800.000
G1 F600
G1 X98.510 Y93.500 E1.45195
G1 X97.343 Y93.500 E1.52066
G1 X97.343 Y94.340 E1.57013
G1 X97.752 Y94.340 E1.59418
G1 X97.752 Y94.560 E1.60714
G1 X97.963 Y94.560 E1.61961
G1 X97.963 Y94.340 E1.63256
G1 X98.510 Y94.340 E1.66476
G1 E0.66476 F1800.00000
G92 E0
G1 Z6.850 F7800.000
G1 X111.602 Y104.102 F7800.000
G1 E1.00000 F1800.00000
M106 S255

G1 F3600
G1 X88.398 Y104.102 E2.21226
G1 X88.398 Y95.898 E2.64084
G1 X111.602 Y95.898 E3.85310
G1 X111.602 Y104.042 E4.27855
M106 S255

G1 X111.936 Y104.436 F7800.000
M106 S255

G1 F3600
G1 X88.064 Y104.436 E5.52572
G1 X88.064 Y95.564 E5.98922
G1 X111.936 Y95.564 E7.23640
G1 X111.936 Y104.376 E7.69676
M106 S255

G1 X112.280 Y104.780 F7800.000
M106 S255

G1 F3600
G1 X87.720 Y104.780 E8.97990
G1 X87.720 Y95.220 E9.47936
G1 X112.280 Y95.220 E10.76249
G1 X112.280 Y104.720 E11.25882
M106 S255

G1 E10.25882 F1800.00000
G92 E0
G1 X111.362 Y96.443 F7800.000
G1 E1.00000 F1800.00000
M106 S255

G1 F3600
G1 X111.057 Y96.138 E1.02353
G1 X110.408 Y96.138 E1.05890
G1 X111.362 Y97.092 E1.13246
G1 X111.362 Y97.740 E1.16784
G1 X109.760 Y96.138 E1.29142
G1 X109.111 Y96.138 E1.32679
G1 X111.362 Y98.389 E1.50040
G1 X111.362 Y99.038 E1.53577
G1 X108.462 Y96.138 E1.75941
G1 X107.814 Y96.138 E1.79478
G1 X111.362 Y99.686 E2.06844
G1 X111.362 Y100.335 E2.10382
G1 X107.165 Y96.138 E2.42751
G1 X106.516 Y96.138 E2.46288
G1 X111.362 Y100.984 E2.83659
G1 X111.362 Y101.632 E2.87197
G1 X105.868 Y96.138 E3.29571
G1 X105.219 Y96.138 E3.33108
G1 X111.362 Y102.281 E3.80485
G1 X111.362 Y102.930 E3.84022
G1 X104.570 Y96.138 E4.36401
G1 X103.922 Y96.138 E4.39939
G1 X111.362 Y103.578 E4.97320
G1 X111.362 Y103.862 E4.98869
G1 X110.997 Y103.862 E5.00858
G1 X103.273 Y96.138 E5.60429
G1 X102.624 Y96.138 E5.63966
G1 X110.349 Y103.862 E6.23538
G1 X109.700 Y103.862 E6.27075
G1 X101.976 Y96.138 E6.86646
G1 X101.327 Y96.138 E6.90184
G1 X109.051 Y103.862 E7.49755
G1 X108.403 Y103.862 E7.53292
G1 X100.679 Y96.138 E8.12863
G1 X100.030 Y96.138 E8.16401
G1 X107.754 Y103.862 E8.75972
G1 X107.105 Y103.862 E8.79509
G1 X99.381 Y96.138 E9.39081
G1 X98.733 Y96.138 E9.42618
G1 X106.457 Y103.862 E10.02189
G1 X105.808 Y103.862 E10.05727
G1 X98.084 Y96.138 E10.65298
G1 X97.435 Y96.138 E10.68835
G1 X105.159 Y103.862 E11.28406
G1 X104.511 Y103.862 E11.31944
G1 X96.787 Y96.138 E11.91515
G1 X96.138 Y96.138 E11.95052
G1 X103.862 Y103.862 E12.54624
G1 X103.213 Y103.862 E12.58161
G1 X95.489 Y96.138 E13.17732
G1 X94.841 Y96.138 E13.21270
G1 X102.565 Y103.862 E13.80841
G1 X101.916 Y103.862 E13.84378
G1 X94.192 Y96.138 E14.43950
G1 X93.543 Y96.138 E14.47487
G1 X101.268 Y103.862 E15.07058
G1 X100.619 Y103.862 E15.10596
G1 X92.895 Y96.138 E15.70167
G1 X92.246 Y96.138 E15.73704
G1 X99.970 Y103.862 E16.33275
G1 X99.322 Y103.862 E16.36813
G1 X91.597 Y96.138 E16.96384
G1 X90.949 Y96.138 E16.99921
G1 X98.673 Y103.862 E17.59493
G1 X98.024 Y103.862 E17.63030
G1 X90.300 Y96.138 E18.22601
G1 X89.651 Y96.138 E18.26139
G1 X97.376 Y103.862 E18.85710
G1 X96.727 Y103.862 E18.89247
G1 X89.003 Y96.138 E19.48818
G1 X88.638 Y96.138 E19.50808
G1 X88.638 Y96.422 E19.52356
G1 X96.078 Y103.862 E20.09738
G1 X95.430 Y103.862 E20.13275
G1 X88.638 Y97.070 E20.65655
G1 X88.638 Y97.719 E20.69192
G1 X94.781 Y103.862 E21.16569
G1 X94.132 Y103.862 E21.20106
G1 X88.638 Y98.368 E21.62481
G1 X88.638 Y99.016 E21.66018
G1 X93.484 Y103.862 E22.03390
G1 X92.835 Y103.862 E22.06927
G1 X88.638 Y99.665 E22.39296
G1 X88.638 Y100.314 E22.42833
G1 X92.186 Y103.862 E22.70200
G1 X91.538 Y103.862 E22.73737
G1 X88.638 Y100.962 E22.96101
G1 X88.638 Y101.611 E22.99638
G1 X90.889 Y103.862 E23.17000
G1 X90.240 Y103.862 E23.20537
G1 X88.638 Y102.260 E23.32896
G1 X88.638 Y102.908 E23.36433
G1 X89.592 Y103.862 E23.43789
G1 X88.943 Y103.862 E23.47326
G1 X88.638 Y103.557 E23.49680
M106 S255

G1 E22.49680 F1800.00000
G92 E0
G1 Z6.850 F7800.000
G1 X91.963 Y105.660 F7800.000
G1 E1.00000 F1800.00000
G1 F1326.93
G1 X91.343 Y105.660 E1.03652
G1 X91.343 Y106.500 E1.08599
G1 X93.700 Y106.500 E1.22480
G1 X93.700 Y105.660 E1.27427
G1 X91.963 Y105.660 E1.37656
G1 E0.37656 F1800.00000
G92 E0
G1 X97.963 Y105.660 F7800.000
G1 E1.00000 F1800.00000
G1 F1326.93
G1 X97.343 Y105.660 E1.03652
G1 X97.343 Y106.010 E1.05713
G1 X98.730 Y106.010 E1.13880
G1 X98.730 Y105.660 E1.15941
G1 X97.963 Y105.660 E1.20456
G1 E0.20456 F1800.00000
G92 E0
G1 X98.730 Y94.340 F7800.000
G1 E1.00000 F1800.00000
G1 F1326.93
G1 X98.730 Y93.500 E1.04947
G1 X97.343 Y93.500 E1.13114
G1 X97.343 Y94.340 E1.18061
G1 X98.730 Y94.340 E1.26228
G1 X93.700 Y94.340 F7800.000
G1 F1326.93
G1 X93.700 Y93.500 E1.31175
G1 X91.343 Y93.500 E1.45056
G1 X91.343 Y94.340 E1.50003
G1 X93.700 Y94.340 E1.63884
G1 E0.63884 F1800.00000
G92 E0
G1 Z7.050 F7800.000
G1 X111.306 Y103.806 F7800.000
G1 E1.00000 F1800.00000
G1 F663.463
G1 X88.694 Y103.806 E1.97220
G1 X88.694 Y96.194 E2.29946
G1 X111.306 Y96.194 E3.27166
G1 X111.306 Y103.746 E3.59635
G1 X111.823 Y104.323 F7800.000
G1 F663.463
G1 X88.177 Y104.323 E4.61301
G1 X88.177 Y95.677 E4.98474
G1 X111.823 Y95.677 E6.00140
G1 X111.823 Y104.263 E6.37055
G1 X112.280 Y104.780 F7800.000
G1 F1260
G1 X87.720 Y104.780 E7.18146
G1 X87.720 Y95.220 E7.49710
G1 X112.280 Y95.220 E8.30801
G1 X112.280 Y104.720 E8.62167
G1 X111.883 Y104.731 F7800.000
G1 X110.588 Y103.490 F7800.000
G1 F1326.93
G1 X110.990 Y103.088 E8.64646
G1 X110.990 Y102.347 E8.67874
G1 X109.847 Y103.490 E8.74917
G1 X109.106 Y103.490 E8.78145
G1 X110.990 Y101.606 E8.89753
G1 X110.990 Y100.865 E8.92980
G1 X108.365 Y103.490 E9.09153
G1 X107.624 Y103.490 E9.12380
G1 X110.990 Y100.124 E9.33117
G1 X110.990 Y99.383 E9.36345
G1 X106.883 Y103.490 E9.61647
G1 X106.142 Y103.490 E9.64874
G1 X110.990 Y98.642 E9.94741
G1 X110.990 Y97.901 E9.97968
G1 X105.401 Y103.490 E10.32399
G1 X104.660 Y103.490 E10.35627
G1 X110.990 Y97.160 E10.74622
G1 X110.990 Y96.510 E10.77454
G1 X110.899 Y96.510 E10.77850
G1 X103.919 Y103.490 E11.20850
G1 X103.178 Y103.490 E11.24078
G1 X110.158 Y96.510 E11.67079
G1 X109.417 Y96.510 E11.70306
G1 X102.437 Y103.490 E12.13307
G1 X101.697 Y103.490 E12.16535
G1 X108.676 Y96.510 E12.59535
G1 X107.935 Y96.510 E12.62763
G1 X100.956 Y103.490 E13.05763
G1 X100.215 Y103.490 E13.08991
G1 X107.194 Y96.510 E13.51992
G1 X106.454 Y96.510 E13.55219
G1 X99.474 Y103.490 E13.98220
G1 X98.733 Y103.490 E14.01447
G1 X105.713 Y96.510 E14.44448
G1 X104.972 Y96.510 E14.47676
G1 X97.992 Y103.490 E14.90676
G1 X97.251 Y103.490 E14.93904
G1 X104.231 Y96.510 E15.36904
G1 X103.490 Y96.510 E15.40132
G1 X96.510 Y103.490 E15.83133
G1 X95.769 Y103.490 E15.86360
G1 X102.749 Y96.510 E16.29361
G1 X102.008 Y96.510 E16.32588
G1 X95.028 Y103.490 E16.75589
G1 X94.287 Y103.490 E16.78817
G1 X101.267 Y96.510 E17.21817
G1 X100.526 Y96.510 E17.25045
G1 X93.546 Y103.490 E17.68045
G1 X92.806 Y103.490 E17.71273
G1 X99.785 Y96.510 E18.14274
G1 X99.044 Y96.510 E18.17501
G1 X92.065 Y103.490 E18.60502
G1 X91.324 Y103.490 E18.63729
G1 X98.303 Y96.510 E19.06730
G1 X97.563 Y96.510 E19.09958
G1 X90.583 Y103.490 E19.52958
G1 X89.842 Y103.490 E19.56186
G1 X96.822 Y96.510 E19.99186
G1 X96.081 Y96.510 E20.02414
G1 X89.101 Y103.490 E20.45414
