; generated by Slic3r 1.3.0 on 2022-06-03 at 20:02:20

; external perimeters extrusion width = 0.44mm (1.67mm^3/s)
; perimeters extrusion width = 0.56mm (3.10mm^3/s)
; infill extrusion width = 0.50mm (5.48mm^3/s)
; solid infill extrusion width = 0.56mm (6.20mm^3/s)
; top infill extrusion width = 0.56mm (5.17mm^3/s)
; support material extrusion width = 0.44mm (4.76mm^3/s)

M107
M190 S50 ; set bed temperature and wait for it to be reached
M104 S205 ; set temperature
G28 ; home all axes
G1 Z5 F5000 ; lift nozzle

; Filament gcode

M109 S205 ; set temperature and wait for it to be reached
G21 ; set units to millimeters
G90 ; use absolute coordinates
M82 ; use absolute distances for extrusion
G92 E0
G1 E-1.00000 F1800.00000
G92 E0
G1 Z-0.550 F7800.000
G1 X89.130 Y71.882 F7800.000
G1 E1.00000 F1800.00000
G1 F1080
G1 X90.963 Y70.504 E1.20854
G1 X93.968 Y69.783 E1.48956
G1 X106.032 Y69.783 E2.58653
G1 X108.291 Y70.180 E2.79507
G1 X110.279 Y71.323 E3.00361
G1 X112.123 Y73.803 E3.28464
G1 X112.189 Y73.957 E3.29982
G1 X112.723 Y76.561 E3.54158
G1 X112.723 Y123.439 E7.80413
G1 X112.189 Y126.044 E8.04591
G1 X112.123 Y126.197 E8.06109
G1 X110.870 Y128.118 E8.26963
G1 X109.037 Y129.496 E8.47818
G1 X106.032 Y130.217 E8.75919
G1 X93.968 Y130.217 E9.85616
G1 X91.709 Y129.820 E10.06470
G1 X89.721 Y128.677 E10.27325
G1 X87.877 Y126.197 E10.55426
G1 X87.811 Y126.043 E10.56945
G1 X87.277 Y123.439 E10.81121
G1 X87.277 Y76.561 E15.07376
G1 X87.811 Y73.956 E15.31554
G1 X87.877 Y73.803 E15.33072
G1 X89.097 Y71.932 E15.53381
G1 E14.53381 F1800.00000
G92 E0
G1 X106.098 Y76.561 F7800.000
G1 E1.00000 F1800.00000
G1 F1080
G1 X93.902 Y76.561 E1.64752
G1 X93.902 Y77.294 E1.68642
G1 X106.098 Y77.294 E2.33394
G1 X106.098 Y78.026 E2.37283
G1 X93.902 Y78.026 E3.02035
G1 X93.902 Y78.759 E3.05925
G1 X106.098 Y78.759 E3.70677
G1 X106.098 Y79.491 E3.74566
G1 X93.902 Y79.491 E4.39319
G1 X93.902 Y80.224 E4.43208
G1 X106.098 Y80.224 E5.07960
G1 X106.098 Y80.956 E5.11849
G1 X93.902 Y80.956 E5.76602
G1 X93.902 Y81.688 E5.80491
G1 X106.098 Y81.688 E6.45243
G1 X106.098 Y82.421 E6.49132
G1 X93.902 Y82.421 E7.13885
G1 X93.902 Y83.153 E7.17774
G1 X106.098 Y83.153 E7.82526
G1 X106.098 Y83.886 E7.86415
G1 X93.902 Y83.886 E8.51168
G1 X93.902 Y84.618 E8.55057
G1 X106.098 Y84.618 E9.19809
G1 X106.098 Y85.351 E9.23698
G1 X93.902 Y85.351 E9.88451
G1 X93.902 Y86.083 E9.92340
G1 X106.098 Y86.083 E10.57092
G1 X106.098 Y86.816 E10.60981
G1 X93.902 Y86.816 E11.25734
G1 X93.902 Y87.548 E11.29623
G1 X106.098 Y87.548 E11.94375
G1 X106.098 Y88.281 E11.98264
G1 X93.902 Y88.281 E12.63017
G1 X93.902 Y89.013 E12.66906
G1 X106.098 Y89.013 E13.31658
G1 X106.098 Y89.746 E13.35548
G1 X93.902 Y89.746 E14.00300
G1 X93.902 Y90.478 E14.04189
G1 X106.098 Y90.478 E14.68941
G1 X106.098 Y91.210 E14.72831
G1 X93.902 Y91.210 E15.37583
G1 X93.902 Y91.943 E15.41472
G1 X106.098 Y91.943 E16.06225
G1 X106.098 Y92.675 E16.10114
G1 X93.902 Y92.675 E16.74866
G1 X93.902 Y93.408 E16.78755
G1 X106.098 Y93.408 E17.43508
G1 X106.098 Y94.140 E17.47397
G1 X93.902 Y94.140 E18.12149
G1 X93.902 Y94.873 E18.16038
G1 X106.098 Y94.873 E18.80791
G1 X106.098 Y95.605 E18.84680
G1 X93.902 Y95.605 E19.49432
G1 X93.902 Y96.338 E19.53321
G1 X106.098 Y96.338 E20.18074
G1 X106.098 Y97.070 E20.21963
G1 X93.902 Y97.070 E20.86715
G1 X93.902 Y97.803 E20.90604
G1 X106.098 Y97.803 E21.55357
G1 X106.098 Y98.535 E21.59246
G1 X93.902 Y98.535 E22.23998
G1 X93.902 Y99.268 E22.27887
G1 X106.098 Y99.268 E22.92640
G1 X106.098 Y100.000 E22.96529
G1 X93.902 Y100.000 E23.61281
G1 X93.902 Y100.732 E23.65170
G1 X106.098 Y100.732 E24.29923
G1 X106.098 Y101.465 E24.33812
G1 X93.902 Y101.465 E24.98564
G1 X93.902 Y102.197 E25.02454
G1 X106.098 Y102.197 E25.67206
G1 X106.098 Y102.930 E25.71095
G1 X93.902 Y102.930 E26.35847
G1 X93.902 Y103.662 E26.39737
G1 X106.098 Y103.662 E27.04489
G1 X106.098 Y104.395 E27.08378
G1 X93.902 Y104.395 E27.73131
G1 X93.902 Y105.127 E27.77020
G1 X106.098 Y105.127 E28.41772
G1 X106.098 Y105.860 E28.45661
G1 X93.902 Y105.860 E29.10414
G1 X93.902 Y106.592 E29.14303
G1 X106.098 Y106.592 E29.79055
G1 X106.098 Y107.325 E29.82944
G1 X93.902 Y107.325 E30.47697
G1 X93.902 Y108.057 E30.51586
G1 X106.098 Y108.057 E31.16338
G1 X106.098 Y108.790 E31.20227
G1 X93.902 Y108.790 E31.84980
G1 X93.902 Y109.522 E31.88869
G1 X106.098 Y109.522 E32.53621
G1 X106.098 Y110.254 E32.57510
G1 X93.902 Y110.254 E33.22263
G1 X93.902 Y110.987 E33.26152
G1 X106.098 Y110.987 E33.90904
G1 X106.098 Y111.719 E33.94793
G1 X93.902 Y111.719 E34.59546
G1 X93.902 Y112.452 E34.63435
G1 X106.098 Y112.452 E35.28187
G1 X106.098 Y113.184 E35.32076
G1 X93.902 Y113.184 E35.96829
G1 X93.902 Y113.917 E36.00718
G1 X106.098 Y113.917 E36.65470
G1 X106.098 Y114.649 E36.69359
G1 X93.902 Y114.649 E37.34112
G1 X93.902 Y115.382 E37.38001
G1 X106.098 Y115.382 E38.02753
G1 X106.098 Y116.114 E38.06643
G1 X93.902 Y116.114 E38.71395
G1 X93.902 Y116.847 E38.75284
G1 X106.098 Y116.847 E39.40037
G1 X106.098 Y117.579 E39.43926
G1 X93.902 Y117.579 E40.08678
G1 X93.902 Y118.312 E40.12567
G1 X106.098 Y118.312 E40.77320
G1 X106.098 Y119.044 E40.81209
G1 X93.902 Y119.044 E41.45961
G1 X93.902 Y119.776 E41.49850
G1 X106.098 Y119.776 E42.14603
G1 X106.098 Y120.509 E42.18492
G1 X93.902 Y120.509 E42.83244
G1 X93.902 Y121.241 E42.87133
G1 X106.098 Y121.241 E43.51886
G1 X106.098 Y121.974 E43.55775
G1 X93.902 Y121.974 E44.20527
G1 X93.902 Y122.706 E44.24416
G1 X106.098 Y122.706 E44.89169
G1 X106.098 Y123.439 E44.93058
G1 X93.902 Y123.439 E45.57810
M106 S255
M104 S200 ; set temperature
M140 S45 ; set bed temperature
G1 E44.57810 F1800.00000
G92 E0
G1 Z-0.250 F7800.000
G1 X106.032 Y123.592 F7800.000
G1 E1.00000 F1800.00000
G1 F1628.4
G1 X106.032 Y76.408 E3.21057
G1 X105.278 Y76.408 E3.24589
G1 X105.278 Y123.592 E5.45646
G1 X104.524 Y123.592 E5.49178
G1 X104.524 Y76.408 E7.70235
G1 X103.770 Y76.408 E7.73767
G1 X103.770 Y123.592 E9.94824
G1 X103.016 Y123.592 E9.98356
G1 X103.016 Y76.408 E12.19413
G1 X102.262 Y76.408 E12.22945
G1 X102.262 Y123.592 E14.44002
G1 X101.508 Y123.592 E14.47534
G1 X101.508 Y76.408 E16.68591
G1 X100.754 Y76.408 E16.72123
G1 X100.754 Y123.592 E18.93180
G1 X100.000 Y123.592 E18.96712
G1 X100.000 Y76.408 E21.17769
G1 X99.246 Y76.408 E21.21301
G1 X99.246 Y123.592 E23.42358
G1 X98.492 Y123.592 E23.45890
G1 X98.492 Y76.408 E25.66947
G1 X97.738 Y76.408 E25.70479
G1 X97.738 Y123.592 E27.91536
G1 X96.984 Y123.592 E27.95068
G1 X96.984 Y76.408 E30.16125
G1 X96.230 Y76.408 E30.19657
G1 X96.230 Y123.592 E32.40714
G1 X95.476 Y123.592 E32.44246
G1 X95.476 Y76.408 E34.65303
G1 X94.722 Y76.408 E34.68835
G1 X94.722 Y123.592 E36.89892
G1 X93.968 Y123.592 E36.93424
G1 X93.968 Y76.408 E39.14481
G1 E38.14481 F1800.00000
G92 E0
G1 Z0.050 F7800.000
G1 X106.092 Y76.626 F7800.000
G1 E1.00000 F1800.00000
G1 F1628.75
G1 X93.908 Y76.626 E1.57084
G1 X93.908 Y77.380 E1.60616
G1 X106.092 Y77.380 E2.17700
G1 X106.092 Y78.134 E2.21233
G1 X93.908 Y78.134 E2.78317
G1 X93.908 Y78.888 E2.81849
G1 X106.092 Y78.888 E3.38933
G1 X106.092 Y79.642 E3.42466
G1 X93.908 Y79.642 E3.99549
G1 X93.908 Y80.396 E4.03082
G1 X106.092 Y80.396 E4.60166
G1 X106.092 Y81.150 E4.63698
G1 X93.908 Y81.150 E5.20782
G1 X93.908 Y81.904 E5.24315
G1 X106.092 Y81.904 E5.81399
G1 X106.092 Y82.658 E5.84931
G1 X93.908 Y82.658 E6.42015
G1 X93.908 Y83.412 E6.45547
G1 X106.092 Y83.412 E7.02631
G1 X106.092 Y84.166 E7.06164
G1 X93.908 Y84.166 E7.63248
G1 X93.908 Y84.920 E7.66780
G1 X106.092 Y84.920 E8.23864
G1 X106.092 Y85.674 E8.27397
G1 X93.908 Y85.674 E8.84480
G1 X93.908 Y86.428 E8.88013
G1 X106.092 Y86.428 E9.45097
G1 X106.092 Y87.182 E9.48629
G1 X93.908 Y87.182 E10.05713
G1 X93.908 Y87.936 E10.09246
G1 X106.092 Y87.936 E10.66330
G1 X106.092 Y88.690 E10.69862
G1 X93.908 Y88.690 E11.26946
G1 X93.908 Y89.444 E11.30478
G1 X106.092 Y89.444 E11.87562
G1 X106.092 Y90.198 E11.91095
G1 X93.908 Y90.198 E12.48179
G1 X93.908 Y90.952 E12.51711
G1 X106.092 Y90.952 E13.08795
G1 X106.092 Y91.706 E13.12328
G1 X93.908 Y91.706 E13.69412
G1 X93.908 Y92.460 E13.72944
G1 X106.092 Y92.460 E14.30028
G1 X106.092 Y93.214 E14.33560
G1 X93.908 Y93.214 E14.90644
G1 X93.908 Y93.968 E14.94177
G1 X106.092 Y93.968 E15.51261
G1 X106.092 Y94.722 E15.54793
G1 X93.908 Y94.722 E16.11877
G1 X93.908 Y95.476 E16.15409
G1 X106.092 Y95.476 E16.72493
G1 X106.092 Y96.230 E16.76026
G1 X93.908 Y96.230 E17.33110
G1 X93.908 Y96.984 E17.36642
G1 X106.092 Y96.984 E17.93726
G1 X106.092 Y97.738 E17.97259
G1 X93.908 Y97.738 E18.54343
G1 X93.908 Y98.492 E18.57875
G1 X106.092 Y98.492 E19.14959
G1 X106.092 Y99.246 E19.18491
G1 X93.908 Y99.246 E19.75575
G1 X93.908 Y100.000 E19.79108
G1 X106.092 Y100.000 E20.36192
G1 X106.092 Y100.754 E20.39724
G1 X93.908 Y100.754 E20.96808
G1 X93.908 Y101.508 E21.00341
G1 X106.092 Y101.508 E21.57424
G1 X106.092 Y102.262 E21.60957
G1 X93.908 Y102.262 E22.18041
G1 X93.908 Y103.016 E22.21573
G1 X106.092 Y103.016 E22.78657
G1 X106.092 Y103.770 E22.82190
G1 X93.908 Y103.770 E23.39274
G1 X93.908 Y104.524 E23.42806
G1 X106.092 Y104.524 E23.99890
G1 X106.092 Y105.278 E24.03422
G1 X93.908 Y105.278 E24.60506
G1 X93.908 Y106.032 E24.64039
G1 X106.092 Y106.032 E25.21123
G1 X106.092 Y106.786 E25.24655
G1 X93.908 Y106.786 E25.81739
G1 X93.908 Y107.540 E25.85272
G1 X106.092 Y107.540 E26.42355
G1 X106.092 Y108.294 E26.45888
G1 X93.908 Y108.294 E27.02972
G1 X93.908 Y109.048 E27.06504
G1 X106.092 Y109.048 E27.63588
G1 X106.092 Y109.802 E27.67121
G1 X93.908 Y109.802 E28.24205
G1 X93.908 Y110.556 E28.27737
G1 X106.092 Y110.556 E28.84821
G1 X106.092 Y111.310 E28.88353
G1 X93.908 Y111.310 E29.45437
G1 X93.908 Y112.064 E29.48970
G1 X106.092 Y112.064 E30.06054
G1 X106.092 Y112.818 E30.09586
G1 X93.908 Y112.818 E30.66670
G1 X93.908 Y113.572 E30.70203
G1 X106.092 Y113.572 E31.27287
G1 X106.092 Y114.326 E31.30819
G1 X93.908 Y114.326 E31.87903
G1 X93.908 Y115.080 E31.91435
G1 X106.092 Y115.080 E32.48519
G1 X106.092 Y115.834 E32.52052
G1 X93.908 Y115.834 E33.09136
G1 X93.908 Y116.588 E33.12668
G1 X106.092 Y116.588 E33.69752
G1 X106.092 Y117.342 E33.73284
G1 X93.908 Y117.342 E34.30368
G1 X93.908 Y118.096 E34.33901
G1 X106.092 Y118.096 E34.90985
G1 X106.092 Y118.850 E34.94517
G1 X93.908 Y118.850 E35.51601
G1 X93.908 Y119.604 E35.55134
G1 X106.092 Y119.604 E36.12218
G1 X106.092 Y120.358 E36.15750
G1 X93.908 Y120.358 E36.72834
G1 X93.908 Y121.112 E36.76366
G1 X106.092 Y121.112 E37.33450
G1 X106.092 Y121.866 E37.36983
G1 X93.908 Y121.866 E37.94067
G1 X93.908 Y122.620 E37.97599
G1 X106.092 Y122.620 E38.54683
G1 X106.092 Y123.374 E38.58216
G1 X93.908 Y123.374 E39.15299
G1 E38.15299 F1800.00000
G92 E0
G1 Z0.250 F7800.000
G1 X101.594 Y102.020 F7800.000
G1 E1.00000 F1800.00000
G1 F600
G1 X102.009 Y102.020 E1.01368
G1 X102.011 Y101.970 E1.01535
G1 X101.967 Y101.632 E1.02662
G1 X101.867 Y101.305 E1.03789
G1 X101.714 Y101.000 E1.04916
G1 X101.594 Y100.839 E1.05580
G1 X101.594 Y102.020 E1.09482
G1 X100.797 Y100.655 F7800.000
G1 F600
G1 X100.797 Y100.259 E1.10789
G1 E0.10789 F1800.00000
G92 E0
G1 X101.594 Y81.808 F7800.000
G1 E1.00000 F1800.00000
G1 F600
G1 X101.594 Y81.052 E1.02497
G1 X101.467 Y80.858 E1.03262
G1 X101.259 Y80.632 E1.04276
G1 X101.017 Y80.443 E1.05290
G1 X100.797 Y80.324 E1.06116
G1 X100.797 Y81.044 E1.08493
G1 X100.319 Y80.313 E1.11380
G1 X100.482 Y80.206 E1.12022
G1 X100.797 Y80.324 E1.13134
G1 E0.13134 F1800.00000
G92 E0
G1 Z0.450 F7800.000
G1 X101.475 Y80.870 F7800.000
G1 E1.00000 F1800.00000
G1 F600
G1 X101.259 Y80.632 E1.01061
G1 X101.017 Y80.443 E1.02075
G1 X100.747 Y80.297 E1.03089
G1 X100.482 Y80.206 E1.04015
G1 X100.319 Y80.313 E1.04657
G1 X100.683 Y80.870 E1.06856
G1 X101.475 Y80.870 E1.09471
G1 X101.635 Y81.115 E1.10437
G1 X101.759 Y81.396 E1.11451
G1 X101.827 Y81.667 E1.12373
G1 X101.204 Y81.667 E1.14432
G1 E0.14432 F1800.00000
G92 E0
G1 Z1.050 F7800.000
G1 X103.424 Y101.290 F7800.000
G1 E1.00000 F1800.00000
M106 S255

G1 F3600
G1 X103.136 Y101.290 E1.01503
G1 X103.217 Y101.919 E1.04816
G1 X103.193 Y102.464 E1.07669
G1 X103.078 Y102.998 E1.10521
G1 X102.875 Y103.505 E1.13374
G1 X102.601 Y103.949 E1.16098
G1 X102.229 Y104.378 E1.19067
G1 X101.803 Y104.723 E1.21932
G1 X101.326 Y104.989 E1.24784
G1 X100.811 Y105.171 E1.27637
G1 X100.285 Y105.261 E1.30427
G1 X99.715 Y105.261 E1.33404
G1 X99.189 Y105.171 E1.36194
G1 X98.674 Y104.989 E1.39047
G1 X98.197 Y104.723 E1.41900
G1 X97.772 Y104.380 E1.44753
G1 X97.412 Y103.970 E1.47606
G1 X97.125 Y103.505 E1.50459
G1 X96.922 Y102.998 E1.53312
G1 X96.807 Y102.464 E1.56165
G1 X96.783 Y101.919 E1.59018
G1 X96.853 Y101.377 E1.61871
G1 X97.013 Y100.855 E1.64724
G1 X97.258 Y100.368 E1.67577
G1 X97.583 Y99.928 E1.70430
G1 X97.977 Y99.551 E1.73282
G1 X98.430 Y99.245 E1.76135
G1 X98.927 Y99.020 E1.78988
G1 X99.456 Y98.882 E1.81841
G1 X99.975 Y98.838 E1.84565
G1 X100.542 Y98.882 E1.87534
G1 X101.073 Y99.020 E1.90398
G1 X101.570 Y99.245 E1.93251
G1 X102.023 Y99.551 E1.96104
G1 X102.417 Y99.928 E1.98957
G1 X103.388 Y101.242 E2.07491
M106 S255

G1 X102.810 Y101.450 F7800.000
M106 S255

G1 F3600
G1 X102.872 Y101.934 E2.10038
G1 X102.851 Y102.421 E2.12585
G1 X102.748 Y102.897 E2.15132
G1 X102.566 Y103.349 E2.17679
G1 X102.323 Y103.745 E2.20103
G1 X101.989 Y104.130 E2.22766
G1 X101.609 Y104.437 E2.25318
G1 X101.184 Y104.675 E2.27865
G1 X100.724 Y104.837 E2.30411
G1 X100.248 Y104.919 E2.32934
G1 X99.752 Y104.919 E2.35529
G1 X99.276 Y104.837 E2.38051
G1 X98.816 Y104.675 E2.40598
G1 X98.391 Y104.437 E2.43145
G1 X98.011 Y104.131 E2.45692
G1 X97.689 Y103.765 E2.48239
G1 X97.434 Y103.349 E2.50786
G1 X97.252 Y102.897 E2.53332
G1 X97.149 Y102.421 E2.55879
G1 X97.128 Y101.934 E2.58426
G1 X97.190 Y101.450 E2.60973
G1 X97.333 Y100.984 E2.63520
G1 X97.553 Y100.549 E2.66067
G1 X97.842 Y100.157 E2.68614
G1 X98.194 Y99.819 E2.71160
G1 X98.598 Y99.546 E2.73707
G1 X99.043 Y99.346 E2.76254
G1 X99.514 Y99.223 E2.78801
G1 X99.977 Y99.183 E2.81226
G1 X100.485 Y99.223 E2.83888
G1 X100.957 Y99.346 E2.86440
G1 X101.402 Y99.546 E2.88987
G1 X101.806 Y99.819 E2.91534
G1 X102.158 Y100.157 E2.94081
G1 X102.741 Y100.946 E2.99209
G1 X102.655 Y100.946 E2.99658
G1 X102.792 Y101.393 E3.02099
M106 S255

G1 E2.02099 F1800.00000
G92 E0
G1 X100.571 Y113.702 F7800.000
G1 E1.00000 F1800.00000
M106 S255

G1 F3600
G1 X101.133 Y113.848 E1.03033
G1 X101.659 Y114.086 E1.06048
G1 X102.137 Y114.409 E1.09062
G1 X102.553 Y114.808 E1.12076
G1 X102.897 Y115.272 E1.15090
G1 X103.145 Y115.765 E1.17975
G1 X103.325 Y116.335 E1.21098
G1 X103.399 Y116.911 E1.24132
G1 X103.374 Y117.488 E1.27146
G1 X103.252 Y118.052 E1.30160
G1 X103.037 Y118.587 E1.33174
G1 X102.735 Y119.078 E1.36189
G1 X102.354 Y119.511 E1.39203
G1 X101.905 Y119.874 E1.42217
G1 X101.401 Y120.155 E1.45231
G1 X100.857 Y120.347 E1.48246
G1 X100.307 Y120.442 E1.51160
G1 X100.000 Y120.455 E1.52767
G1 X99.693 Y120.442 E1.54374
G1 X99.143 Y120.347 E1.57288
G1 X98.599 Y120.155 E1.60302
G1 X98.095 Y119.874 E1.63317
G1 X97.646 Y119.511 E1.66331
G1 X97.265 Y119.078 E1.69345
G1 X96.963 Y118.587 E1.72360
G1 X96.748 Y118.052 E1.75374
G1 X96.626 Y117.488 E1.78388
G1 X96.601 Y116.911 E1.81402
G1 X96.675 Y116.339 E1.84417
G1 X96.844 Y115.787 E1.87431
G1 X97.103 Y115.272 E1.90445
G1 X97.447 Y114.808 E1.93459
G1 X97.863 Y114.409 E1.96473
G1 X98.341 Y114.086 E1.99488
G1 X98.867 Y113.848 E2.02502
G1 X99.425 Y113.703 E2.05516
G1 X99.975 Y113.656 E2.08401
G1 X100.512 Y113.697 E2.11211
M106 S255

G1 X100.516 Y114.033 F7800.000
M106 S255

G1 F3600
G1 X101.021 Y114.165 E2.13940
G1 X101.495 Y114.379 E2.16657
G1 X101.926 Y114.670 E2.19374
G1 X102.302 Y115.030 E2.22091
G1 X102.611 Y115.448 E2.24808
