; generated by Slic3r 1.3.0 on 2022-06-03 at 02:36:28

; external perimeters extrusion width = 0.44mm (1.67mm^3/s)
; perimeters extrusion width = 0.56mm (3.10mm^3/s)
; infill extrusion width = 0.50mm (5.48mm^3/s)
; solid infill extrusion width = 0.56mm (6.20mm^3/s)
; top infill extrusion width = 0.56mm (5.17mm^3/s)
; support material extrusion width = 0.44mm (4.76mm^3/s)

M107
M190 S50 ; set bed temperature and wait for it to be reached
M104 S205 ; set temperature
G28 ; home all axes
G1 Z5 F5000 ; lift nozzle

; Filament gcode

M109 S205 ; set temperature and wait for it to be reached
G21 ; set units to millimeters
G90 ; use absolute coordinates
M82 ; use absolute distances for extrusion
G92 E0
G1 E-1.00000 F1800.00000
G92 E0
G1 Z0.350 F7800.000
G1 X89.374 Y88.861 F7800.000
G1 E1.00000 F1800.00000
G1 F660.485
G1 X90.435 Y87.906 E1.12981
G1 X91.095 Y87.430 E1.20381
G1 X93.148 Y86.434 E1.41127
G1 X96.865 Y85.370 E1.76288
G1 X98.688 Y85.114 E1.93022
G1 X111.312 Y85.114 E3.07817
G1 X113.571 Y85.511 E3.28671
G1 X115.559 Y86.655 E3.49525
G1 X117.038 Y88.407 E3.70379
G1 X117.937 Y91.648 E4.00958
G1 X118.125 Y105.395 E5.25968
G1 X118.125 Y105.920 E5.30745
G1 X118.053 Y106.896 E5.39645
G1 X117.863 Y108.172 E5.51370
G1 X117.137 Y110.347 E5.72225
G1 X115.719 Y112.140 E5.93008
G1 X115.249 Y112.559 E5.98734
G1 X113.299 Y113.766 E6.19589
G1 X110.840 Y114.240 E6.42359
G1 X88.500 Y114.240 E8.45496
G1 X86.241 Y113.843 E8.66350
G1 X84.253 Y112.699 E8.87204
G1 X82.774 Y110.946 E9.08058
G1 X81.981 Y108.794 E9.28912
G1 X81.875 Y107.615 E9.39683
G1 X81.875 Y105.446 E9.59400
G1 X82.074 Y101.400 E9.96236
G1 X83.119 Y98.154 E10.27243
G1 X88.113 Y90.393 E11.11159
G1 X88.748 Y89.560 E11.20685
G1 X89.334 Y88.905 E11.28676
G1 E10.28676 F1800.00000
G92 E0
G1 X88.902 Y105.860 F7800.000
G1 E1.00000 F1800.00000
G1 F660.485
G1 X111.098 Y105.860 E2.17849
G1 X111.098 Y105.127 E2.21738
G1 X88.902 Y105.127 E3.39586
G1 X88.902 Y104.395 E3.43475
G1 X111.098 Y104.395 E4.61324
G1 X111.098 Y103.662 E4.65213
G1 X88.902 Y103.662 E5.83062
G1 X88.902 Y102.930 E5.86951
G1 X111.098 Y102.930 E7.04799
G1 X109.998 Y101.331 F7800.000
G1 F660.485
G1 X109.998 Y91.864 E7.90881
G1 X108.748 Y91.864 E8.02245
G1 X108.748 Y101.331 E8.88326
G1 X107.499 Y101.331 E8.99690
G1 X107.499 Y91.864 E9.85771
G1 X106.249 Y91.864 E9.97135
G1 X106.249 Y101.331 E10.83216
G1 X104.999 Y101.331 E10.94581
G1 X104.999 Y91.864 E11.80662
G1 X103.749 Y91.864 E11.92026
G1 X103.749 Y101.331 E12.78107
G1 X102.500 Y101.331 E12.89471
G1 X102.500 Y91.864 E13.75552
G1 X101.250 Y91.864 E13.86916
G1 X101.250 Y101.331 E14.72997
G1 X100.000 Y101.331 E14.84362
G1 X100.000 Y91.864 E15.70443
G1 E14.70443 F1800.00000
G92 E0
G1 X97.500 Y93.666 F7800.000
G1 E1.00000 F1800.00000
G1 F660.485
G1 X97.500 Y93.536 E1.01185
G1 X97.124 Y93.115 E1.06314
G1 X96.251 Y93.115 E1.14257
G1 X96.251 Y93.666 E1.19264
G1 X95.282 Y93.666 E1.28068
G1 X95.282 Y93.115 E1.33074
G1 X96.251 Y93.115 E1.41878
G1 X96.251 Y95.584 F7800.000
G1 F660.485
G1 X97.133 Y95.886 E1.50364
G1 X97.142 Y95.873 E1.50507
G1 X97.062 Y95.692 E1.52307
G1 X96.795 Y95.261 E1.56923
G1 X96.251 Y94.652 E1.64346
G1 X96.251 Y95.584 E1.72816
M106 S255
M104 S200 ; set temperature
M140 S45 ; set bed temperature
G1 E0.72816 F1800.00000
G92 E0
G1 Z0.650 F7800.000
G1 X88.690 Y101.739 F7800.000
G1 E1.00000 F1800.00000
G1 F780.283
G1 X88.690 Y107.196 E1.25563
G1 X89.444 Y107.196 E1.29095
G1 X89.444 Y101.739 E1.54658
G1 X90.198 Y101.739 E1.58190
G1 X90.198 Y107.196 E1.83753
G1 X90.952 Y107.196 E1.87285
G1 X90.952 Y101.739 E2.12848
G1 X91.706 Y101.739 E2.16380
G1 X91.706 Y107.196 E2.41943
G1 X92.460 Y107.196 E2.45476
G1 X92.460 Y101.739 E2.71038
G1 X93.214 Y101.739 E2.74571
G1 X93.214 Y107.196 E3.00133
G1 X93.968 Y107.196 E3.03666
G1 X93.968 Y101.739 E3.29228
G1 X94.722 Y101.739 E3.32761
G1 X94.722 Y107.196 E3.58323
G1 X95.476 Y107.196 E3.61856
G1 X95.476 Y101.739 E3.87419
G1 X96.230 Y101.739 E3.90951
G1 X96.230 Y107.196 E4.16514
G1 X96.984 Y107.196 E4.20046
G1 X96.984 Y101.739 E4.45609
G1 X97.738 Y101.739 E4.49141
G1 X97.738 Y107.196 E4.74704
G1 X98.492 Y107.196 E4.78236
G1 X98.492 Y101.739 E5.03799
G1 X98.688 Y101.739 E5.04716
G1 X98.688 Y91.739 E5.51565
G1 X99.246 Y91.739 E5.54181
G1 X99.246 Y107.196 E6.26593
G1 X100.000 Y107.196 E6.30125
G1 X100.000 Y91.739 E7.02537
G1 X100.754 Y91.739 E7.06070
G1 X100.754 Y107.196 E7.78482
G1 X101.508 Y107.196 E7.82014
G1 X101.508 Y91.739 E8.54426
G1 X102.262 Y91.739 E8.57958
G1 X102.262 Y107.196 E9.30370
G1 X103.016 Y107.196 E9.33903
G1 X103.016 Y91.739 E10.06315
G1 X103.770 Y91.739 E10.09847
G1 X103.770 Y107.196 E10.82259
G1 X104.524 Y107.196 E10.85792
G1 X104.524 Y91.739 E11.58204
G1 X105.278 Y91.739 E11.61736
G1 X105.278 Y107.196 E12.34148
G1 X106.032 Y107.196 E12.37680
G1 X106.032 Y91.739 E13.10092
G1 X106.786 Y91.739 E13.13625
G1 X106.786 Y107.196 E13.86037
G1 X107.540 Y107.196 E13.89569
G1 X107.540 Y91.739 E14.61981
G1 X108.294 Y91.739 E14.65514
G1 X108.294 Y107.196 E15.37926
G1 X109.048 Y107.196 E15.41458
G1 X109.048 Y91.739 E16.13870
G1 X109.802 Y91.739 E16.17403
G1 X109.802 Y107.196 E16.89814
G1 X110.556 Y107.196 E16.93347
G1 X110.556 Y91.739 E17.65759
G1 X111.310 Y91.739 E17.69291
G1 X111.310 Y107.196 E18.41703
G1 E17.41703 F1800.00000
G92 E0
G1 X98.060 Y93.692 F7800.000
G1 E1.00000 F1800.00000
G1 F780.283
G1 X97.264 Y92.803 E1.05592
G1 X94.970 Y92.803 E1.16339
G1 X94.970 Y93.978 E1.21846
G1 X95.933 Y93.978 E1.26358
G1 X94.970 Y95.055 E1.33125
G1 X94.970 Y96.181 E1.38404
G1 X96.000 Y95.828 E1.43505
G1 X97.260 Y96.260 E1.49748
G1 X97.497 Y95.904 E1.51752
G1 X97.340 Y95.546 E1.53582
G1 X97.046 Y95.073 E1.56192
G1 X96.067 Y93.978 E1.63072
G1 X98.060 Y93.978 E1.72410
G1 X98.060 Y93.692 E1.73751
G1 E0.73751 F1800.00000
G92 E0
G1 X95.636 Y95.346 F7800.000
G1 E1.00000 F1800.00000
G1 F780.283
G1 X95.575 Y95.240 E1.00574
G1 X95.544 Y95.274 E1.00787
G1 X95.544 Y95.377 E1.01272
G1 X95.636 Y95.346 E1.01725
G1 X94.310 Y93.978 F7800.000
G1 F780.283
G1 X94.310 Y93.279 E1.05003
G1 X93.684 Y93.978 E1.09401
G1 X94.310 Y93.978 E1.12334
G1 E0.12334 F1800.00000
G92 E0
G1 Z0.950 F7800.000
G1 X98.688 Y100.754 F7800.000
G1 E1.00000 F1800.00000
G1 F612.338
G1 X111.312 Y100.754 E1.59145
G1 X111.312 Y100.000 E1.62678
G1 X98.688 Y100.000 E2.21823
G1 X98.688 Y99.246 E2.25356
G1 X111.312 Y99.246 E2.84501
G1 X111.312 Y98.492 E2.88033
G1 X98.688 Y98.492 E3.47179
G1 X98.688 Y97.738 E3.50711
G1 X111.312 Y97.738 E4.09856
G1 X111.312 Y96.984 E4.13389
G1 X98.688 Y96.984 E4.72534
G1 X98.688 Y96.230 E4.76067
G1 X111.312 Y96.230 E5.35212
G1 X111.312 Y95.476 E5.38744
G1 X98.688 Y95.476 E5.97890
G1 X98.688 Y94.722 E6.01422
G1 X111.312 Y94.722 E6.60567
G1 X111.312 Y93.968 E6.64100
G1 X98.688 Y93.968 E7.23245
G1 X98.688 Y93.214 E7.26778
G1 X111.312 Y93.214 E7.85923
G1 X111.312 Y92.460 E7.89455
G1 X98.688 Y92.460 E8.48601
G1 X98.688 Y91.739 E8.51978
G1 X111.312 Y91.739 E9.11123
G1 X111.312 Y92.460 E9.14500
G1 E8.14500 F1800.00000
G92 E0
G1 X111.092 Y103.016 F7800.000
G1 E1.00000 F1800.00000
G1 F612.338
G1 X88.908 Y103.016 E2.03933
G1 X88.908 Y103.770 E2.07466
G1 X111.092 Y103.770 E3.11399
G1 X111.092 Y104.524 E3.14931
G1 X88.908 Y104.524 E4.18865
G1 X88.908 Y105.278 E4.22397
G1 X111.092 Y105.278 E5.26330
G1 X111.092 Y106.032 E5.29863
G1 X88.908 Y106.032 E6.33796
G1 E5.33796 F1800.00000
G92 E0
G1 X95.636 Y95.346 F7800.000
G1 E1.00000 F1800.00000
G1 F612.338
G1 X95.575 Y95.240 E1.00574
G1 X95.544 Y95.274 E1.00787
G1 X95.544 Y95.377 E1.01272
G1 X95.636 Y95.346 E1.01725
G1 X94.310 Y93.978 F7800.000
G1 F612.338
G1 X94.310 Y93.279 E1.05003
G1 X93.684 Y93.978 E1.09401
G1 X94.310 Y93.978 E1.12334
G1 E0.12334 F1800.00000
G92 E0
G1 X98.060 Y93.692 F7800.000
G1 E1.00000 F1800.00000
G1 F612.338
G1 X97.264 Y92.803 E1.05592
G1 X94.970 Y92.803 E1.16339
G1 X94.970 Y93.978 E1.21846
G1 X95.933 Y93.978 E1.26358
G1 X94.970 Y95.055 E1.33125
G1 X94.970 Y96.181 E1.38404
G1 X96.000 Y95.828 E1.43505
G1 X97.260 Y96.260 E1.49748
G1 X97.497 Y95.904 E1.51752
G1 X97.340 Y95.546 E1.53582
G1 X97.046 Y95.073 E1.56192
G1 X96.067 Y93.978 E1.63072
G1 X98.060 Y93.978 E1.72410
G1 X98.060 Y93.692 E1.73751
G1 E0.73751 F1800.00000
G92 E0
G1 Z1.150 F7800.000
G1 X88.841 Y101.750 F7800.000
G1 E1.00000 F1800.00000
G1 F600
G1 X88.841 Y102.906 E1.03819
G1 X89.177 Y102.570 E1.05388
G1 X89.356 Y102.570 E1.05980
G1 X89.543 Y102.246 E1.07215
G1 X89.638 Y102.192 E1.07576
G1 X89.638 Y101.750 E1.09035
G1 X90.435 Y101.750 E1.11666
G1 X90.435 Y101.999 E1.12488
G1 X91.060 Y101.999 E1.14551
G1 X91.232 Y102.098 E1.15208
G1 X91.232 Y101.750 E1.16357
G1 X92.029 Y101.750 E1.18989
G1 X92.029 Y101.999 E1.19811
G1 X92.826 Y101.999 E1.22442
G1 X92.826 Y101.750 E1.23264
G1 X93.623 Y101.750 E1.25896
G1 X93.623 Y102.138 E1.27177
G1 X93.865 Y101.999 E1.28097
G1 X94.420 Y101.999 E1.29932
G1 X94.420 Y101.750 E1.30753
G1 X95.218 Y101.750 E1.33385
G1 X95.218 Y102.113 E1.34583
G1 X95.432 Y102.237 E1.35402
G1 X95.845 Y101.999 E1.36974
G1 X96.015 Y101.999 E1.37535
G1 X96.015 Y101.750 E1.38357
G1 X96.812 Y101.750 E1.40988
G1 X96.812 Y101.999 E1.41810
G1 X97.000 Y101.999 E1.42432
G1 X97.412 Y102.237 E1.44004
G1 X97.609 Y102.123 E1.44753
G1 X97.609 Y101.750 E1.45986
G1 X98.406 Y101.750 E1.48617
G1 X98.406 Y101.999 E1.49439
G1 X98.980 Y101.999 E1.51334
G1 X99.203 Y102.127 E1.52184
G1 X99.203 Y91.750 E1.86448
G1 X100.000 Y91.750 E1.89080
G1 X100.000 Y101.999 E2.22919
G1 X100.797 Y101.999 E2.25550
G1 X100.797 Y91.750 E2.59389
G1 X101.594 Y91.750 E2.62021
G1 X101.594 Y102.109 E2.96223
G1 X101.785 Y101.999 E2.96949
G1 X102.391 Y101.999 E2.98952
G1 X102.391 Y91.750 E3.32791
G1 X103.188 Y91.750 E3.35422
G1 X103.188 Y102.142 E3.69734
G1 X103.352 Y102.237 E3.70360
G1 X103.765 Y101.999 E3.71931
G1 X103.985 Y101.999 E3.72661
G1 X103.985 Y91.750 E4.06499
G1 X104.782 Y91.750 E4.09131
G1 X104.782 Y101.999 E4.42970
G1 X104.920 Y101.999 E4.43424
G1 X105.332 Y102.237 E4.44996
G1 X105.580 Y102.094 E4.45939
G1 X105.580 Y91.750 E4.80092
G1 X106.377 Y91.750 E4.82724
G1 X106.377 Y101.999 E5.16562
G1 X106.900 Y101.999 E5.18290
G1 X107.174 Y102.157 E5.19334
G1 X107.174 Y91.750 E5.53695
G1 X107.971 Y91.750 E5.56326
G1 X107.971 Y101.999 E5.90165
G1 X108.768 Y101.999 E5.92797
G1 X108.768 Y91.750 E6.26636
G1 X109.565 Y91.750 E6.29267
G1 X109.565 Y102.079 E6.63372
G1 X109.705 Y101.999 E6.63905
G1 X110.362 Y101.999 E6.66075
G1 X110.362 Y91.750 E6.99914
G1 X111.159 Y91.750 E7.02546
G1 X111.159 Y102.335 E7.37495
G1 X110.440 Y103.184 F7800.000
G1 F600
G1 X110.440 Y102.923 E7.38355
G1 X109.952 Y102.923 E7.39966
G1 X109.622 Y103.495 E7.42145
G1 X108.962 Y103.495 E7.44324
G1 X108.632 Y102.923 E7.46503
G1 X107.972 Y102.923 E7.48682
G1 X107.642 Y103.495 E7.50862
G1 X106.982 Y103.495 E7.53041
G1 X106.652 Y102.923 E7.55220
G1 X105.992 Y102.923 E7.57399
G1 X105.662 Y103.495 E7.59578
G1 X105.002 Y103.495 E7.61757
G1 X104.672 Y102.923 E7.63936
G1 X104.012 Y102.923 E7.66115
G1 X103.682 Y103.495 E7.68295
G1 X103.022 Y103.495 E7.70474
G1 X102.692 Y102.923 E7.72653
G1 X102.032 Y102.923 E7.74832
G1 X101.702 Y103.495 E7.77011
G1 X101.042 Y103.495 E7.79190
G1 X100.712 Y102.923 E7.81369
G1 X100.052 Y102.923 E7.83549
G1 X99.722 Y103.495 E7.85728
G1 X99.062 Y103.495 E7.87907
G1 X98.732 Y102.923 E7.90086
G1 X98.072 Y102.923 E7.92265
G1 X97.742 Y103.495 E7.94444
G1 X97.082 Y103.495 E7.96623
G1 X96.752 Y102.923 E7.98803
G1 X96.092 Y102.923 E8.00982
G1 X95.762 Y103.495 E8.03161
G1 X95.102 Y103.495 E8.05340
G1 X94.772 Y102.923 E8.07519
G1 X94.112 Y102.923 E8.09698
G1 X93.782 Y103.495 E8.11877
G1 X93.122 Y103.495 E8.14056
G1 X92.792 Y102.923 E8.16236
G1 X92.132 Y102.923 E8.18415
G1 X91.802 Y103.495 E8.20594
G1 X91.142 Y103.495 E8.22773
G1 X90.812 Y102.923 E8.24952
G1 X90.220 Y102.923 E8.26908
G1 X89.890 Y103.495 E8.29087
G1 X89.560 Y103.495 E8.30177
G1 X89.560 Y104.332 E8.32940
G1 X89.890 Y104.332 E8.34029
G1 X90.220 Y104.903 E8.36208
G1 X89.890 Y105.475 E8.38387
G1 X89.560 Y105.475 E8.39477
G1 X89.560 Y105.769 E8.40449
G1 X90.014 Y105.769 E8.41948
G1 X90.344 Y105.198 E8.44127
G1 X91.004 Y105.198 E8.46306
G1 X91.334 Y105.769 E8.48485
G1 X91.994 Y105.769 E8.50665
G1 X92.324 Y105.198 E8.52844
G1 X92.984 Y105.198 E8.55023
G1 X93.314 Y105.769 E8.57202
G1 X93.974 Y105.769 E8.59381
G1 X94.304 Y105.198 E8.61560
G1 X94.964 Y105.198 E8.63739
G1 X95.294 Y105.769 E8.65919
G1 X95.954 Y105.769 E8.68098
G1 X96.284 Y105.198 E8.70277
G1 X96.944 Y105.198 E8.72456
G1 X97.274 Y105.769 E8.74635
G1 X97.934 Y105.769 E8.76814
G1 X98.264 Y105.198 E8.78993
G1 X98.924 Y105.198 E8.81173
G1 X99.254 Y105.769 E8.83352
G1 X99.914 Y105.769 E8.85531
G1 X100.244 Y105.198 E8.87710
G1 X100.904 Y105.198 E8.89889
G1 X101.234 Y105.769 E8.92068
G1 X101.894 Y105.769 E8.94247
G1 X102.224 Y105.198 E8.96426
G1 X102.884 Y105.198 E8.98606
G1 X103.214 Y105.769 E9.00785
G1 X103.874 Y105.769 E9.02964
G1 X104.204 Y105.198 E9.05143
G1 X104.864 Y105.198 E9.07322
G1 X105.194 Y105.769 E9.09501
G1 X105.854 Y105.769 E9.11680
G1 X106.184 Y105.198 E9.13860
G1 X106.844 Y105.198 E9.16039
G1 X107.174 Y105.769 E9.18218
G1 X107.834 Y105.769 E9.20397
G1 X108.164 Y105.198 E9.22576
G1 X108.824 Y105.198 E9.24755
G1 X109.154 Y105.769 E9.26934
G1 X109.800 Y105.769 E9.29066
G1 X109.780 Y105.735 E9.29195
G1 X110.110 Y105.164 E9.31374
G1 X110.440 Y105.164 E9.32464
G1 X110.440 Y104.327 E9.35227
G1 X110.110 Y104.327 E9.36317
G1 X109.780 Y103.755 E9.38496
G1 X110.110 Y103.184 E9.40675
G1 X110.440 Y103.184 E9.41764
G1 X111.159 Y103.739 F7800.000
G1 F600
G1 X111.302 Y103.881 E9.42430
G1 X111.302 Y103.382 E9.44077
G1 X111.159 Y103.382 E9.44547
G1 X111.159 Y103.739 E9.45724
G1 E8.45724 F1800.00000
G92 E0
G1 X111.159 Y107.185 F7800.000
G1 E1.00000 F1800.00000
G1 F600
G1 X111.159 Y105.752 E1.04730
G1 X110.823 Y106.088 E1.06300
G1 X110.683 Y106.088 E1.06763
G1 X110.362 Y106.644 E1.08881
G1 X110.362 Y107.185 E1.10667
G1 X109.565 Y107.185 E1.13299
G1 X109.565 Y106.694 E1.14920
G1 X108.906 Y106.694 E1.17095
G1 X108.768 Y106.614 E1.17623
G1 X108.768 Y107.185 E1.19508
G1 X107.971 Y107.185 E1.22139
G1 X107.971 Y106.694 E1.23761
G1 X107.174 Y106.694 E1.26393
G1 X107.174 Y107.185 E1.28014
G1 X106.377 Y107.185 E1.30646
G1 X106.377 Y106.535 E1.32792
G1 X106.102 Y106.694 E1.33840
G1 X105.580 Y106.694 E1.35564
G1 X105.580 Y107.185 E1.37185
G1 X104.782 Y107.185 E1.39817
G1 X104.782 Y106.599 E1.41751
G1 X104.534 Y106.456 E1.42698
G1 X104.122 Y106.694 E1.44270
G1 X103.985 Y106.694 E1.44720
G1 X103.985 Y107.185 E1.46341
G1 X103.188 Y107.185 E1.48973
G1 X103.188 Y106.694 E1.50595
G1 X102.966 Y106.694 E1.51328
G1 X102.554 Y106.456 E1.52900
G1 X102.391 Y106.550 E1.53520
G1 X102.391 Y107.185 E1.55617
G1 X101.594 Y107.185 E1.58249
G1 X101.594 Y106.694 E1.59871
G1 X100.986 Y106.694 E1.61878
G1 X100.797 Y106.585 E1.62599
G1 X100.797 Y107.185 E1.64581
G1 X100.000 Y107.185 E1.67213
G1 X100.000 Y106.694 E1.68834
G1 X99.203 Y106.694 E1.71466
G1 X99.203 Y107.185 E1.73087
G1 X98.406 Y107.185 E1.75719
G1 X98.406 Y106.564 E1.77768
G1 X98.182 Y106.694 E1.78623
G1 X97.609 Y106.694 E1.80514
G1 X97.609 Y107.185 E1.82136
G1 X96.812 Y107.185 E1.84768
G1 X96.812 Y106.570 E1.86798
G1 X96.614 Y106.456 E1.87552
G1 X96.202 Y106.694 E1.89124
G1 X96.015 Y106.694 E1.89741
G1 X96.015 Y107.185 E1.91363
G1 X95.218 Y107.185 E1.93995
G1 X95.218 Y106.694 E1.95616
G1 X95.046 Y106.694 E1.96182
G1 X94.634 Y106.456 E1.97754
G1 X94.420 Y106.579 E1.98567
G1 X94.420 Y107.185 E2.00568
G1 X93.623 Y107.185 E2.03200
G1 X93.623 Y106.694 E2.04821
G1 X93.066 Y106.694 E2.06661
G1 X92.826 Y106.555 E2.07575
G1 X92.826 Y107.185 E2.09654
G1 X92.029 Y107.185 E2.12286
