; generated by Slic3r 1.3.0 on 2022-06-05 at 01:39:00

; external perimeters extrusion width = 0.44mm (1.67mm^3/s)
; perimeters extrusion width = 0.56mm (3.10mm^3/s)
; infill extrusion width = 0.50mm (5.48mm^3/s)
; solid infill extrusion width = 0.56mm (6.20mm^3/s)
; top infill extrusion width = 0.56mm (5.17mm^3/s)
; support material extrusion width = 0.44mm (4.76mm^3/s)

M107
M190 S50 ; set bed temperature and wait for it to be reached
M104 S205 ; set temperature
G28 ; home all axes
G1 Z5 F5000 ; lift nozzle

; Filament gcode

M109 S205 ; set temperature and wait for it to be reached
G21 ; set units to millimeters
G90 ; use absolute coordinates
M82 ; use absolute distances for extrusion
G92 E0
G1 E-1.00000 F1800.00000
G92 E0
G1 Z5.450 F7800.000
G1 X80.415 Y74.253 F7800.000
G1 E1.00000 F1800.00000
G1 F1080
G1 X82.168 Y72.774 E1.20854
G1 X84.320 Y71.981 E1.41708
G1 X85.500 Y71.875 E1.52479
G1 X114.500 Y71.875 E4.16175
G1 X116.759 Y72.272 E4.37029
G1 X118.747 Y73.415 E4.57884
G1 X120.226 Y75.168 E4.78738
G1 X121.019 Y77.320 E4.99592
G1 X121.125 Y78.500 E5.10363
G1 X121.125 Y93.500 E6.46757
G1 X120.972 Y94.914 E6.59693
G1 X115.070 Y121.923 E9.11080
G1 X114.474 Y123.568 E9.26983
G1 X114.170 Y124.151 E9.32963
G1 X112.775 Y125.971 E9.53818
G1 X110.843 Y127.207 E9.74672
G1 X108.294 Y127.717 E9.98312
G1 X91.706 Y127.717 E11.49146
G1 X89.447 Y127.320 E11.70000
G1 X87.459 Y126.177 E11.90854
G1 X85.830 Y124.151 E12.14494
G1 X85.526 Y123.568 E12.20475
G1 X84.930 Y121.923 E12.36378
G1 X79.028 Y94.914 E14.87765
G1 X78.875 Y93.500 E15.00700
G1 X78.875 Y78.500 E16.37095
G1 X79.272 Y76.241 E16.57949
G1 X80.386 Y74.305 E16.78258
G1 E15.78258 F1800.00000
G92 E0
G1 X108.598 Y79.491 F7800.000
G1 E1.00000 F1800.00000
G1 F1080
G1 X91.402 Y79.491 E1.91301
G1 X91.402 Y80.224 E1.95190
G1 X108.598 Y80.224 E2.86490
G1 X108.598 Y80.956 E2.90379
G1 X91.402 Y80.956 E3.81680
G1 X91.402 Y81.688 E3.85569
G1 X108.598 Y81.688 E4.76869
G1 X108.598 Y82.421 E4.80759
G1 X91.402 Y82.421 E5.72059
G1 X91.402 Y83.153 E5.75948
G1 X108.598 Y83.153 E6.67249
G1 X108.598 Y83.886 E6.71138
G1 X91.402 Y83.886 E7.62438
G1 X91.402 Y84.618 E7.66327
G1 X108.598 Y84.618 E8.57628
G1 X108.598 Y85.351 E8.61517
G1 X91.402 Y85.351 E9.52818
G1 X91.402 Y86.083 E9.56707
G1 X108.598 Y86.083 E10.48007
G1 X108.598 Y86.816 E10.51896
G1 X91.402 Y86.816 E11.43197
G1 X91.402 Y87.548 E11.47086
G1 X108.598 Y87.548 E12.38387
G1 X108.598 Y88.281 E12.42276
G1 X91.402 Y88.281 E13.33576
G1 X91.402 Y89.013 E13.37465
G1 X108.598 Y89.013 E14.28766
G1 X108.598 Y89.746 E14.32655
G1 X91.402 Y89.746 E15.23955
G1 X91.402 Y90.478 E15.27845
G1 X108.598 Y90.478 E16.19145
G1 X108.598 Y91.210 E16.23034
G1 X91.402 Y91.210 E17.14335
G1 X91.402 Y91.943 E17.18224
G1 X108.598 Y91.943 E18.09524
G1 X108.598 Y92.675 E18.13413
G1 X91.402 Y92.675 E19.04714
G1 X91.402 Y93.408 E19.08603
G1 X108.598 Y93.408 E19.99904
G1 X108.598 Y94.140 E20.03793
G1 X91.402 Y94.140 E20.95093
G1 X91.402 Y94.873 E20.98982
G1 X108.598 Y94.873 E21.90283
G1 X108.598 Y95.605 E21.94172
G1 X91.402 Y95.605 E22.85472
G1 X91.402 Y96.338 E22.89362
G1 X108.598 Y96.338 E23.80662
G1 X108.598 Y97.070 E23.84551
G1 X91.402 Y97.070 E24.75852
G1 X91.402 Y97.803 E24.79741
G1 X108.598 Y97.803 E25.71041
G1 X108.598 Y98.535 E25.74930
G1 X91.402 Y98.535 E26.66231
G1 X91.402 Y99.268 E26.70120
G1 X108.598 Y99.268 E27.61421
G1 X108.598 Y100.000 E27.65310
G1 X91.402 Y100.000 E28.56610
G1 X91.402 Y100.732 E28.60499
G1 X108.598 Y100.732 E29.51800
G1 X108.598 Y101.465 E29.55689
G1 X91.402 Y101.465 E30.46990
G1 X91.402 Y102.197 E30.50879
G1 X108.598 Y102.197 E31.42179
G1 X108.598 Y102.930 E31.46068
G1 X91.402 Y102.930 E32.37369
G1 X91.402 Y103.662 E32.41258
G1 X108.598 Y103.662 E33.32558
G1 X108.598 Y104.395 E33.36448
G1 X91.402 Y104.395 E34.27748
G1 X91.402 Y105.127 E34.31637
G1 X108.598 Y105.127 E35.22938
G1 X108.598 Y105.860 E35.26827
G1 X91.402 Y105.860 E36.18127
G1 X91.402 Y106.592 E36.22016
G1 X108.598 Y106.592 E37.13317
G1 X108.598 Y107.325 E37.17206
G1 X91.402 Y107.325 E38.08507
G1 X91.402 Y108.057 E38.12396
G1 X108.598 Y108.057 E39.03696
G1 X108.598 Y108.790 E39.07585
G1 X91.402 Y108.790 E39.98886
G1 X91.402 Y109.522 E40.02775
G1 X108.598 Y109.522 E40.94076
G1 X108.598 Y110.254 E40.97965
G1 X91.402 Y110.254 E41.89265
G1 X91.402 Y110.987 E41.93154
G1 X108.598 Y110.987 E42.84455
G1 X108.598 Y111.719 E42.88344
G1 X91.402 Y111.719 E43.79644
G1 X91.402 Y112.452 E43.83534
G1 X108.598 Y112.452 E44.74834
G1 X108.598 Y113.184 E44.78723
G1 X91.402 Y113.184 E45.70024
G1 X91.402 Y113.917 E45.73913
G1 X108.598 Y113.917 E46.65213
G1 X108.598 Y114.649 E46.69102
G1 X91.402 Y114.649 E47.60403
G1 X91.402 Y115.382 E47.64292
G1 X108.598 Y115.382 E48.55593
G1 X108.598 Y116.114 E48.59482
G1 X91.402 Y116.114 E49.50782
G1 X91.402 Y116.847 E49.54671
G1 X108.598 Y116.847 E50.45972
G1 X108.598 Y117.579 E50.49861
G1 X91.402 Y117.579 E51.41162
G1 X91.402 Y118.312 E51.45051
G1 X108.598 Y118.312 E52.36351
G1 X108.598 Y119.044 E52.40240
G1 X91.402 Y119.044 E53.31541
G1 X91.402 Y119.776 E53.35430
G1 X108.598 Y119.776 E54.26730
G1 X108.598 Y120.509 E54.30619
G1 X91.402 Y120.509 E55.21920
G1 E54.21920 F1800.00000
G92 E0
G1 X90.002 Y93.188 F7800.000
G1 E1.00000 F1800.00000
G1 F1080
G1 X90.468 Y93.188 E1.04235
G1 X90.468 Y87.305 E1.57722
G1 X90.279 Y87.289 E1.59443
G1 X90.002 Y87.205 E1.62077
G1 X90.002 Y93.188 E2.16474
G1 X88.752 Y93.188 F7800.000
G1 F1080
G1 X88.752 Y85.282 E2.88355
G1 X87.502 Y85.282 E2.99719
G1 X87.502 Y93.188 E3.71600
G1 X86.252 Y93.188 E3.82964
G1 X86.252 Y85.282 E4.54845
G1 E3.54845 F1800.00000
G92 E0
G1 X90.002 Y83.778 F7800.000
G1 E1.00000 F1800.00000
G1 F1080
G1 X90.002 Y78.812 E1.45148
G1 X88.752 Y78.812 E1.56512
G1 X88.752 Y83.778 E2.01659
G1 X87.502 Y83.778 E2.13023
G1 X87.502 Y78.812 E2.58171
G1 X86.252 Y78.812 E2.69535
G1 X86.252 Y83.778 E3.14683
G1 X85.812 Y83.778 E3.18684
G1 X85.812 Y78.812 E3.63831
G1 X86.252 Y78.812 E3.67832
G1 E2.67832 F1800.00000
G92 E0
G1 X109.998 Y83.778 F7800.000
G1 E1.00000 F1800.00000
G1 F1080
G1 X110.778 Y83.778 E1.07086
G1 X110.778 Y78.812 E1.52234
G1 X109.998 Y78.812 E1.59320
G1 X109.998 Y83.778 E2.04468
G1 E1.04468 F1800.00000
G92 E0
G1 X112.498 Y78.812 F7800.000
G1 E1.00000 F1800.00000
G1 F1080
G1 X112.062 Y78.812 E1.03959
G1 X112.062 Y93.188 E2.34671
G1 X112.498 Y93.188 E2.38629
G1 X112.498 Y78.812 E3.69342
G1 X113.748 Y78.812 E3.80706
G1 X113.748 Y93.188 E5.11418
G1 E4.11418 F1800.00000
G92 E0
G1 X109.998 Y93.188 F7800.000
G1 E1.00000 F1800.00000
G1 F1080
G1 X110.778 Y93.188 E1.07086
G1 X110.778 Y86.280 E1.69900
G1 X110.714 Y86.488 E1.71879
G1 X110.614 Y86.686 E1.73897
G1 X110.482 Y86.864 E1.75915
G1 X110.322 Y87.018 E1.77932
G1 X110.138 Y87.142 E1.79949
G1 X109.998 Y87.205 E1.81344
G1 X109.998 Y93.188 E2.35741
M106 S255
M104 S200 ; set temperature
M140 S45 ; set bed temperature
G1 E1.35741 F1800.00000
G92 E0
G1 Z5.750 F7800.000
G1 X91.706 Y78.908 F7800.000
G1 E1.00000 F1800.00000
G1 F2398.4
G1 X91.706 Y121.092 E2.97632
G1 X92.460 Y121.092 E3.01164
G1 X92.460 Y78.908 E4.98796
G1 X93.214 Y78.908 E5.02329
G1 X93.214 Y121.092 E6.99961
G1 X93.968 Y121.092 E7.03493
G1 X93.968 Y78.908 E9.01125
G1 X94.722 Y78.908 E9.04657
G1 X94.722 Y121.092 E11.02289
G1 X95.476 Y121.092 E11.05822
G1 X95.476 Y78.908 E13.03454
G1 X96.230 Y78.908 E13.06986
G1 X96.230 Y121.092 E15.04618
G1 X96.984 Y121.092 E15.08150
G1 X96.984 Y78.908 E17.05782
G1 X97.738 Y78.908 E17.09315
G1 X97.738 Y121.092 E19.06947
G1 X98.492 Y121.092 E19.10479
G1 X98.492 Y78.908 E21.08111
G1 X99.246 Y78.908 E21.11643
G1 X99.246 Y121.092 E23.09275
G1 X100.000 Y121.092 E23.12808
G1 X100.000 Y78.908 E25.10440
G1 X100.754 Y78.908 E25.13972
G1 X100.754 Y121.092 E27.11604
G1 X101.508 Y121.092 E27.15137
G1 X101.508 Y78.908 E29.12768
G1 X102.262 Y78.908 E29.16301
G1 X102.262 Y121.092 E31.13933
G1 X103.016 Y121.092 E31.17465
G1 X103.016 Y78.908 E33.15097
G1 X103.770 Y78.908 E33.18630
G1 X103.770 Y121.092 E35.16261
G1 X104.524 Y121.092 E35.19794
G1 X104.524 Y78.908 E37.17426
G1 X105.278 Y78.908 E37.20958
G1 X105.278 Y121.092 E39.18590
G1 X106.032 Y121.092 E39.22123
G1 X106.032 Y78.908 E41.19755
G1 X106.786 Y78.908 E41.23287
G1 X106.786 Y121.092 E43.20919
G1 X107.540 Y121.092 E43.24451
G1 X107.540 Y78.908 E45.22083
G1 X108.294 Y78.908 E45.25616
G1 X108.294 Y121.092 E47.23248
G1 E46.23248 F1800.00000
G92 E0
G1 X111.090 Y93.500 F7800.000
G1 E1.00000 F1800.00000
G1 F2398.4
G1 X111.090 Y84.970 E1.39962
G1 X109.220 Y84.970 E1.48723
G1 X109.220 Y85.048 E1.49088
G1 X109.416 Y85.009 E1.50023
G1 X109.584 Y85.009 E1.50813
G1 X109.751 Y85.038 E1.51603
G1 X109.910 Y85.094 E1.52394
G1 X110.057 Y85.176 E1.53184
G1 X110.188 Y85.282 E1.53974
G1 X110.300 Y85.409 E1.54765
G1 X110.388 Y85.552 E1.55555
G1 X110.451 Y85.709 E1.56345
G1 X110.487 Y85.874 E1.57136
G1 X110.494 Y86.042 E1.57926
G1 X110.472 Y86.210 E1.58716
G1 X110.423 Y86.371 E1.59506
G1 X110.347 Y86.521 E1.60297
G1 X110.247 Y86.657 E1.61087
G1 X110.125 Y86.774 E1.61877
G1 X109.985 Y86.868 E1.62668
G1 X109.831 Y86.938 E1.63458
G1 X109.668 Y86.980 E1.64248
G1 X109.500 Y86.995 E1.65039
G1 X109.220 Y86.951 E1.66366
G1 X109.220 Y93.500 E1.97047
G1 X111.090 Y93.500 E2.05808
G1 X110.516 Y92.926 F7800.000
G1 F2398.4
G1 X110.516 Y92.235 E2.09044
G1 X109.794 Y92.235 E2.12425
G1 X109.794 Y92.926 E2.15662
G1 X110.516 Y92.926 E2.19043
G1 X110.516 Y91.838 F7800.000
G1 F2398.4
G1 X110.516 Y87.194 E2.40798
G1 X110.266 Y87.371 E2.42232
G1 X110.023 Y87.481 E2.43480
G1 X109.794 Y87.541 E2.44589
G1 X109.794 Y91.838 E2.64722
G1 X110.516 Y91.838 E2.68103
G1 E1.68103 F1800.00000
G92 E0
G1 X113.199 Y88.941 F7800.000
G1 E1.00000 F1800.00000
G1 F2398.4
G1 X112.324 Y87.425 E1.08199
G1 X112.324 Y90.854 E1.24261
G1 X113.199 Y89.338 E1.32460
G1 X113.926 Y89.338 E1.35865
G1 X113.926 Y88.941 E1.37725
G1 X113.199 Y88.941 E1.41129
G1 X114.500 Y93.500 F7800.000
G1 F2398.4
G1 X114.500 Y78.500 E2.11403
G1 X111.750 Y78.500 E2.24286
G1 X111.750 Y93.500 E2.94560
G1 X114.500 Y93.500 E3.07444
G1 E2.07444 F1800.00000
G92 E0
G1 X111.090 Y84.090 F7800.000
G1 E1.00000 F1800.00000
G1 F2398.4
G1 X111.090 Y78.500 E1.26189
G1 X109.220 Y78.500 E1.34950
G1 X109.220 Y84.090 E1.61138
G1 X111.090 Y84.090 E1.69899
G1 X110.516 Y83.516 F7800.000
G1 F2398.4
G1 X110.516 Y80.647 E1.83341
G1 X109.794 Y80.647 E1.86722
G1 X109.794 Y83.516 E2.00163
G1 X110.516 Y83.516 E2.03544
G1 E1.03544 F1800.00000
G92 E0
G1 X113.199 Y83.147 F7800.000
G1 E1.00000 F1800.00000
G1 F2398.4
G1 X112.324 Y81.631 E1.08199
G1 X112.324 Y85.059 E1.24261
G1 X113.199 Y83.544 E1.32460
G1 X113.926 Y83.544 E1.35865
G1 X113.926 Y83.147 E1.37725
G1 X113.199 Y83.147 E1.41129
G1 E0.41129 F1800.00000
G92 E0
G1 X110.516 Y80.250 F7800.000
G1 E1.00000 F1800.00000
G1 F2398.4
G1 X110.516 Y79.074 E1.05507
G1 X109.794 Y79.074 E1.08888
G1 X109.794 Y80.250 E1.14395
G1 X110.516 Y80.250 E1.17776
G1 E0.17776 F1800.00000
G92 E0
G1 X112.324 Y79.265 F7800.000
G1 E1.00000 F1800.00000
G1 F2398.4
G1 X112.435 Y79.074 E1.01034
G1 X112.324 Y79.074 E1.01551
G1 X112.324 Y79.265 E1.02447
G1 E0.02447 F1800.00000
G92 E0
G1 X90.780 Y84.090 F7800.000
G1 E1.00000 F1800.00000
G1 F2398.4
G1 X90.780 Y78.500 E1.26189
G1 X85.500 Y78.500 E1.50925
G1 X85.500 Y84.090 E1.77114
G1 X90.780 Y84.090 E2.01850
G1 X90.206 Y83.516 F7800.000
G1 F2398.4
G1 X90.206 Y80.647 E2.15292
G1 X88.110 Y80.647 E2.25112
G1 X86.666 Y83.147 E2.38636
G1 X86.074 Y83.147 E2.41411
G1 X86.074 Y83.516 E2.43140
G1 X90.206 Y83.516 E2.62497
G1 X90.780 Y85.048 F7800.000
G1 F2398.4
G1 X90.780 Y84.970 E2.62862
G1 X85.500 Y84.970 E2.87598
G1 X85.500 Y93.500 E3.27560
G1 X90.780 Y93.500 E3.52297
G1 X90.780 Y86.951 E3.82978
G1 X90.500 Y86.995 E3.84305
G1 X90.332 Y86.980 E3.85096
G1 X90.169 Y86.938 E3.85886
G1 X90.015 Y86.868 E3.86676
G1 X89.875 Y86.774 E3.87466
G1 X89.753 Y86.657 E3.88257
G1 X89.653 Y86.521 E3.89047
G1 X89.577 Y86.371 E3.89837
G1 X89.528 Y86.210 E3.90628
G1 X89.506 Y86.042 E3.91418
G1 X89.513 Y85.874 E3.92208
G1 X89.549 Y85.709 E3.92999
G1 X89.612 Y85.552 E3.93789
G1 X89.700 Y85.409 E3.94579
G1 X89.812 Y85.282 E3.95370
G1 X89.943 Y85.176 E3.96160
G1 X90.090 Y85.094 E3.96950
G1 X90.249 Y85.038 E3.97741
G1 X90.417 Y85.009 E3.98535
G1 X90.583 Y85.009 E3.99317
G1 X90.780 Y85.048 E4.00256
G1 X88.942 Y85.800 F7800.000
G1 F2398.4
G1 X88.997 Y85.544 E4.01484
G1 X87.821 Y85.544 E4.06993
G1 X88.110 Y86.044 E4.09696
G1 X88.932 Y86.044 E4.13545
G1 X88.942 Y85.800 E4.14686
G1 X89.042 Y86.586 F7800.000
G1 F2398.4
G1 X88.998 Y86.441 E4.15396
G1 X88.110 Y86.441 E4.19558
G1 X86.666 Y88.941 E4.33082
G1 X86.074 Y88.941 E4.35857
G1 X86.074 Y89.338 E4.37717
G1 X86.666 Y89.338 E4.40492
G1 X88.110 Y91.838 E4.54016
G1 X90.206 Y91.838 E4.63836
G1 X90.206 Y87.541 E4.83968
G1 X89.977 Y87.481 E4.85077
G1 X89.734 Y87.371 E4.86325
G1 X89.513 Y87.222 E4.87573
G1 X89.321 Y87.038 E4.88821
G1 X89.162 Y86.824 E4.90070
G1 X89.042 Y86.586 E4.91318
G1 E3.91318 F1800.00000
G92 E0
G1 X90.206 Y80.250 F7800.000
G1 E1.00000 F1800.00000
G1 F2398.4
G1 X90.206 Y79.074 E1.05507
G1 X87.431 Y79.074 E1.18506
G1 X88.110 Y80.250 E1.24865
G1 X90.206 Y80.250 E1.34685
G1 E0.34685 F1800.00000
G92 E0
G1 X90.206 Y92.926 F7800.000
G1 E1.00000 F1800.00000
G1 F2398.4
G1 X90.206 Y92.235 E1.03236
G1 X88.110 Y92.235 E1.13056
G1 X87.711 Y92.926 E1.16793
G1 X90.206 Y92.926 E1.28482
G1 E0.28482 F1800.00000
G92 E0
G1 Z6.050 F7800.000
G1 X108.592 Y79.642 F7800.000
G1 E1.00000 F1800.00000
G1 F2396.47
G1 X91.408 Y79.642 E1.80509
G1 X91.408 Y80.396 E1.84041
G1 X108.592 Y80.396 E2.64550
G1 X108.592 Y81.150 E2.68082
G1 X91.408 Y81.150 E3.48591
G1 X91.408 Y81.904 E3.52123
G1 X108.592 Y81.904 E4.32632
G1 X108.592 Y82.658 E4.36164
G1 X91.408 Y82.658 E5.16673
G1 X91.408 Y83.412 E5.20205
G1 X108.592 Y83.412 E6.00714
G1 X108.592 Y84.166 E6.04246
G1 X91.408 Y84.166 E6.84755
G1 X91.408 Y84.920 E6.88287
G1 X108.592 Y84.920 E7.68796
G1 X108.592 Y85.674 E7.72328
G1 X91.408 Y85.674 E8.52837
G1 X91.408 Y86.428 E8.56370
G1 X108.592 Y86.428 E9.36878
G1 X108.592 Y87.182 E9.40411
G1 X91.408 Y87.182 E10.20919
G1 X91.408 Y87.936 E10.24452
G1 X108.592 Y87.936 E11.04960
G1 X108.592 Y88.690 E11.08493
G1 X91.408 Y88.690 E11.89001
G1 X91.408 Y89.444 E11.92534
G1 X108.592 Y89.444 E12.73042
G1 X108.592 Y90.198 E12.76575
G1 X91.408 Y90.198 E13.57083
G1 X91.408 Y90.952 E13.60616
G1 X108.592 Y90.952 E14.41125
G1 X108.592 Y91.706 E14.44657
G1 X91.408 Y91.706 E15.25166
G1 X91.408 Y92.460 E15.28698
G1 X108.592 Y92.460 E16.09207
G1 X108.592 Y93.214 E16.12739
G1 X91.408 Y93.214 E16.93248
G1 X91.408 Y93.968 E16.96780
G1 X108.592 Y93.968 E17.77289
G1 X108.592 Y94.722 E17.80821
G1 X91.408 Y94.722 E18.61330
G1 X91.408 Y95.476 E18.64862
G1 X108.592 Y95.476 E19.45371
G1 X108.592 Y96.230 E19.48903
G1 X91.408 Y96.230 E20.29412
G1 X91.408 Y96.984 E20.32944
G1 X108.592 Y96.984 E21.13453
G1 X108.592 Y97.738 E21.16985
G1 X91.408 Y97.738 E21.97494
G1 X91.408 Y98.492 E22.01027
G1 X108.592 Y98.492 E22.81535
G1 X108.592 Y99.246 E22.85068
G1 X91.408 Y99.246 E23.65576
G1 X91.408 Y100.000 E23.69109
G1 X108.592 Y100.000 E24.49617
G1 X108.592 Y100.754 E24.53150
G1 X91.408 Y100.754 E25.33658
G1 X91.408 Y101.508 E25.37191
G1 X108.592 Y101.508 E26.17699
G1 X108.592 Y102.262 E26.21232
G1 X91.408 Y102.262 E27.01740
G1 X91.408 Y103.016 E27.05273
G1 X108.592 Y103.016 E27.85781
G1 X108.592 Y103.770 E27.89314
G1 X91.408 Y103.770 E28.69823
G1 X91.408 Y104.524 E28.73355
G1 X108.592 Y104.524 E29.53864
G1 X108.592 Y105.278 E29.57396
G1 X91.408 Y105.278 E30.37905
G1 X91.408 Y106.032 E30.41437
G1 X108.592 Y106.032 E31.21946
G1 X108.592 Y106.786 E31.25478
