; generated by Slic3r 1.3.0 on 2022-06-01 at 18:49:44

; external perimeters extrusion width = 0.44mm (1.67mm^3/s)
; perimeters extrusion width = 0.56mm (3.10mm^3/s)
; infill extrusion width = 0.50mm (5.48mm^3/s)
; solid infill extrusion width = 0.56mm (6.20mm^3/s)
; top infill extrusion width = 0.56mm (5.17mm^3/s)
; support material extrusion width = 0.44mm (4.76mm^3/s)

M107
M190 S65 ; set bed temperature and wait for it to be reached
M104 S205 ; set temperature
G28 ; home all axes
G1 Z5 F5000 ; lift nozzle

; Filament gcode

M109 S205 ; set temperature and wait for it to be reached
G21 ; set units to millimeters
G90 ; use absolute coordinates
M82 ; use absolute distances for extrusion
G92 E0
G1 E-1.00000 F1800.00000
G92 E0
G1 Z0.950 F7800.000
G1 X89.877 Y83.697 F7800.000
G1 E1.00000 F1800.00000
G1 F1019.96
G1 X91.898 Y82.614 E1.20854
G1 X93.968 Y82.283 E1.39912
G1 X106.032 Y82.283 E2.49610
G1 X108.291 Y82.680 E2.70464
G1 X110.279 Y83.823 E2.91318
G1 X111.655 Y85.404 E3.10377
G1 X111.720 Y85.510 E3.11506
G1 X112.578 Y87.637 E3.32360
G1 X112.723 Y89.013 E3.44943
G1 X112.723 Y110.987 E5.44750
G1 X112.326 Y113.246 E5.65605
G1 X111.720 Y114.490 E5.78188
G1 X111.655 Y114.596 E5.79317
G1 X110.123 Y116.303 E6.00171
G1 X108.102 Y117.386 E6.21026
G1 X106.032 Y117.717 E6.40084
G1 X93.968 Y117.717 E7.49781
G1 X91.709 Y117.320 E7.70635
G1 X89.721 Y116.177 E7.91490
G1 X88.345 Y114.596 E8.10548
G1 X88.280 Y114.490 E8.11677
G1 X87.422 Y112.363 E8.32531
G1 X87.277 Y110.987 E8.45114
G1 X87.277 Y89.013 E10.44922
G1 X87.674 Y86.754 E10.65776
G1 X88.345 Y85.404 E10.79483
G1 X89.837 Y83.742 E10.99791
G1 E9.99791 F1800.00000
G92 E0
G1 X106.098 Y89.013 F7800.000
G1 E1.00000 F1800.00000
G1 F1019.96
G1 X93.902 Y89.013 E1.64752
G1 X93.902 Y89.746 E1.68642
G1 X106.098 Y89.746 E2.33394
G1 X106.098 Y90.478 E2.37283
G1 X93.902 Y90.478 E3.02036
G1 X93.902 Y91.210 E3.05925
G1 X106.098 Y91.210 E3.70677
G1 X106.098 Y91.943 E3.74566
G1 X93.902 Y91.943 E4.39319
G1 X93.902 Y92.675 E4.43208
G1 X106.098 Y92.675 E5.07960
G1 X106.098 Y93.408 E5.11849
G1 X93.902 Y93.408 E5.76602
G1 X93.902 Y94.140 E5.80491
G1 X106.098 Y94.140 E6.45243
G1 X106.098 Y94.873 E6.49132
G1 X93.902 Y94.873 E7.13885
G1 X93.902 Y95.605 E7.17774
G1 X106.098 Y95.605 E7.82526
G1 X106.098 Y96.338 E7.86415
G1 X93.902 Y96.338 E8.51168
G1 X93.902 Y97.070 E8.55057
G1 X106.098 Y97.070 E9.19809
G1 X106.098 Y97.803 E9.23698
G1 X93.902 Y97.803 E9.88451
G1 X93.902 Y98.535 E9.92340
G1 X106.098 Y98.535 E10.57092
G1 X106.098 Y99.268 E10.60981
G1 X93.902 Y99.268 E11.25734
G1 X93.902 Y100.000 E11.29623
G1 X106.098 Y100.000 E11.94375
G1 X106.098 Y100.732 E11.98265
G1 X93.902 Y100.732 E12.63017
G1 X93.902 Y101.465 E12.66906
G1 X106.098 Y101.465 E13.31659
G1 X106.098 Y102.197 E13.35548
G1 X93.902 Y102.197 E14.00300
G1 X93.902 Y102.930 E14.04189
G1 X106.098 Y102.930 E14.68942
G1 X106.098 Y103.662 E14.72831
G1 X93.902 Y103.662 E15.37583
G1 X93.902 Y104.395 E15.41472
G1 X106.098 Y104.395 E16.06225
G1 X106.098 Y105.127 E16.10114
G1 X93.902 Y105.127 E16.74866
G1 X93.902 Y105.860 E16.78755
G1 X106.098 Y105.860 E17.43508
G1 X106.098 Y106.592 E17.47397
G1 X93.902 Y106.592 E18.12149
G1 X93.902 Y107.325 E18.16038
G1 X106.098 Y107.325 E18.80791
G1 X106.098 Y108.057 E18.84680
G1 X93.902 Y108.057 E19.49432
G1 X93.902 Y108.790 E19.53321
G1 X106.098 Y108.790 E20.18074
G1 X106.098 Y109.522 E20.21963
G1 X93.902 Y109.522 E20.86715
G1 X93.902 Y110.254 E20.90604
G1 X106.098 Y110.254 E21.55357
G1 X106.098 Y110.987 E21.59246
G1 X93.902 Y110.987 E22.23998
M106 S255
M104 S200 ; set temperature
M140 S60 ; set bed temperature
G1 E21.23998 F1800.00000
G92 E0
G1 Z1.250 F7800.000
G1 X106.032 Y111.092 F7800.000
G1 E1.00000 F1800.00000
G1 F778.404
G1 X106.032 Y88.908 E2.03933
G1 X105.278 Y88.908 E2.07466
G1 X105.278 Y111.092 E3.11399
G1 X104.524 Y111.092 E3.14931
G1 X104.524 Y88.908 E4.18865
G1 X103.770 Y88.908 E4.22397
G1 X103.770 Y111.092 E5.26330
G1 X103.016 Y111.092 E5.29863
G1 X103.016 Y88.908 E6.33796
G1 X102.262 Y88.908 E6.37329
G1 X102.262 Y111.092 E7.41262
G1 X101.508 Y111.092 E7.44794
G1 X101.508 Y88.908 E8.48727
G1 X100.754 Y88.908 E8.52260
G1 X100.754 Y111.092 E9.56193
G1 X100.000 Y111.092 E9.59726
G1 X100.000 Y88.908 E10.63659
G1 X99.246 Y88.908 E10.67191
G1 X99.246 Y111.092 E11.71125
G1 X98.492 Y111.092 E11.74657
G1 X98.492 Y88.908 E12.78590
G1 X97.738 Y88.908 E12.82123
G1 X97.738 Y111.092 E13.86056
G1 X96.984 Y111.092 E13.89588
G1 X96.984 Y88.908 E14.93522
G1 X96.230 Y88.908 E14.97054
G1 X96.230 Y111.092 E16.00987
G1 X95.476 Y111.092 E16.04520
G1 X95.476 Y88.908 E17.08453
G1 X94.722 Y88.908 E17.11986
G1 X94.722 Y111.092 E18.15919
G1 X93.968 Y111.092 E18.19451
G1 X93.968 Y88.908 E19.23385
G1 E18.23385 F1800.00000
G92 E0
G1 Z1.550 F7800.000
G1 X106.092 Y89.444 F7800.000
G1 E1.00000 F1800.00000
G1 F1032.74
G1 X93.908 Y89.444 E1.57084
G1 X93.908 Y90.198 E1.60616
G1 X106.092 Y90.198 E2.17700
G1 X106.092 Y90.952 E2.21233
G1 X93.908 Y90.952 E2.78317
G1 X93.908 Y91.706 E2.81849
G1 X106.092 Y91.706 E3.38933
G1 X106.092 Y92.460 E3.42466
G1 X93.908 Y92.460 E3.99549
G1 X93.908 Y93.214 E4.03082
G1 X106.092 Y93.214 E4.60166
G1 X106.092 Y93.968 E4.63698
G1 X93.908 Y93.968 E5.20782
G1 X93.908 Y94.722 E5.24315
G1 X106.092 Y94.722 E5.81399
G1 X106.092 Y95.476 E5.84931
G1 X93.908 Y95.476 E6.42015
G1 X93.908 Y96.230 E6.45547
G1 X106.092 Y96.230 E7.02631
G1 X106.092 Y96.984 E7.06164
G1 X93.908 Y96.984 E7.63248
G1 X93.908 Y97.738 E7.66780
G1 X106.092 Y97.738 E8.23864
G1 X106.092 Y98.492 E8.27397
G1 X93.908 Y98.492 E8.84481
G1 X93.908 Y99.246 E8.88013
G1 X106.092 Y99.246 E9.45097
G1 X106.092 Y100.000 E9.48629
G1 X93.908 Y100.000 E10.05713
G1 X93.908 Y100.754 E10.09246
G1 X106.092 Y100.754 E10.66330
G1 X106.092 Y101.508 E10.69862
G1 X93.908 Y101.508 E11.26946
G1 X93.908 Y102.262 E11.30479
G1 X106.092 Y102.262 E11.87562
G1 X106.092 Y103.016 E11.91095
G1 X93.908 Y103.016 E12.48179
G1 X93.908 Y103.770 E12.51711
G1 X106.092 Y103.770 E13.08795
G1 X106.092 Y104.524 E13.12328
G1 X93.908 Y104.524 E13.69412
G1 X93.908 Y105.278 E13.72944
G1 X106.092 Y105.278 E14.30028
G1 X106.092 Y106.032 E14.33560
G1 X93.908 Y106.032 E14.90644
G1 X93.908 Y106.786 E14.94177
G1 X106.092 Y106.786 E15.51261
G1 X106.092 Y107.540 E15.54793
G1 X93.908 Y107.540 E16.11877
G1 X93.908 Y108.294 E16.15410
G1 X106.092 Y108.294 E16.72494
G1 X106.092 Y109.048 E16.76026
G1 X93.908 Y109.048 E17.33110
G1 X93.908 Y109.802 E17.36642
G1 X106.092 Y109.802 E17.93726
G1 X106.092 Y110.556 E17.97259
G1 X93.908 Y110.556 E18.54343
G1 E17.54343 F1800.00000
G92 E0
G1 Z2.150 F7800.000
G1 X102.735 Y102.023 F7800.000
G1 E1.00000 F1800.00000
M106 S255

G1 F3600
G1 X102.354 Y102.456 E1.03014
G1 X101.905 Y102.818 E1.06029
G1 X101.401 Y103.100 E1.09043
G1 X100.857 Y103.292 E1.12057
G1 X100.307 Y103.386 E1.14971
G1 X100.000 Y103.399 E1.16578
G1 X99.693 Y103.386 E1.18186
G1 X99.143 Y103.292 E1.21100
G1 X98.599 Y103.100 E1.24114
G1 X98.095 Y102.818 E1.27128
G1 X97.646 Y102.456 E1.30143
G1 X97.265 Y102.023 E1.33157
G1 X96.956 Y101.520 E1.36240
G1 X96.747 Y100.994 E1.39197
G1 X96.626 Y100.432 E1.42200
G1 X96.601 Y99.856 E1.45215
G1 X96.675 Y99.283 E1.48229
G1 X96.844 Y98.732 E1.51243
G1 X97.103 Y98.217 E1.54257
G1 X97.447 Y97.753 E1.57272
G1 X97.863 Y97.353 E1.60286
G1 X98.341 Y97.030 E1.63300
G1 X98.867 Y96.793 E1.66314
G1 X99.425 Y96.647 E1.69329
G1 X99.967 Y96.601 E1.72170
G1 X100.570 Y96.646 E1.75330
G1 X101.133 Y96.793 E1.78369
G1 X101.659 Y97.030 E1.81384
G1 X102.137 Y97.353 E1.84398
G1 X102.553 Y97.753 E1.87412
G1 X102.897 Y98.217 E1.90426
G1 X103.185 Y98.789 E1.93773
G1 X103.327 Y99.294 E1.96516
G1 X103.399 Y99.856 E1.99474
G1 X103.374 Y100.432 E2.02488
G1 X103.252 Y100.996 E2.05502
G1 X103.037 Y101.531 E2.08517
G1 X102.766 Y101.972 E2.11217
M106 S255

G1 X102.465 Y101.823 F7800.000
M106 S255

G1 F3600
G1 X102.122 Y102.214 E2.13934
G1 X101.717 Y102.540 E2.16652
G1 X101.263 Y102.794 E2.19369
G1 X100.773 Y102.967 E2.22086
G1 X100.272 Y103.053 E2.24740
G1 X99.728 Y103.053 E2.27581
G1 X99.227 Y102.967 E2.30235
G1 X98.737 Y102.794 E2.32952
G1 X98.283 Y102.540 E2.35669
G1 X97.878 Y102.214 E2.38386
G1 X97.535 Y101.823 E2.41103
G1 X97.256 Y101.370 E2.43885
G1 X97.068 Y100.897 E2.46545
G1 X96.959 Y100.389 E2.49255
G1 X96.937 Y99.870 E2.51972
G1 X97.003 Y99.354 E2.54690
G1 X97.155 Y98.857 E2.57407
G1 X97.389 Y98.392 E2.60124
G1 X97.698 Y97.974 E2.62841
G1 X98.074 Y97.614 E2.65558
G1 X98.505 Y97.323 E2.68275
G1 X98.979 Y97.109 E2.70992
G1 X99.482 Y96.978 E2.73709
G1 X99.969 Y96.936 E2.76263
G1 X100.515 Y96.977 E2.79125
G1 X101.021 Y97.109 E2.81858
G1 X101.495 Y97.323 E2.84575
G1 X101.926 Y97.614 E2.87292
G1 X102.302 Y97.974 E2.90009
G1 X102.611 Y98.392 E2.92727
G1 X102.872 Y98.910 E2.95755
G1 X102.998 Y99.361 E2.98201
G1 X103.063 Y99.870 E3.00882
G1 X103.041 Y100.389 E3.03599
G1 X102.932 Y100.898 E3.06317
G1 X102.738 Y101.380 E3.09034
G1 X102.497 Y101.772 E3.11437
M106 S255

G1 X102.188 Y101.618 F7800.000
M106 S255

G1 F3600
G1 X101.883 Y101.964 E3.13848
G1 X101.524 Y102.254 E3.16259
G1 X101.121 Y102.479 E3.18670
G1 X100.686 Y102.633 E3.21081
G1 X100.235 Y102.710 E3.23468
G1 X99.765 Y102.710 E3.25927
G1 X99.314 Y102.633 E3.28313
G1 X98.879 Y102.479 E3.30724
G1 X98.476 Y102.254 E3.33135
G1 X98.117 Y101.964 E3.35546
G1 X97.812 Y101.618 E3.37957
G1 X97.564 Y101.215 E3.40429
G1 X97.398 Y100.796 E3.42783
G1 X97.301 Y100.346 E3.45191
G1 X97.282 Y99.885 E3.47602
G1 X97.340 Y99.427 E3.50013
G1 X97.475 Y98.986 E3.52424
G1 X97.683 Y98.573 E3.54835
G1 X97.958 Y98.202 E3.57246
G1 X98.291 Y97.883 E3.59657
G1 X98.673 Y97.625 E3.62068
G1 X99.094 Y97.435 E3.64479
G1 X99.540 Y97.318 E3.66890
G1 X99.971 Y97.282 E3.69147
G1 X100.459 Y97.318 E3.71704
G1 X100.906 Y97.435 E3.74121
G1 X101.327 Y97.625 E3.76532
G1 X101.709 Y97.883 E3.78943
G1 X102.042 Y98.202 E3.81354
G1 X102.317 Y98.573 E3.83765
G1 X102.550 Y99.035 E3.86466
G1 X102.660 Y99.429 E3.88606
G1 X102.718 Y99.885 E3.91003
G1 X102.699 Y100.346 E3.93414
G1 X102.602 Y100.797 E3.95825
G1 X102.429 Y101.225 E3.98236
G1 X102.219 Y101.567 E4.00333
M106 S255

G1 E3.00333 F1800.00000
G92 E0
G1 X104.102 Y109.102 F7800.000
G1 E1.00000 F1800.00000
M106 S255

G1 F3600
G1 X95.898 Y109.102 E1.42858
G1 X95.898 Y90.898 E2.37962
G1 X104.102 Y90.898 E2.80820
G1 X104.102 Y109.042 E3.75610
M106 S255

G1 X104.436 Y109.436 F7800.000
M106 S255

G1 F3600
G1 X95.564 Y109.436 E4.21960
G1 X95.564 Y90.564 E5.20555
G1 X104.436 Y90.564 E5.66905
G1 X104.436 Y109.376 E6.65186
M106 S255

G1 X104.780 Y109.780 F7800.000
M106 S255

G1 F3600
G1 X95.220 Y109.780 E7.15133
G1 X95.220 Y90.220 E8.17324
G1 X104.780 Y90.220 E8.67270
G1 X104.780 Y109.720 E9.69147
M106 S255

G1 E8.69147 F1800.00000
G92 E0
G1 X103.862 Y101.410 F7800.000
G1 E1.00000 F1800.00000
M106 S255

G1 F3600
G1 X103.557 Y101.105 E1.02336
G1 X103.423 Y101.091 E1.03065
G1 X103.272 Y101.467 E1.05258
G1 X103.862 Y102.057 E1.09776
G1 X103.862 Y102.704 E1.13276
G1 X103.037 Y101.879 E1.19590
G1 X102.899 Y102.104 E1.21023
G1 X102.766 Y102.254 E1.22107
G1 X103.862 Y103.350 E1.30495
G1 X103.862 Y103.997 E1.33996
G1 X102.462 Y102.597 E1.44715
G1 X102.104 Y102.885 E1.47204
G1 X103.862 Y104.643 E1.60662
G1 X103.862 Y105.290 E1.64163
G1 X101.711 Y103.138 E1.80636
G1 X101.411 Y103.306 E1.82495
G1 X101.278 Y103.352 E1.83256
G1 X103.862 Y105.936 E2.03038
G1 X103.862 Y106.583 E2.06539
G1 X100.800 Y103.521 E2.29983
G1 X100.248 Y103.615 E2.33015
G1 X103.862 Y107.229 E2.60685
G1 X103.862 Y107.876 E2.64185
G1 X99.615 Y103.629 E2.96700
G1 X99.499 Y103.624 E2.97333
G1 X98.842 Y103.503 E3.00945
G1 X103.862 Y108.523 E3.39378
G1 X103.862 Y108.862 E3.41216
G1 X103.555 Y108.862 E3.42878
G1 X97.527 Y102.834 E3.89032
M106 S255

G1 X97.100 Y102.407 F7800.000
M106 S255

G1 F3600
G1 X96.138 Y101.445 E3.96397
G1 X96.138 Y102.091 E3.99897
G1 X102.909 Y108.862 E4.51735
G1 X102.262 Y108.862 E4.55236
G1 X96.138 Y102.738 E5.02124
G1 X96.138 Y103.385 E5.05624
G1 X101.615 Y108.862 E5.47562
G1 X100.969 Y108.862 E5.51062
G1 X96.138 Y104.031 E5.88050
G1 X96.138 Y104.678 E5.91550
G1 X100.322 Y108.862 E6.23587
G1 X99.676 Y108.862 E6.27087
G1 X96.138 Y105.324 E6.54175
G1 X96.138 Y105.971 E6.57675
G1 X99.029 Y108.862 E6.79812
G1 X98.383 Y108.862 E6.83312
G1 X96.138 Y106.617 E7.00499
G1 X96.138 Y107.264 E7.03999
G1 X97.736 Y108.862 E7.16236
G1 X97.090 Y108.862 E7.19736
G1 X96.138 Y107.910 E7.27022
G1 X96.138 Y108.557 E7.30523
G1 X96.443 Y108.862 E7.32857
M106 S255

G1 E6.32857 F1800.00000
G92 E0
G1 X96.304 Y100.861 F7800.000
G1 E1.00000 F1800.00000
G1 F600
G1 X96.265 Y100.495 E1.02109
G1 F600
G1 X96.250 Y99.825 E1.05278
G1 F600
G1 X96.292 Y99.181 E1.08919
G1 X96.443 Y98.940 F7800.000
M106 S255

G1 F3600
G1 X96.138 Y98.635 E1.11270
G1 X96.138 Y97.987 E1.14806
G1 X96.717 Y98.566 E1.19273
G1 X96.939 Y98.139 E1.21897
G1 X96.138 Y97.338 E1.28069
G1 X96.138 Y96.690 E1.31604
G1 X97.214 Y97.766 E1.39902
G1 X97.304 Y97.645 E1.40722
G1 X97.527 Y97.431 E1.42412
G1 X96.138 Y96.041 E1.53124
G1 X96.138 Y95.393 E1.56659
G1 X97.874 Y97.129 E1.70042
G1 X98.261 Y96.867 E1.72588
G1 X96.138 Y94.744 E1.88955
G1 X96.138 Y94.096 E1.92490
G1 X98.701 Y96.659 E2.12251
G1 X98.888 Y96.574 E2.13370
G1 X99.187 Y96.496 E2.15055
G1 X96.138 Y93.447 E2.38563
G1 X96.138 Y92.798 E2.42099
G1 X99.733 Y96.393 E2.69812
G1 X100.117 Y96.360 E2.71917
G1 X100.367 Y96.379 E2.73281
G1 X96.138 Y92.150 E3.05885
G1 X96.138 Y91.501 E3.09421
G1 X101.138 Y96.502 E3.47970
G1 X101.417 Y96.574 E3.49539
G1 X102.003 Y96.839 E3.53048
G1 X102.377 Y97.092 E3.55507
G1 X96.423 Y91.138 E4.01409
G1 X97.072 Y91.138 E4.04945
G1 X103.862 Y97.928 E4.57296
G1 X103.862 Y97.280 E4.60831
G1 X97.720 Y91.138 E5.08182
G1 X98.369 Y91.138 E5.11718
G1 X103.862 Y96.631 E5.54069
G1 X103.862 Y95.983 E5.57605
G1 X99.017 Y91.138 E5.94956
G1 X99.666 Y91.138 E5.98491
G1 X103.862 Y95.334 E6.30843
G1 X103.862 Y94.686 E6.34378
G1 X100.314 Y91.138 E6.61730
G1 X100.963 Y91.138 E6.65265
G1 X103.862 Y94.037 E6.87617
G1 X103.862 Y93.389 E6.91153
G1 X101.611 Y91.138 E7.08504
G1 X102.260 Y91.138 E7.12040
G1 X103.862 Y92.740 E7.24392
G1 X103.862 Y92.092 E7.27927
G1 X102.908 Y91.138 E7.35279
G1 X103.557 Y91.138 E7.38815
G1 X103.862 Y91.443 E7.41167
M106 S255

G1 E6.41167 F1800.00000
G92 E0
G1 X102.072 Y96.787 F7800.000
G1 E1.00000 F1800.00000
M106 S255

G1 F3600
G1 X102.232 Y96.895 E1.01050
G1 X102.696 Y97.340 E1.04559
G1 X102.898 Y97.613 E1.06408
G1 X103.862 Y98.577 E1.13840
M106 S255

G1 X103.707 Y99.164 F7800.000
G1 F600
G1 X103.728 Y99.495 E1.15719
G1 F600
G1 X103.750 Y99.856 E1.17432
G1 F600
G1 X103.737 Y100.462 E1.20908
G1 X103.696 Y100.862 E1.23219
G1 E0.23219 F1800.00000
G92 E0
G1 Z2.350 F7800.000
G1 X101.310 Y102.897 F7800.000
G1 E1.00000 F1800.00000
G1 F600
G1 X100.801 Y103.077 E1.02319
G1 X100.284 Y103.166 E1.04575
G1 X99.716 Y103.166 E1.07016
G1 X99.199 Y103.077 E1.09273
G1 X98.690 Y102.897 E1.11592
G1 X98.220 Y102.634 E1.13910
G1 X97.800 Y102.295 E1.16229
G1 X97.444 Y101.891 E1.18548
G1 X97.161 Y101.431 E1.20866
G1 X96.989 Y101.004 E1.22846
G1 X96.847 Y100.412 E1.25465
G1 X96.823 Y99.865 E1.27819
G1 X96.892 Y99.330 E1.30137
G1 X97.050 Y98.814 E1.32456
G1 X97.293 Y98.333 E1.34775
G1 X97.613 Y97.899 E1.37093
G1 X98.003 Y97.526 E1.39412
G1 X98.449 Y97.224 E1.41731
G1 X98.941 Y97.002 E1.44049
G1 X99.463 Y96.866 E1.46368
G1 X99.921 Y96.827 E1.48348
G1 X100.529 Y96.864 E1.50966
G1 X101.059 Y97.002 E1.53321
G1 X101.551 Y97.224 E1.55639
G1 X101.997 Y97.526 E1.57958
G1 X102.387 Y97.899 E1.60277
G1 X102.707 Y98.333 E1.62595
G1 X102.950 Y98.814 E1.64914
G1 X103.108 Y99.330 E1.67233
