; generated by Slic3r 1.3.0 on 2022-05-31 at 23:06:36

; external perimeters extrusion width = 0.44mm (1.67mm^3/s)
; perimeters extrusion width = 0.56mm (3.10mm^3/s)
; infill extrusion width = 0.50mm (5.48mm^3/s)
; solid infill extrusion width = 0.56mm (6.20mm^3/s)
; top infill extrusion width = 0.56mm (5.17mm^3/s)
; support material extrusion width = 0.44mm (4.76mm^3/s)

M107
M190 S65 ; set bed temperature and wait for it to be reached
M104 S205 ; set temperature
G28 ; home all axes
G1 Z5 F5000 ; lift nozzle

; Filament gcode

M109 S205 ; set temperature and wait for it to be reached
G21 ; set units to millimeters
G90 ; use absolute coordinates
M82 ; use absolute distances for extrusion
G92 E0
G1 E-1.00000 F1800.00000
G92 E0
G1 Z0.950 F7800.000
G1 X74.795 Y75.530 F7800.000
G1 E1.00000 F1800.00000
G1 F1080
G1 X75.530 Y74.795 E1.09450
G1 X76.374 Y74.081 E1.19499
G1 X77.122 Y73.540 E1.27900
G1 X78.042 Y72.970 E1.37735
G1 X78.968 Y72.498 E1.47189
G1 X79.925 Y72.101 E1.56608
G1 X80.914 Y71.780 E1.66061
G1 X82.098 Y71.504 E1.77120
G1 X82.948 Y71.381 E1.84932
G1 X83.646 Y71.326 E1.91297
G1 X84.920 Y71.283 E2.02886
G1 X115.543 Y71.283 E4.81339
G1 X116.433 Y71.333 E4.89442
G1 X117.187 Y71.401 E4.96326
G1 X117.884 Y71.502 E5.02735
G1 X118.943 Y71.751 E5.12624
G1 X119.635 Y71.965 E5.19209
G1 X121.030 Y72.503 E5.32802
G1 X121.842 Y72.906 E5.41052
G1 X122.841 Y73.511 E5.51673
G1 X123.683 Y74.122 E5.61126
G1 X124.518 Y74.843 E5.71156
G1 X125.156 Y75.481 E5.79368
G1 X125.878 Y76.317 E5.89412
G1 X126.489 Y77.158 E5.98864
G1 X127.054 Y78.091 E6.08782
G1 X127.509 Y78.990 E6.17941
G1 X127.882 Y79.886 E6.26764
G1 X128.154 Y80.681 E6.34406
G1 X128.462 Y81.921 E6.46020
G1 X128.624 Y82.948 E6.55474
G1 X128.723 Y84.618 E6.70692
G1 X128.723 Y115.543 E9.51890
G1 X128.657 Y116.635 E9.61839
G1 X128.587 Y117.307 E9.67981
G1 X128.473 Y118.004 E9.74399
G1 X128.220 Y119.087 E9.84511
G1 X127.899 Y120.075 E9.93961
G1 X127.502 Y121.032 E10.03383
G1 X127.030 Y121.958 E10.12834
G1 X126.437 Y122.915 E10.23071
G1 X125.918 Y123.627 E10.31085
G1 X125.205 Y124.470 E10.41119
G1 X124.470 Y125.205 E10.50573
G1 X123.626 Y125.919 E10.60622
G1 X122.878 Y126.460 E10.69021
G1 X121.958 Y127.030 E10.78857
G1 X121.032 Y127.502 E10.88312
G1 X120.075 Y127.899 E10.97731
G1 X119.086 Y128.220 E11.07183
G1 X117.902 Y128.496 E11.18239
G1 X117.052 Y128.619 E11.26054
G1 X116.354 Y128.674 E11.32419
G1 X115.080 Y128.717 E11.44008
G1 X84.457 Y128.717 E14.22461
G1 X83.567 Y128.667 E14.30565
G1 X82.813 Y128.599 E14.37449
G1 X82.116 Y128.498 E14.43856
G1 X81.057 Y128.249 E14.53746
G1 X80.365 Y128.035 E14.60331
G1 X78.970 Y127.497 E14.73925
G1 X78.158 Y127.094 E14.82175
G1 X77.158 Y126.489 E14.92798
G1 X76.317 Y125.878 E15.02248
G1 X75.482 Y125.157 E15.12279
G1 X74.844 Y124.519 E15.20490
G1 X74.122 Y123.682 E15.30536
G1 X73.511 Y122.841 E15.39987
G1 X72.946 Y121.908 E15.49906
G1 X72.491 Y121.010 E15.59063
G1 X72.118 Y120.114 E15.67886
G1 X71.846 Y119.319 E15.75525
G1 X71.538 Y118.079 E15.87144
G1 X71.376 Y117.052 E15.96597
G1 X71.277 Y115.382 E16.11814
G1 X71.277 Y84.457 E18.93012
G1 X71.343 Y83.366 E19.02949
G1 X71.413 Y82.693 E19.09104
G1 X71.527 Y81.996 E19.15521
G1 X71.780 Y80.914 E19.25632
G1 X72.101 Y79.925 E19.35085
G1 X72.498 Y78.968 E19.44504
G1 X72.970 Y78.042 E19.53956
G1 X73.563 Y77.085 E19.64191
G1 X74.082 Y76.373 E19.72207
G1 X74.756 Y75.575 E19.81699
G1 E18.81699 F1800.00000
G92 E0
G1 X116.724 Y78.026 F7800.000
G1 E1.00000 F1800.00000
G1 F1080
G1 X83.276 Y78.026 E2.77596
G1 X82.460 Y78.222 E2.82051
G1 X81.503 Y78.618 E2.87551
G1 X81.274 Y78.759 E2.88976
G1 X118.726 Y78.759 E4.87827
G1 X119.380 Y79.160 E4.91902
G1 X119.768 Y79.491 E4.94612
G1 X80.232 Y79.491 E7.04534
G1 X79.832 Y79.832 E7.07324
G1 X79.498 Y80.224 E7.10056
G1 X120.502 Y80.224 E9.27769
G1 X120.840 Y80.620 E9.30537
G1 X121.046 Y80.956 E9.32629
G1 X78.954 Y80.956 E11.56125
G1 X78.618 Y81.503 E11.59532
G1 X78.542 Y81.688 E11.60597
G1 X121.458 Y81.688 E13.88468
G1 X121.762 Y82.421 E13.92678
G1 X78.238 Y82.421 E16.23770
G1 X78.056 Y83.153 E16.27779
G1 X121.944 Y83.153 E18.60811
G1 X122.020 Y83.467 E18.62526
G1 X122.053 Y83.886 E18.64755
G1 X77.947 Y83.886 E20.98938
G1 X77.902 Y84.618 E21.02834
G1 X122.098 Y84.618 E23.37494
G1 X122.098 Y85.351 E23.41383
G1 X77.902 Y85.351 E25.76044
G1 X77.902 Y86.083 E25.79933
G1 X122.098 Y86.083 E28.14593
G1 X122.098 Y86.816 E28.18482
G1 X77.902 Y86.816 E30.53142
G1 X77.902 Y87.548 E30.57031
G1 X122.098 Y87.548 E32.91691
G1 X122.098 Y88.281 E32.95581
G1 X77.902 Y88.281 E35.30241
G1 X77.902 Y89.013 E35.34130
G1 X122.098 Y89.013 E37.68790
G1 X122.098 Y89.746 E37.72679
G1 X77.902 Y89.746 E40.07339
G1 X77.902 Y90.478 E40.11228
G1 X122.098 Y90.478 E42.45889
G1 X122.098 Y91.210 E42.49778
G1 X77.902 Y91.210 E44.84438
G1 X77.902 Y91.943 E44.88327
G1 X122.098 Y91.943 E47.22987
G1 X122.098 Y92.675 E47.26876
G1 X77.902 Y92.675 E49.61537
G1 X77.902 Y93.408 E49.65426
G1 X122.098 Y93.408 E52.00086
G1 X122.098 Y94.140 E52.03975
G1 X77.902 Y94.140 E54.38635
G1 X77.902 Y94.873 E54.42524
G1 X122.098 Y94.873 E56.77184
G1 X122.098 Y95.605 E56.81074
G1 X77.902 Y95.605 E59.15734
G1 X77.902 Y96.338 E59.19623
G1 X122.098 Y96.338 E61.54283
G1 X122.098 Y97.070 E61.58172
G1 X77.902 Y97.070 E63.92832
G1 X77.902 Y97.803 E63.96721
G1 X122.098 Y97.803 E66.31382
G1 X122.098 Y98.535 E66.35271
G1 X77.902 Y98.535 E68.69931
G1 X77.902 Y99.268 E68.73820
G1 X122.098 Y99.268 E71.08480
G1 X122.098 Y100.000 E71.12369
G1 X77.902 Y100.000 E73.47030
G1 X77.902 Y100.732 E73.50919
G1 X122.098 Y100.732 E75.85579
G1 X122.098 Y101.465 E75.89468
G1 X77.902 Y101.465 E78.24128
G1 X77.902 Y102.197 E78.28017
G1 X122.098 Y102.197 E80.62678
G1 X122.098 Y102.930 E80.66567
G1 X77.902 Y102.930 E83.01227
G1 X77.902 Y103.662 E83.05116
G1 X122.098 Y103.662 E85.39776
G1 X122.098 Y104.395 E85.43665
G1 X77.902 Y104.395 E87.78325
G1 X77.902 Y105.127 E87.82215
G1 X122.098 Y105.127 E90.16875
G1 X122.098 Y105.860 E90.20764
G1 X77.902 Y105.860 E92.55424
G1 X77.902 Y106.592 E92.59313
G1 X122.098 Y106.592 E94.93973
G1 X122.098 Y107.325 E94.97862
G1 X77.902 Y107.325 E97.32523
G1 X77.902 Y108.057 E97.36412
G1 X122.098 Y108.057 E99.71072
G1 X122.098 Y108.790 E99.74961
G1 X77.902 Y108.790 E102.09621
G1 X77.902 Y109.522 E102.13510
G1 X122.098 Y109.522 E104.48171
G1 X122.098 Y110.254 E104.52060
G1 X77.902 Y110.254 E106.86720
G1 X77.902 Y110.987 E106.90609
G1 X122.098 Y110.987 E109.25269
G1 X122.098 Y111.719 E109.29158
G1 X77.902 Y111.719 E111.63818
G1 X77.902 Y112.452 E111.67708
G1 X122.098 Y112.452 E114.02368
G1 X122.098 Y113.184 E114.06257
G1 X77.902 Y113.184 E116.40917
G1 X77.902 Y113.917 E116.44806
G1 X122.098 Y113.917 E118.79466
G1 X122.098 Y114.649 E118.83355
G1 X77.902 Y114.649 E121.18016
G1 X77.902 Y115.382 E121.21905
G1 X122.098 Y115.382 E123.56565
G1 X122.053 Y116.114 E123.60461
G1 X77.947 Y116.114 E125.94644
G1 X77.980 Y116.533 E125.96873
G1 X78.056 Y116.847 E125.98588
G1 X121.944 Y116.847 E128.31620
G1 X121.762 Y117.579 E128.35629
G1 X78.238 Y117.579 E130.66721
G1 X78.542 Y118.312 E130.70931
G1 X121.458 Y118.312 E132.98802
G1 X121.382 Y118.497 E132.99867
G1 X121.046 Y119.044 E133.03274
G1 X78.954 Y119.044 E135.26769
G1 X79.160 Y119.380 E135.28862
G1 X79.498 Y119.776 E135.31630
G1 X120.502 Y119.776 E137.49343
G1 X120.168 Y120.168 E137.52075
G1 X119.768 Y120.509 E137.54865
G1 X80.232 Y120.509 E139.64787
G1 X80.620 Y120.840 E139.67496
G1 X81.274 Y121.241 E139.71571
G1 X118.726 Y121.241 E141.70423
G1 X118.497 Y121.382 E141.71848
G1 X117.540 Y121.778 E141.77348
G1 X116.724 Y121.974 E141.81803
G1 X83.276 Y121.974 E143.59399
M106 S181.05
M104 S200 ; set temperature
M140 S60 ; set bed temperature
G1 E142.59399 F1800.00000
G92 E0
G1 Z1.250 F7800.000
G1 X121.866 Y117.150 F7800.000
G1 E1.00000 F1800.00000
G1 F3600
G1 X121.866 Y82.850 E2.60695
G1 X121.773 Y82.462 E2.62564
G1 X121.377 Y81.506 E2.67413
G1 X121.112 Y81.074 E2.69787
G1 X121.112 Y118.926 E4.47125
G1 X120.836 Y119.377 E4.49600
G1 X120.358 Y119.936 E4.53048
G1 X120.358 Y80.063 E6.39850
G1 X120.164 Y79.836 E6.41251
G1 X119.604 Y79.358 E6.44700
G1 X119.604 Y120.642 E8.38113
G1 X119.377 Y120.836 E8.39513
G1 X118.850 Y121.159 E8.42407
G1 X118.850 Y78.841 E10.40663
G1 X118.494 Y78.623 E10.42617
G1 X118.096 Y78.458 E10.44637
G1 X118.096 Y121.542 E12.46481
G1 X117.538 Y121.773 E12.49309
G1 X117.342 Y121.820 E12.50255
G1 X117.342 Y78.180 E14.54705
G1 X116.588 Y77.999 E14.58337
G1 X116.588 Y122.001 E16.64483
G1 X115.834 Y122.069 E16.68030
G1 X115.834 Y77.931 E18.74817
G1 X115.543 Y77.908 E18.76185
G1 X115.080 Y77.908 E18.78354
G1 X115.080 Y122.092 E20.85356
G1 X114.326 Y122.092 E20.88888
G1 X114.326 Y77.908 E22.95890
G1 X113.572 Y77.908 E22.99423
G1 X113.572 Y122.092 E25.06424
G1 X112.818 Y122.092 E25.09957
G1 X112.818 Y77.908 E27.16959
G1 X112.064 Y77.908 E27.20491
G1 X112.064 Y122.092 E29.27493
G1 X111.310 Y122.092 E29.31025
G1 X111.310 Y77.908 E31.38027
G1 X110.556 Y77.908 E31.41559
G1 X110.556 Y122.092 E33.48561
G1 X109.802 Y122.092 E33.52094
G1 X109.802 Y77.908 E35.59095
G1 X109.048 Y77.908 E35.62628
G1 X109.048 Y122.092 E37.69630
G1 X108.294 Y122.092 E37.73162
G1 X108.294 Y77.908 E39.80164
G1 X107.540 Y77.908 E39.83696
G1 X107.540 Y122.092 E41.90698
G1 X106.786 Y122.092 E41.94231
G1 X106.786 Y77.908 E44.01232
G1 X106.032 Y77.908 E44.04765
G1 X106.032 Y122.092 E46.11767
G1 X105.278 Y122.092 E46.15299
G1 X105.278 Y77.908 E48.22301
G1 X104.524 Y77.908 E48.25833
G1 X104.524 Y122.092 E50.32835
G1 X103.770 Y122.092 E50.36367
G1 X103.770 Y77.908 E52.43369
G1 X103.016 Y77.908 E52.46902
G1 X103.016 Y122.092 E54.53903
G1 X102.262 Y122.092 E54.57436
G1 X102.262 Y77.908 E56.64438
G1 X101.508 Y77.908 E56.67970
G1 X101.508 Y122.092 E58.74972
G1 X100.754 Y122.092 E58.78504
G1 X100.754 Y77.908 E60.85506
G1 X100.000 Y77.908 E60.89039
G1 X100.000 Y122.092 E62.96040
G1 X99.246 Y122.092 E62.99573
G1 X99.246 Y77.908 E65.06575
G1 X98.492 Y77.908 E65.10107
G1 X98.492 Y122.092 E67.17109
G1 X97.738 Y122.092 E67.20641
G1 X97.738 Y77.908 E69.27643
G1 X96.984 Y77.908 E69.31175
G1 X96.984 Y122.092 E71.38177
G1 X96.230 Y122.092 E71.41710
G1 X96.230 Y77.908 E73.48711
G1 X95.476 Y77.908 E73.52244
G1 X95.476 Y122.092 E75.59246
G1 X94.722 Y122.092 E75.62778
G1 X94.722 Y77.908 E77.69780
G1 X93.968 Y77.908 E77.73312
G1 X93.968 Y122.092 E79.80314
G1 X93.214 Y122.092 E79.83846
G1 X93.214 Y77.908 E81.90848
G1 X92.460 Y77.908 E81.94381
G1 X92.460 Y122.092 E84.01382
G1 X91.706 Y122.092 E84.04915
G1 X91.706 Y77.908 E86.11917
G1 X90.952 Y77.908 E86.15449
G1 X90.952 Y122.092 E88.22451
G1 X90.198 Y122.092 E88.25983
G1 X90.198 Y77.908 E90.32985
G1 X89.444 Y77.908 E90.36518
G1 X89.444 Y122.092 E92.43519
G1 X88.690 Y122.092 E92.47052
G1 X88.690 Y77.908 E94.54054
G1 X87.936 Y77.908 E94.57586
G1 X87.936 Y122.092 E96.64588
G1 X87.182 Y122.092 E96.68120
G1 X87.182 Y77.908 E98.75122
G1 X86.428 Y77.908 E98.78654
G1 X86.428 Y122.092 E100.85656
G1 X85.674 Y122.092 E100.89189
G1 X85.674 Y77.908 E102.96190
G1 X84.920 Y77.908 E102.99723
G1 X84.920 Y122.092 E105.06725
G1 X84.457 Y122.092 E105.08893
G1 X84.166 Y122.069 E105.10261
G1 X84.166 Y77.931 E107.17048
G1 X83.468 Y77.986 E107.20328
G1 X83.412 Y77.999 E107.20598
G1 X83.412 Y122.001 E109.26744
G1 X82.658 Y121.820 E109.30377
G1 X82.658 Y78.180 E111.34827
G1 X82.462 Y78.227 E111.35772
G1 X81.904 Y78.458 E111.38601
G1 X81.904 Y121.542 E113.40445
G1 X81.506 Y121.377 E113.42465
G1 X81.150 Y121.159 E113.44419
G1 X81.150 Y78.841 E115.42675
G1 X80.623 Y79.164 E115.45569
G1 X80.396 Y79.358 E115.46969
G1 X80.396 Y120.642 E117.40382
G1 X79.836 Y120.164 E117.43831
G1 X79.642 Y119.937 E117.45231
G1 X79.642 Y80.063 E119.32034
G1 X79.164 Y80.623 E119.35482
G1 X78.888 Y81.074 E119.37957
G1 X78.888 Y118.926 E121.15295
G1 X78.623 Y118.494 E121.17669
G1 X78.227 Y117.538 E121.22518
G1 X78.134 Y117.150 E121.24387
G1 X78.134 Y82.850 E122.85082
G1 E121.85082 F1800.00000
G92 E0
G1 Z1.550 F7800.000
G1 X117.150 Y78.134 F7800.000
G1 E1.00000 F1800.00000
G1 F3600
G1 X82.850 Y78.134 E2.60695
G1 X82.462 Y78.227 E2.62564
G1 X81.506 Y78.623 E2.67413
G1 X81.074 Y78.888 E2.69787
G1 X118.926 Y78.888 E4.47126
G1 X119.377 Y79.164 E4.49600
G1 X119.937 Y79.642 E4.53048
G1 X80.063 Y79.642 E6.39851
G1 X79.836 Y79.836 E6.41251
G1 X79.358 Y80.396 E6.44701
G1 X120.642 Y80.396 E8.38113
G1 X120.836 Y80.623 E8.39513
G1 X121.159 Y81.150 E8.42408
G1 X78.841 Y81.150 E10.40663
G1 X78.623 Y81.506 E10.42617
G1 X78.458 Y81.904 E10.44637
G1 X121.542 Y81.904 E12.46481
G1 X121.773 Y82.462 E12.49310
G1 X121.820 Y82.658 E12.50255
G1 X78.180 Y82.658 E14.54705
G1 X77.999 Y83.412 E14.58338
G1 X122.001 Y83.412 E16.64484
G1 X122.014 Y83.468 E16.64755
G1 X122.069 Y84.166 E16.68034
G1 X77.931 Y84.166 E18.74821
G1 X77.908 Y84.457 E18.76189
G1 X77.908 Y84.920 E18.78358
G1 X122.092 Y84.920 E20.85360
G1 X122.092 Y85.674 E20.88892
G1 X77.908 Y85.674 E22.95894
G1 X77.908 Y86.428 E22.99426
G1 X122.092 Y86.428 E25.06428
G1 X122.092 Y87.182 E25.09960
G1 X77.908 Y87.182 E27.16962
G1 X77.908 Y87.936 E27.20495
G1 X122.092 Y87.936 E29.27496
G1 X122.092 Y88.690 E29.31029
G1 X77.908 Y88.690 E31.38031
G1 X77.908 Y89.444 E31.41563
G1 X122.092 Y89.444 E33.48565
G1 X122.092 Y90.198 E33.52097
G1 X77.908 Y90.198 E35.59099
G1 X77.908 Y90.952 E35.62632
G1 X122.092 Y90.952 E37.69633
G1 X122.092 Y91.706 E37.73166
G1 X77.908 Y91.706 E39.80168
G1 X77.908 Y92.460 E39.83700
G1 X122.092 Y92.460 E41.90702
G1 X122.092 Y93.214 E41.94234
G1 X77.908 Y93.214 E44.01236
G1 X77.908 Y93.968 E44.04769
G1 X122.092 Y93.968 E46.11770
G1 X122.092 Y94.722 E46.15303
G1 X77.908 Y94.722 E48.22305
G1 X77.908 Y95.476 E48.25837
G1 X122.092 Y95.476 E50.32839
G1 X122.092 Y96.230 E50.36371
G1 X77.908 Y96.230 E52.43373
G1 X77.908 Y96.984 E52.46905
G1 X122.092 Y96.984 E54.53907
G1 X122.092 Y97.738 E54.57440
G1 X77.908 Y97.738 E56.64441
G1 X77.908 Y98.492 E56.67974
G1 X122.092 Y98.492 E58.74976
G1 X122.092 Y99.246 E58.78508
G1 X77.908 Y99.246 E60.85510
G1 X77.908 Y100.000 E60.89042
G1 X122.092 Y100.000 E62.96044
G1 X122.092 Y100.754 E62.99577
G1 X77.908 Y100.754 E65.06578
G1 X77.908 Y101.508 E65.10111
G1 X122.092 Y101.508 E67.17113
G1 X122.092 Y102.262 E67.20645
G1 X77.908 Y102.262 E69.27647
G1 X77.908 Y103.016 E69.31179
G1 X122.092 Y103.016 E71.38181
G1 X122.092 Y103.770 E71.41714
G1 X77.908 Y103.770 E73.48715
G1 X77.908 Y104.524 E73.52248
G1 X122.092 Y104.524 E75.59250
G1 X122.092 Y105.278 E75.62782
G1 X77.908 Y105.278 E77.69784
G1 X77.908 Y106.032 E77.73316
G1 X122.092 Y106.032 E79.80318
G1 X122.092 Y106.786 E79.83850
G1 X77.908 Y106.786 E81.90852
G1 X77.908 Y107.540 E81.94385
G1 X122.092 Y107.540 E84.01386
G1 X122.092 Y108.294 E84.04919
G1 X77.908 Y108.294 E86.11921
G1 X77.908 Y109.048 E86.15453
G1 X122.092 Y109.048 E88.22455
G1 X122.092 Y109.802 E88.25987
G1 X77.908 Y109.802 E90.32989
G1 X77.908 Y110.556 E90.36522
G1 X122.092 Y110.556 E92.43523
G1 X122.092 Y111.310 E92.47056
G1 X77.908 Y111.310 E94.54058
G1 X77.908 Y112.064 E94.57590
G1 X122.092 Y112.064 E96.64592
G1 X122.092 Y112.818 E96.68124
G1 X77.908 Y112.818 E98.75126
G1 X77.908 Y113.572 E98.78658
G1 X122.092 Y113.572 E100.85660
G1 X122.092 Y114.326 E100.89193
G1 X77.908 Y114.326 E102.96195
G1 X77.908 Y115.080 E102.99727
G1 X122.092 Y115.080 E105.06729
G1 X122.092 Y115.543 E105.08897
G1 X122.069 Y115.834 E105.10265
G1 X77.931 Y115.834 E107.17053
G1 X77.999 Y116.588 E107.20599
G1 X122.001 Y116.588 E109.26746
G1 X121.820 Y117.342 E109.30378
G1 X78.180 Y117.342 E111.34828
G1 X78.227 Y117.538 E111.35773
G1 X78.458 Y118.096 E111.38602
G1 X121.542 Y118.096 E113.40446
G1 X121.377 Y118.494 E113.42466
