; generated by Slic3r 1.3.0 on 2023-01-21 at 10:54:26

; external perimeters extrusion width = 0.44mm (1.67mm^3/s)
; perimeters extrusion width = 0.56mm (3.10mm^3/s)
; infill extrusion width = 0.50mm (5.48mm^3/s)
; solid infill extrusion width = 0.56mm (6.20mm^3/s)
; top infill extrusion width = 0.56mm (5.17mm^3/s)
; support material extrusion width = 0.44mm (4.76mm^3/s)

M107
M190 S65 ; set bed temperature and wait for it to be reached
M104 S205 ; set temperature
G28 ; home all axes
G29; Automatic (Bilinear) Bed Leveling probes the bed at some fixed number of points and produces a mesh representing the imperfections across the bed.
G1 Z5 F5000 ; lift nozzle
G92 E0.0 # Set the current position to the values specified.
; Filament gcode

M109 S205 ; set temperature and wait for it to be reached
G21 ; set units to millimeters
G90 ; use absolute coordinates
M82 ; use absolute distances for extrusion
G92 E0
;BEFORE_LAYER_CHANGE
;G92 E0.0 # Set the current position to the values specified.
G1 E-1.00000 F1800.00000
G92 E0
G1 Z-0.500 F7800.000
;AFTER_LAYER_CHANGE
G1 X83.480 Y67.605 F7800.000
G1 E1.00000 F1800.00000
G1 F1080
G1 X84.104 Y67.018 E1.00636
G1 X84.520 Y66.690 E1.01030
G1 X85.152 Y66.273 E1.01592
G1 X85.628 Y66.015 E1.01993
G1 X86.325 Y65.709 E1.02558
G1 X86.833 Y65.537 E1.02957
G1 X87.574 Y65.353 E1.03523
G1 X88.102 Y65.270 E1.03920
G1 X88.864 Y65.215 E1.04487
G1 X89.398 Y65.223 E1.04884
G1 X90.152 Y65.297 E1.05446
G1 X90.683 Y65.395 E1.05847
G1 X91.419 Y65.598 E1.06413
G1 X91.921 Y65.784 E1.06810
G1 X92.606 Y66.105 E1.07372
G1 X93.068 Y66.371 E1.07768
G1 X164.380 Y115.872 E1.72205
G1 X164.819 Y116.239 E1.72629
G1 X166.940 Y118.366 E1.74859
G1 X167.741 Y119.730 E1.76033
G1 X167.786 Y121.311 E1.77207
G1 X166.930 Y122.858 E1.78519
G1 X158.432 Y131.331 E1.87427
G1 X157.337 Y132.267 E1.88497
G1 X156.899 Y132.577 E1.88895
G1 X155.887 Y133.170 E1.89765
G1 X155.403 Y133.401 E1.90164
G1 X154.301 Y133.818 E1.91038
G1 X153.790 Y133.963 E1.91432
G1 X152.636 Y134.188 E1.92305
G1 X152.105 Y134.245 E1.92701
G1 X150.875 Y134.273 E1.93615
G1 X49.554 Y134.793 E2.68825
G1 X47.927 Y134.696 E2.70035
G1 X47.381 Y134.613 E2.70444
G1 X46.009 Y134.281 E2.71492
G1 X45.486 Y134.105 E2.71902
G1 X44.193 Y133.540 E2.72949
G1 X43.708 Y133.276 E2.73359
G1 X42.530 Y132.495 E2.74408
G1 X42.100 Y132.152 E2.74816
G1 X40.885 Y130.982 E2.76068
G1 X32.933 Y121.995 E2.84976
G1 X32.213 Y120.587 E2.86150
G1 X32.261 Y119.005 E2.87324
G1 X33.075 Y117.633 E2.88509
G1 X83.437 Y67.647 E3.41179
G1 E2.41179 F1800.00000
G92 E0
G1 X162.567 Y119.129 F7800.000
G1 E1.00000 F1800.00000
G1 F540
G1 X164.040 Y120.606 E1.01548
G1 X155.879 Y128.743 E1.10102
G1 X155.026 Y129.460 E1.10929
G1 X154.081 Y130.014 E1.11742
G1 X153.057 Y130.402 E1.12555
G1 X151.983 Y130.611 E1.13368
G1 X150.887 Y130.637 E1.14182
G1 X149.803 Y130.478 E1.14995
G1 X148.761 Y130.139 E1.15808
G1 X147.819 Y129.644 E1.16598
G1 X91.502 Y73.159 E1.75804
G1 X91.487 Y72.977 E1.75940
G1 X91.392 Y72.602 E1.76228
G1 X91.236 Y72.246 E1.76515
G1 X91.024 Y71.922 E1.76803
G1 X90.762 Y71.637 E1.77091
G1 X90.456 Y71.399 E1.77379
G1 X90.115 Y71.214 E1.77667
G1 X89.748 Y71.088 E1.77954
G1 X89.366 Y71.024 E1.78242
G1 X88.978 Y71.024 E1.78530
G1 X88.595 Y71.088 E1.78818
G1 X88.229 Y71.214 E1.79105
G1 X87.888 Y71.399 E1.79393
G1 X87.582 Y71.637 E1.79681
G1 X87.319 Y71.922 E1.79969
G1 X87.107 Y72.246 E1.80257
G1 X86.951 Y72.602 E1.80544
G1 X86.856 Y72.977 E1.80832
G1 X86.836 Y73.224 E1.81015
G1 X54.352 Y129.295 E2.29116
G1 X53.323 Y130.048 E2.30063
G1 X52.129 Y130.636 E2.31051
G1 X50.850 Y131.009 E2.32039
G1 X49.527 Y131.156 E2.33028
G1 X48.198 Y131.071 E2.34016
G1 X46.905 Y130.757 E2.35004
G1 X45.684 Y130.224 E2.35992
G1 X44.575 Y129.488 E2.36981
G1 X43.595 Y128.558 E2.37984
G1 X35.959 Y119.928 E2.46537
G1 X37.521 Y118.546 E2.48085
G1 X45.168 Y127.188 E2.56651
G1 X45.724 Y127.839 E2.57287
G1 X46.417 Y128.414 E2.57955
G1 X47.196 Y128.864 E2.58623
G1 X48.041 Y129.174 E2.59291
G1 X48.926 Y129.338 E2.59959
G1 X49.826 Y129.348 E2.60627
G1 X50.714 Y129.207 E2.61294
G1 X51.566 Y128.916 E2.61962
G1 X52.435 Y128.443 E2.62697
G1 X85.108 Y72.046 E3.11077
G1 X85.339 Y71.313 E3.11648
G1 X85.651 Y70.710 E3.12152
G1 X86.060 Y70.168 E3.12656
G1 X86.555 Y69.703 E3.13160
G1 X87.122 Y69.329 E3.13664
G1 X87.744 Y69.056 E3.14168
G1 X88.403 Y68.893 E3.14672
G1 X89.081 Y68.844 E3.15176
G1 X89.756 Y68.911 E3.15680
G1 X90.411 Y69.091 E3.16184
G1 X91.026 Y69.380 E3.16688
G1 X91.583 Y69.768 E3.17193
G1 X92.066 Y70.246 E3.17697
G1 X92.461 Y70.798 E3.18201
G1 X92.807 Y71.514 E3.18791
G1 X149.415 Y128.290 E3.78303
G1 X150.106 Y128.555 E3.78853
G1 X150.773 Y128.690 E3.79357
G1 X151.452 Y128.715 E3.79862
G1 X152.127 Y128.628 E3.80367
G1 X152.778 Y128.431 E3.80872
G1 X153.388 Y128.130 E3.81377
G1 X153.940 Y127.734 E3.81881
G1 X162.525 Y119.172 E3.90881
G1 X162.567 Y118.877 F7800.000
G1 F540
G1 X164.292 Y120.607 E3.92694
G1 X156.000 Y128.874 E4.01386
G1 X155.130 Y129.607 E4.02231
G1 X154.159 Y130.176 E4.03066
G1 X153.106 Y130.574 E4.03902
G1 X152.002 Y130.789 E4.04736
G1 X150.876 Y130.816 E4.05573
G1 X149.762 Y130.652 E4.06408
G1 X148.692 Y130.304 E4.07244
G1 X147.712 Y129.789 E4.08065
G1 X91.330 Y73.239 E4.67340
G1 X91.310 Y73.007 E4.67513
G1 X91.222 Y72.660 E4.67779
G1 X91.079 Y72.332 E4.68045
G1 X90.883 Y72.032 E4.68311
G1 X90.640 Y71.768 E4.68577
G1 X90.358 Y71.549 E4.68843
G1 X90.043 Y71.378 E4.69108
G1 X89.704 Y71.262 E4.69374
G1 X89.351 Y71.203 E4.69640
G1 X88.993 Y71.203 E4.69906
G1 X88.639 Y71.262 E4.70172
G1 X88.301 Y71.378 E4.70437
G1 X87.986 Y71.549 E4.70703
G1 X87.703 Y71.768 E4.70969
G1 X87.461 Y72.032 E4.71235
G1 X87.265 Y72.332 E4.71501
G1 X87.121 Y72.660 E4.71767
G1 X87.033 Y73.007 E4.72032
G1 X87.010 Y73.278 E4.72235
G1 X54.488 Y129.417 E5.20393
G1 X53.416 Y130.201 E5.21379
G1 X52.193 Y130.803 E5.22390
G1 X50.886 Y131.185 E5.23402
G1 X49.531 Y131.335 E5.24413
G1 X48.172 Y131.248 E5.25424
G1 X46.847 Y130.927 E5.26436
G1 X45.599 Y130.382 E5.27447
G1 X44.463 Y129.629 E5.28458
G1 X43.466 Y128.682 E5.29479
G1 X35.707 Y119.913 E5.38170
G1 X37.537 Y118.294 E5.39984
G1 X45.302 Y127.071 E5.48683
G1 X45.850 Y127.712 E5.49309
G1 X46.519 Y128.267 E5.49954
G1 X47.272 Y128.701 E5.50599
G1 X48.088 Y129.002 E5.51245
G1 X48.943 Y129.159 E5.51890
G1 X49.813 Y129.170 E5.52535
G1 X50.671 Y129.033 E5.53181
G1 X51.494 Y128.752 E5.53826
G1 X52.305 Y128.310 E5.54512
G1 X84.943 Y71.973 E6.02841
G1 X85.174 Y71.245 E6.03408
G1 X85.499 Y70.614 E6.03935
G1 X85.927 Y70.048 E6.04461
G1 X86.444 Y69.562 E6.04988
G1 X87.036 Y69.172 E6.05515
G1 X87.686 Y68.887 E6.06041
G1 X88.375 Y68.716 E6.06568
G1 X89.083 Y68.665 E6.07095
G1 X89.789 Y68.735 E6.07621
G1 X90.473 Y68.923 E6.08148
G1 X91.116 Y69.225 E6.08675
G1 X91.697 Y69.631 E6.09202
G1 X92.202 Y70.130 E6.09728
G1 X92.615 Y70.707 E6.10255
G1 X92.955 Y71.409 E6.10834
G1 X149.514 Y128.137 E6.70296
G1 X150.156 Y128.383 E6.70806
G1 X150.794 Y128.512 E6.71289
G1 X151.444 Y128.536 E6.71772
G1 X152.089 Y128.452 E6.72255
G1 X152.712 Y128.264 E6.72738
G1 X153.296 Y127.976 E6.73221
G1 X153.824 Y127.597 E6.73704
G1 X162.525 Y118.919 E6.82825
G1 X162.568 Y118.624 F7800.000
G1 F378
G1 X164.545 Y120.607 E6.84904
G1 X156.121 Y129.006 E6.93734
G1 X155.233 Y129.753 E6.94595
G1 X154.236 Y130.338 E6.95453
G1 X153.155 Y130.746 E6.96311
G1 X152.021 Y130.967 E6.97168
G1 X150.865 Y130.994 E6.98027
G1 X149.721 Y130.827 E6.98885
G1 X148.622 Y130.469 E6.99743
G1 X147.605 Y129.935 E7.00595
G1 X91.157 Y73.319 E7.59939
G1 X91.134 Y73.036 E7.60150
G1 X91.053 Y72.718 E7.60394
G1 X90.921 Y72.417 E7.60638
G1 X90.741 Y72.142 E7.60882
G1 X90.519 Y71.900 E7.61125
G1 X90.260 Y71.699 E7.61369
G1 X89.971 Y71.542 E7.61613
G1 X89.660 Y71.435 E7.61857
G1 X89.336 Y71.381 E7.62101
G1 X89.007 Y71.381 E7.62345
G1 X88.683 Y71.435 E7.62589
G1 X88.373 Y71.542 E7.62832
G1 X88.084 Y71.699 E7.63076
G1 X87.824 Y71.900 E7.63320
G1 X87.602 Y72.142 E7.63564
G1 X87.422 Y72.417 E7.63808
G1 X87.290 Y72.718 E7.64052
G1 X87.210 Y73.036 E7.64296
G1 X87.185 Y73.333 E7.64517
G1 X54.623 Y129.539 E8.12733
G1 X53.509 Y130.354 E8.13758
G1 X52.258 Y130.970 E8.14793
G1 X50.921 Y131.361 E8.15827
G1 X49.535 Y131.514 E8.16861
G1 X48.145 Y131.425 E8.17896
G1 X46.790 Y131.097 E8.18930
G1 X45.513 Y130.539 E8.19965
G1 X44.352 Y129.769 E8.20999
G1 X43.338 Y128.806 E8.22037
G1 X35.455 Y119.897 E8.30867
G1 X37.552 Y118.042 E8.32945
G1 X45.437 Y126.953 E8.41778
G1 X45.976 Y127.584 E8.42394
G1 X46.621 Y128.120 E8.43016
G1 X47.348 Y128.539 E8.43639
G1 X48.136 Y128.829 E8.44262
G1 X48.961 Y128.981 E8.44885
G1 X49.799 Y128.991 E8.45507
G1 X50.628 Y128.859 E8.46130
G1 X51.422 Y128.588 E8.46753
G1 X52.176 Y128.178 E8.47390
G1 X84.779 Y71.901 E8.95667
G1 X85.008 Y71.176 E8.96231
G1 X85.347 Y70.519 E8.96780
G1 X85.793 Y69.928 E8.97330
G1 X86.333 Y69.422 E8.97879
G1 X86.951 Y69.014 E8.98428
G1 X87.629 Y68.717 E8.98978
G1 X88.347 Y68.539 E8.99527
G1 X89.085 Y68.486 E9.00076
G1 X89.821 Y68.559 E9.00625
G1 X90.535 Y68.755 E9.01175
G1 X91.205 Y69.069 E9.01724
G1 X91.812 Y69.493 E9.02274
G1 X92.338 Y70.013 E9.02823
G1 X92.769 Y70.615 E9.03372
G1 X93.102 Y71.304 E9.03941
G1 X149.614 Y127.984 E9.63351
G1 X150.206 Y128.211 E9.63822
G1 X150.815 Y128.335 E9.64284
G1 X151.436 Y128.357 E9.64745
G1 X152.052 Y128.277 E9.65206
G1 X152.647 Y128.098 E9.65667
G1 X153.204 Y127.823 E9.66128
G1 X153.708 Y127.461 E9.66589
G1 X162.525 Y118.667 E9.75833
G1 X162.670 Y119.011 F7800.000
G1 E8.75833 F1800.00000
G92 E0
G1 X163.670 Y120.723 F7800.000
G1 E1.00000 F1800.00000
G1 F1080
G1 X163.857 Y120.537 E1.00196
G1 X163.730 Y120.410 E1.00329
G1 X154.620 Y129.520 E1.09910
G1 X154.008 Y129.879 E1.10437
G1 X163.604 Y120.283 E1.20528
G1 X163.478 Y120.157 E1.20661
G1 X153.577 Y130.057 E1.31072
G1 X153.170 Y130.211 E1.31396
G1 X163.352 Y120.030 E1.42102
G1 X163.225 Y119.903 E1.42235
G1 X152.803 Y130.325 E1.53195
G1 X152.489 Y130.386 E1.53433
G1 X163.099 Y119.777 E1.64590
G1 X162.973 Y119.650 E1.64723
G1 X152.175 Y130.448 E1.76077
G1 X151.867 Y130.503 E1.76310
G1 X162.846 Y119.523 E1.87856
G1 X162.720 Y119.397 E1.87989
G1 X151.608 Y130.509 E1.99675
G1 X151.349 Y130.515 E1.99867
G1 X153.904 Y127.960 E2.02554
G1 X153.550 Y128.214 E2.02878
G1 X153.248 Y128.363 E2.03129
G1 X151.090 Y130.521 E2.05398
G1 X150.831 Y130.527 E2.05591
G1 X152.794 Y128.564 E2.07655
G1 X152.431 Y128.674 E2.07937
G1 X150.610 Y130.495 E2.09852
G1 X150.389 Y130.463 E2.10018
G1 X152.102 Y128.750 E2.11819
G1 X151.811 Y128.788 E2.12037
G1 X150.168 Y130.431 E2.13764
G1 X149.948 Y130.398 E2.13930
G1 X151.522 Y128.824 E2.15586
G1 X151.278 Y128.815 E2.15767
G1 X149.734 Y130.360 E2.17391
G1 X149.543 Y130.297 E2.17540
G1 X151.034 Y128.806 E2.19108
G1 X150.794 Y128.793 E2.19287
G1 X149.352 Y130.235 E2.20803
G1 X149.161 Y130.173 E2.20953
G1 X150.584 Y128.751 E2.22449
G1 X150.374 Y128.708 E2.22608
G1 X148.970 Y130.111 E2.24084
G1 X148.779 Y130.049 E2.24233
G1 X150.164 Y128.665 E2.25689
G1 X149.976 Y128.600 E2.25837
G1 X148.611 Y129.964 E2.27272
G1 X148.445 Y129.877 E2.27411
G1 X149.793 Y128.530 E2.28828
G1 X149.610 Y128.460 E2.28973
G1 X148.280 Y129.790 E2.30372
G1 X148.114 Y129.703 E2.30511
G1 X149.427 Y128.390 E2.31892
G1 X149.385 Y128.374 E2.31926
G1 X149.288 Y128.276 E2.32028
G1 X147.948 Y129.616 E2.33437
G1 X147.857 Y129.568 E2.33513
G1 X147.800 Y129.511 E2.33573
G1 X149.161 Y128.150 E2.35005
G1 X149.035 Y128.023 E2.35138
G1 X147.674 Y129.384 E2.36569
G1 X147.547 Y129.258 E2.36702
G1 X148.909 Y127.896 E2.38134
G1 X148.782 Y127.770 E2.38267
G1 X147.421 Y129.131 E2.39699
G1 X147.295 Y129.004 E2.39832
G1 X148.656 Y127.643 E2.41263
G1 X148.530 Y127.516 E2.41396
G1 X147.169 Y128.878 E2.42828
G1 X147.042 Y128.751 E2.42961
G1 X148.404 Y127.390 E2.44392
G1 X148.277 Y127.263 E2.44525
G1 X146.916 Y128.624 E2.45957
G1 X146.790 Y128.498 E2.46090
G1 X148.151 Y127.136 E2.47521
G1 X148.025 Y127.010 E2.47654
G1 X146.663 Y128.371 E2.49086
G1 X146.537 Y128.244 E2.49219
G1 X147.898 Y126.883 E2.50650
G1 X147.772 Y126.756 E2.50783
G1 X146.411 Y128.118 E2.52215
G1 X146.285 Y127.991 E2.52348
G1 X147.646 Y126.630 E2.53779
G1 X147.520 Y126.503 E2.53912
G1 X146.158 Y127.864 E2.55344
G1 X146.032 Y127.738 E2.55477
G1 X147.393 Y126.376 E2.56908
G1 X147.267 Y126.250 E2.57041
G1 X145.906 Y127.611 E2.58473
G1 X145.779 Y127.485 E2.58606
G1 X147.141 Y126.123 E2.60037
G1 X147.015 Y125.997 E2.60170
G1 X145.653 Y127.358 E2.61602
G1 X145.527 Y127.231 E2.61735
G1 X146.888 Y125.870 E2.63167
G1 X146.762 Y125.743 E2.63299
G1 X145.401 Y127.105 E2.64731
G1 X145.274 Y126.978 E2.64864
G1 X146.636 Y125.617 E2.66296
G1 X146.509 Y125.490 E2.66429
G1 X145.148 Y126.851 E2.67860
G1 X145.022 Y126.725 E2.67993
G1 X146.383 Y125.363 E2.69425
G1 X146.257 Y125.237 E2.69558
G1 X144.896 Y126.598 E2.70989
G1 X144.769 Y126.471 E2.71122
G1 X146.131 Y125.110 E2.72554
G1 X146.004 Y124.983 E2.72687
G1 X144.643 Y126.345 E2.74118
G1 X144.517 Y126.218 E2.74251
G1 X145.878 Y124.857 E2.75683
G1 X145.752 Y124.730 E2.75816
G1 X144.390 Y126.091 E2.77247
G1 X144.264 Y125.965 E2.77380
G1 X145.625 Y124.603 E2.78812
G1 X145.499 Y124.477 E2.78945
G1 X144.138 Y125.838 E2.80376
G1 X144.012 Y125.711 E2.80509
G1 X145.373 Y124.350 E2.81941
G1 X145.247 Y124.223 E2.82074
G1 X143.885 Y125.585 E2.83505
G1 X143.759 Y125.458 E2.83638
G1 X145.120 Y124.097 E2.85070
G1 X144.994 Y123.970 E2.85203
G1 X143.633 Y125.331 E2.86634
G1 X143.506 Y125.205 E2.86767
G1 X144.868 Y123.843 E2.88199
G1 X144.742 Y123.717 E2.88332
G1 X143.380 Y125.078 E2.89764
G1 X143.254 Y124.951 E2.89897
G1 X144.615 Y123.590 E2.91328
G1 X144.489 Y123.463 E2.91461
G1 X143.128 Y124.825 E2.92893
G1 X143.001 Y124.698 E2.93026
G1 X144.363 Y123.337 E2.94457
G1 X144.236 Y123.210 E2.94590
G1 X142.875 Y124.571 E2.96022
G1 X142.749 Y124.445 E2.96155
G1 X144.110 Y123.083 E2.97586
G1 X143.984 Y122.957 E2.97719
G1 X142.623 Y124.318 E2.99151
G1 X142.496 Y124.191 E2.99284
G1 X143.858 Y122.830 E3.00715
G1 X143.731 Y122.703 E3.00848
G1 X142.370 Y124.065 E3.02280
G1 X142.244 Y123.938 E3.02413
G1 X143.605 Y122.577 E3.03844
G1 X143.479 Y122.450 E3.03977
G1 X142.117 Y123.812 E3.05409
G1 X141.991 Y123.685 E3.05542
G1 X143.352 Y122.324 E3.06973
G1 X143.226 Y122.197 E3.07106
G1 X141.865 Y123.558 E3.08538
G1 X141.739 Y123.432 E3.08671
G1 X143.100 Y122.070 E3.10102
G1 X142.974 Y121.944 E3.10235
G1 X141.612 Y123.305 E3.11667
G1 X141.486 Y123.178 E3.11800
G1 X142.847 Y121.817 E3.13232
G1 X142.721 Y121.690 E3.13364
G1 X141.360 Y123.052 E3.14796
G1 X141.233 Y122.925 E3.14929
G1 X142.595 Y121.564 E3.16361
G1 X142.468 Y121.437 E3.16494
G1 X141.107 Y122.798 E3.17925
G1 X140.981 Y122.672 E3.18058
G1 X142.342 Y121.310 E3.19490
G1 X142.216 Y121.184 E3.19623
G1 X140.855 Y122.545 E3.21054
G1 X140.728 Y122.418 E3.21187
G1 X142.090 Y121.057 E3.22619
G1 X141.963 Y120.930 E3.22752
G1 X140.602 Y122.292 E3.24183
G1 X140.476 Y122.165 E3.24316
G1 X141.837 Y120.804 E3.25748
G1 X141.711 Y120.677 E3.25881
G1 X140.349 Y122.038 E3.27312
G1 X140.223 Y121.912 E3.27445
G1 X141.585 Y120.550 E3.28877
G1 X141.458 Y120.424 E3.29010
G1 X140.097 Y121.785 E3.30441
G1 X139.971 Y121.658 E3.30574
G1 X141.332 Y120.297 E3.32006
G1 X141.206 Y120.170 E3.32139
G1 X139.844 Y121.532 E3.33570
G1 X139.718 Y121.405 E3.33703
G1 X141.079 Y120.044 E3.35135
G1 X140.953 Y119.917 E3.35268
G1 X139.592 Y121.278 E3.36699
G1 X139.466 Y121.152 E3.36832
G1 X140.827 Y119.790 E3.38264
G1 X140.701 Y119.664 E3.38397
G1 X139.339 Y121.025 E3.39829
G1 X139.213 Y120.898 E3.39962
G1 X140.574 Y119.537 E3.41393
G1 X140.448 Y119.410 E3.41526
G1 X139.087 Y120.772 E3.42958
G1 X138.960 Y120.645 E3.43091
G1 X140.322 Y119.284 E3.44522
G1 X140.195 Y119.157 E3.44655
G1 X138.834 Y120.518 E3.46087
G1 X138.708 Y120.392 E3.46220
G1 X140.069 Y119.030 E3.47651
G1 X139.943 Y118.904 E3.47784
G1 X138.582 Y120.265 E3.49216
G1 X138.455 Y120.138 E3.49349
G1 X139.817 Y118.777 E3.50780
G1 X139.690 Y118.651 E3.50913
G1 X138.329 Y120.012 E3.52345
G1 X138.203 Y119.885 E3.52478
G1 X139.564 Y118.524 E3.53909
G1 X139.438 Y118.397 E3.54042
G1 X138.076 Y119.759 E3.55474
G1 X137.950 Y119.632 E3.55607
G1 X139.311 Y118.271 E3.57038
G1 X139.185 Y118.144 E3.57171
G1 X137.824 Y119.505 E3.58603
