; generated by Slic3r 1.3.0 on 2022-06-04 at 08:47:35

; external perimeters extrusion width = 0.44mm (1.67mm^3/s)
; perimeters extrusion width = 0.56mm (3.10mm^3/s)
; infill extrusion width = 0.50mm (5.48mm^3/s)
; solid infill extrusion width = 0.56mm (6.20mm^3/s)
; top infill extrusion width = 0.56mm (5.17mm^3/s)
; support material extrusion width = 0.44mm (4.76mm^3/s)

M107
M190 S50 ; set bed temperature and wait for it to be reached
M104 S205 ; set temperature
G28 ; home all axes
G1 Z5 F5000 ; lift nozzle

; Filament gcode

M109 S205 ; set temperature and wait for it to be reached
G21 ; set units to millimeters
G90 ; use absolute coordinates
M82 ; use absolute distances for extrusion
G92 E0
G1 E-1.00000 F1800.00000
G92 E0
G1 Z0.350 F7800.000
G1 X77.802 Y97.060 F7800.000
G1 E1.00000 F1800.00000
G1 F1080
G1 X100.376 Y85.215 E3.31811
G1 X103.454 Y84.456 E3.60640
G1 X114.454 Y84.456 E4.60662
G1 X116.713 Y84.853 E4.81517
G1 X118.701 Y85.996 E5.02371
G1 X120.616 Y88.648 E5.32110
G1 X125.578 Y101.213 E6.54948
G1 X126.041 Y103.646 E6.77470
G1 X126.041 Y110.423 E7.39092
G1 X125.897 Y111.794 E7.51627
G1 X125.710 Y112.681 E7.59874
G1 X124.488 Y115.338 E7.86467
G1 X124.015 Y115.955 E7.93530
G1 X122.327 Y117.507 E8.14384
G1 X120.210 Y118.390 E8.35238
G1 X118.756 Y118.552 E8.48544
G1 X81.196 Y118.552 E11.90077
G1 X78.937 Y118.155 E12.10931
G1 X76.352 Y116.447 E12.39100
G1 X75.741 Y115.791 E12.47251
G1 X74.490 Y113.869 E12.68105
G1 X73.959 Y111.271 E12.92214
G1 X73.959 Y103.351 E13.64230
G1 X74.356 Y101.092 E13.85085
G1 X75.149 Y99.564 E14.00741
G1 X75.445 Y99.139 E14.05447
G1 X77.757 Y97.100 E14.33480
G1 E13.33480 F1800.00000
G92 E0
G1 X81.843 Y110.987 F7800.000
G1 E1.00000 F1800.00000
G1 F1080
G1 X118.157 Y110.987 E2.92815
G1 X118.157 Y110.254 E2.96704
G1 X81.843 Y110.254 E4.89519
G1 X81.843 Y109.522 E4.93408
G1 X118.157 Y109.522 E6.86223
G1 X118.157 Y108.790 E6.90112
G1 X81.843 Y108.790 E8.82927
G1 X81.843 Y108.057 E8.86816
G1 X118.157 Y108.057 E10.79630
G1 X118.157 Y107.325 E10.83519
G1 X81.843 Y107.325 E12.76334
G1 X81.843 Y106.592 E12.80223
G1 X118.157 Y106.592 E14.73038
G1 X118.157 Y105.860 E14.76927
G1 X81.843 Y105.860 E16.69742
G1 X81.843 Y105.127 E16.73631
G1 X118.157 Y105.127 E18.66446
G1 X118.157 Y104.395 E18.70335
G1 X81.843 Y104.395 E20.63150
G1 X81.843 Y103.662 E20.67039
G1 X118.157 Y103.662 E22.59854
G1 X118.157 Y103.329 E22.61623
G1 X114.052 Y103.329 E22.83421
G1 X114.052 Y102.930 E22.85540
G1 X103.857 Y102.930 E23.39673
G1 X103.857 Y102.197 E23.43563
G1 X114.052 Y102.197 E23.97696
G1 X114.052 Y101.465 E24.01585
G1 X103.857 Y101.465 E24.55718
G1 X103.857 Y100.732 E24.59607
G1 X114.052 Y100.732 E25.13740
M106 S255
M104 S200 ; set temperature
M140 S45 ; set bed temperature
G1 E24.13740 F1800.00000
G92 E0
G1 Z0.650 F7800.000
G1 X103.770 Y99.547 F7800.000
G1 E1.00000 F1800.00000
G1 F1064.7
G1 X103.770 Y102.072 E1.11828
G1 E0.11828 F1800.00000
G92 E0
G1 X118.850 Y111.739 F7800.000
G1 E1.00000 F1800.00000
G1 F1064.7
G1 X118.850 Y103.114 E1.40406
G1 X118.096 Y103.114 E1.43938
G1 X118.096 Y111.739 E1.84344
G1 X117.342 Y111.739 E1.87876
G1 X117.342 Y103.114 E2.28282
G1 X116.588 Y103.114 E2.31814
G1 X116.588 Y111.739 E2.72220
G1 X116.187 Y111.739 E2.74098
G1 X116.187 Y111.519 E2.75128
G1 X115.834 Y111.519 E2.76783
G1 X115.834 Y103.334 E3.15127
G1 X115.080 Y103.334 E3.18659
G1 X115.080 Y111.519 E3.57004
G1 X114.326 Y111.519 E3.60536
G1 X114.326 Y103.334 E3.98880
G1 X114.046 Y103.334 E4.00190
G1 X114.046 Y102.072 E4.06103
G1 X114.266 Y102.072 E4.07134
G1 X114.266 Y99.547 E4.18962
G1 X113.572 Y99.547 E4.22216
G1 X113.572 Y111.519 E4.78302
G1 X112.818 Y111.519 E4.81834
G1 X112.818 Y99.547 E5.37920
G1 X112.064 Y99.547 E5.41452
G1 X112.064 Y111.519 E5.97538
G1 X111.310 Y111.519 E6.01071
G1 X111.310 Y99.547 E6.57156
G1 X110.556 Y99.547 E6.60689
G1 X110.556 Y111.519 E7.16775
G1 X109.802 Y111.519 E7.20307
G1 X109.802 Y99.547 E7.76393
G1 X109.048 Y99.547 E7.79925
G1 X109.048 Y111.519 E8.36011
G1 X108.294 Y111.519 E8.39544
G1 X108.294 Y99.547 E8.95629
G1 X107.540 Y99.547 E8.99162
G1 X107.540 Y111.519 E9.55248
G1 X106.786 Y111.519 E9.58780
G1 X106.786 Y99.547 E10.14866
G1 X106.032 Y99.547 E10.18398
G1 X106.032 Y111.519 E10.74484
G1 X105.278 Y111.519 E10.78017
G1 X105.278 Y99.547 E11.34102
G1 X104.524 Y99.547 E11.37635
G1 X104.524 Y111.519 E11.93721
G1 X103.770 Y111.519 E11.97253
G1 X103.770 Y103.334 E12.35597
G1 X103.016 Y103.334 E12.39130
G1 X103.016 Y111.519 E12.77474
G1 X102.262 Y111.519 E12.81006
G1 X102.262 Y103.334 E13.19351
G1 X101.508 Y103.334 E13.22883
G1 X101.508 Y111.519 E13.61227
G1 X100.754 Y111.519 E13.64760
G1 X100.754 Y103.334 E14.03104
G1 X100.000 Y103.334 E14.06636
G1 X100.000 Y111.519 E14.44981
G1 X99.246 Y111.519 E14.48513
G1 X99.246 Y103.334 E14.86857
G1 X98.492 Y103.334 E14.90390
G1 X98.492 Y111.519 E15.28734
G1 X97.738 Y111.519 E15.32266
G1 X97.738 Y103.334 E15.70611
G1 X96.984 Y103.334 E15.74143
G1 X96.984 Y111.519 E16.12487
G1 X96.230 Y111.519 E16.16020
G1 X96.230 Y103.334 E16.54364
G1 X95.476 Y103.334 E16.57896
G1 X95.476 Y111.519 E16.96241
G1 X94.722 Y111.519 E16.99773
G1 X94.722 Y103.334 E17.38117
G1 X93.968 Y103.334 E17.41650
G1 X93.968 Y111.519 E17.79994
G1 X93.214 Y111.519 E17.83526
G1 X93.214 Y103.334 E18.21871
G1 X92.460 Y103.334 E18.25403
G1 X92.460 Y111.519 E18.63747
G1 X91.706 Y111.519 E18.67280
G1 X91.706 Y103.334 E19.05624
G1 X90.952 Y103.334 E19.09156
G1 X90.952 Y111.519 E19.47501
G1 X90.198 Y111.519 E19.51033
G1 X90.198 Y103.334 E19.89377
G1 X89.444 Y103.334 E19.92910
G1 X89.444 Y111.519 E20.31254
G1 X88.690 Y111.519 E20.34786
G1 X88.690 Y103.334 E20.73130
G1 X87.936 Y103.334 E20.76663
G1 X87.936 Y111.519 E21.15007
G1 X87.182 Y111.519 E21.18540
G1 X87.182 Y103.334 E21.56884
G1 X86.428 Y103.334 E21.60416
G1 X86.428 Y111.519 E21.98760
G1 X85.674 Y111.519 E22.02293
G1 X85.674 Y103.334 E22.40637
G1 X84.920 Y103.334 E22.44170
G1 X84.920 Y111.519 E22.82514
G1 X84.166 Y111.519 E22.86046
G1 X84.166 Y103.334 E23.24390
G1 X83.813 Y103.334 E23.26045
G1 X83.813 Y103.114 E23.27076
G1 X83.412 Y103.114 E23.28954
G1 X83.412 Y111.739 E23.69359
G1 X82.658 Y111.739 E23.72892
G1 X82.658 Y103.114 E24.13297
G1 X81.904 Y103.114 E24.16830
G1 X81.904 Y111.739 E24.57235
G1 X81.150 Y111.739 E24.60768
G1 X81.150 Y103.114 E25.01173
G1 E24.01173 F1800.00000
G92 E0
G1 X104.294 Y91.701 F7800.000
G1 E1.00000 F1800.00000
G1 F1064.7
G1 X104.294 Y91.081 E1.02905
G1 X103.454 Y91.081 E1.06840
G1 X103.454 Y94.564 E1.23158
G1 X104.294 Y94.564 E1.27094
G1 X104.294 Y91.701 E1.40508
G1 E0.40508 F1800.00000
G92 E0
G1 X114.454 Y94.564 F7800.000
G1 E1.00000 F1800.00000
G1 F1064.7
G1 X114.454 Y91.081 E1.16318
G1 X113.614 Y91.081 E1.20254
G1 X113.614 Y94.564 E1.36572
G1 X114.454 Y94.564 E1.40508
G1 E0.40508 F1800.00000
G92 E0
G1 Z0.950 F7800.000
G1 X114.046 Y100.754 F7800.000
G1 E1.00000 F1800.00000
G1 F985.705
G1 X103.862 Y100.754 E1.47714
G1 X103.862 Y101.508 E1.51247
G1 X114.046 Y101.508 E1.98961
G1 X114.046 Y102.262 E2.02493
G1 X103.862 Y102.262 E2.50207
G1 X103.862 Y103.016 E2.53740
G1 X114.046 Y103.016 E3.01454
G1 X114.046 Y103.334 E3.02945
G1 X118.152 Y103.334 E3.22178
G1 X118.152 Y103.770 E3.24219
G1 X81.848 Y103.770 E4.94299
G1 X81.848 Y104.524 E4.97831
G1 X118.152 Y104.524 E6.67911
G1 X118.152 Y105.278 E6.71443
G1 X81.848 Y105.278 E8.41523
G1 X81.848 Y106.032 E8.45055
G1 X118.152 Y106.032 E10.15135
G1 X118.152 Y106.786 E10.18667
G1 X81.848 Y106.786 E11.88747
G1 X81.848 Y107.540 E11.92279
G1 X118.152 Y107.540 E13.62359
G1 X118.152 Y108.294 E13.65891
G1 X81.848 Y108.294 E15.35971
G1 X81.848 Y109.048 E15.39503
G1 X118.152 Y109.048 E17.09583
G1 X118.152 Y109.802 E17.13115
G1 X81.848 Y109.802 E18.83195
G1 X81.848 Y110.556 E18.86727
G1 X118.152 Y110.556 E20.56807
G1 X118.152 Y111.310 E20.60339
G1 X81.848 Y111.310 E22.30419
G1 X80.772 Y111.310 F7800.000
G1 F985.705
G1 X81.033 Y111.310 E22.31641
G1 X81.033 Y110.556 E22.35174
G1 X80.772 Y110.556 E22.36396
G1 X80.772 Y109.802 E22.39929
G1 X81.033 Y109.802 E22.41151
G1 X81.033 Y109.048 E22.44684
G1 X80.772 Y109.048 E22.45906
G1 X80.772 Y108.294 E22.49439
G1 X81.033 Y108.294 E22.50662
G1 X81.033 Y107.540 E22.54194
G1 X80.772 Y107.540 E22.55417
G1 X80.772 Y106.786 E22.58949
G1 X81.033 Y106.786 E22.60172
G1 X81.033 Y106.032 E22.63704
G1 X80.772 Y106.032 E22.64927
G1 X80.772 Y105.278 E22.68459
G1 X81.033 Y105.278 E22.69682
G1 X81.033 Y104.524 E22.73214
G1 X80.772 Y104.524 E22.74437
G1 X80.772 Y103.770 E22.77969
G1 X81.033 Y103.770 E22.79192
G1 E21.79192 F1800.00000
G92 E0
G1 X119.228 Y103.770 F7800.000
G1 E1.00000 F1800.00000
G1 F985.705
G1 X118.967 Y103.770 E1.01223
G1 X118.967 Y104.524 E1.04755
G1 X119.228 Y104.524 E1.05978
G1 X119.228 Y105.278 E1.09510
G1 X118.967 Y105.278 E1.10733
G1 X118.967 Y106.032 E1.14265
G1 X119.228 Y106.032 E1.15488
G1 X119.228 Y106.786 E1.19020
G1 X118.967 Y106.786 E1.20243
G1 X118.967 Y107.540 E1.23775
G1 X119.228 Y107.540 E1.24998
G1 X119.228 Y108.294 E1.28530
G1 X118.967 Y108.294 E1.29753
G1 X118.967 Y109.048 E1.33285
G1 X119.228 Y109.048 E1.34508
G1 X119.228 Y109.802 E1.38040
G1 X118.967 Y109.802 E1.39263
G1 X118.967 Y110.556 E1.42796
G1 X119.228 Y110.556 E1.44018
G1 X119.228 Y111.310 E1.47551
G1 X118.967 Y111.310 E1.48773
G1 E0.48773 F1800.00000
G92 E0
G1 X114.454 Y94.564 F7800.000
G1 E1.00000 F1800.00000
G1 F985.705
G1 X114.454 Y91.081 E1.16318
G1 X113.614 Y91.081 E1.20254
G1 X113.614 Y94.564 E1.36572
G1 X114.454 Y94.564 E1.40508
G1 E0.40508 F1800.00000
G92 E0
G1 X104.294 Y91.701 F7800.000
G1 E1.00000 F1800.00000
G1 F985.705
G1 X104.294 Y91.081 E1.02905
G1 X103.454 Y91.081 E1.06840
G1 X103.454 Y94.564 E1.23158
G1 X104.294 Y94.564 E1.27094
G1 X104.294 Y91.701 E1.40508
G1 E0.40508 F1800.00000
G92 E0
G1 Z1.150 F7800.000
G1 X103.714 Y99.360 F7800.000
G1 E1.00000 F1800.00000
G1 F600
G1 X104.044 Y99.931 E1.02179
G1 X104.704 Y99.931 E1.04358
G1 X105.034 Y99.360 E1.06537
G1 X105.694 Y99.360 F7800.000
G1 F600
G1 X106.024 Y99.931 E1.08717
G1 X106.684 Y99.931 E1.10896
G1 X107.014 Y99.360 E1.13075
G1 X107.674 Y99.360 F7800.000
G1 F600
G1 X108.004 Y99.931 E1.15254
G1 X108.664 Y99.931 E1.17433
G1 X108.994 Y99.360 E1.19612
G1 X109.654 Y99.360 F7800.000
G1 F600
G1 X109.984 Y99.931 E1.21791
G1 X110.644 Y99.931 E1.23970
G1 X110.974 Y99.360 E1.26150
G1 X111.634 Y99.360 F7800.000
G1 F600
G1 X111.964 Y99.931 E1.28329
G1 X112.624 Y99.931 E1.30508
G1 X112.954 Y99.360 E1.32687
G1 X113.614 Y99.360 F7800.000
G1 F600
G1 X113.944 Y99.931 E1.34866
G1 F600
G1 X114.454 Y99.931 E1.36551
G1 X114.454 Y100.588 E1.38719
G1 X114.124 Y100.588 E1.39808
G1 X113.872 Y101.025 E1.41473
G1 X113.724 Y100.768 E1.42450
G1 X112.654 Y100.760 E1.45983
G1 X112.324 Y100.188 E1.48162
G1 X111.664 Y100.188 E1.50341
G1 X111.334 Y100.760 E1.52520
G1 X110.674 Y100.760 E1.54699
G1 X110.344 Y100.188 E1.56878
G1 X109.684 Y100.188 E1.59057
G1 X109.354 Y100.760 E1.61237
G1 X108.694 Y100.760 E1.63416
G1 X108.364 Y100.188 E1.65595
G1 X107.704 Y100.188 E1.67774
G1 X107.374 Y100.760 E1.69953
G1 X106.714 Y100.760 E1.72132
G1 X106.384 Y100.188 E1.74311
G1 X105.724 Y100.188 E1.76491
G1 X105.394 Y100.760 E1.78670
G1 X104.920 Y100.760 E1.80235
G1 X104.844 Y100.628 E1.80737
G1 X104.184 Y100.628 E1.82916
G1 X103.854 Y101.200 E1.85095
G1 X104.184 Y101.771 E1.87274
G1 X104.514 Y101.771 E1.88364
G1 X104.514 Y102.260 E1.89976
G1 X104.254 Y102.260 E1.90835
G1 X103.924 Y101.688 E1.93014
G1 X103.454 Y101.688 E1.94566
G1 X103.454 Y100.992 F7800.000
G1 F600
G1 X103.784 Y100.992 E1.95655
G1 X104.114 Y100.420 E1.97834
G1 X103.784 Y99.848 E2.00014
G1 X103.454 Y99.848 E2.01103
G1 E1.01103 F1800.00000
G92 E0
G1 X114.112 Y101.710 F7800.000
G1 E1.00000 F1800.00000
G1 F600
G1 X113.976 Y101.475 E1.00895
G1 X113.724 Y101.911 E1.02560
G1 X113.394 Y101.911 E1.03649
G1 X113.394 Y102.260 E1.04800
G1 X113.794 Y102.260 E1.06121
G1 X114.112 Y101.710 E1.08218
G1 E0.08218 F1800.00000
G92 E0
G1 X115.999 Y102.927 F7800.000
G1 E1.00000 F1800.00000
G1 F600
G1 X115.999 Y103.415 E1.01613
G1 X116.321 Y103.415 E1.02675
G1 F600
G1 X116.039 Y102.927 E1.04537
G1 X117.359 Y102.927 F7800.000
G1 F600
G1 X117.029 Y103.498 E1.06716
G1 X116.598 Y103.498 E1.08141
G1 X116.880 Y103.987 E1.10003
G1 X117.499 Y103.987 E1.12049
G1 X117.499 Y104.115 E1.12474
G1 X117.829 Y104.115 E1.13564
G1 X118.159 Y104.687 E1.15743
G1 X117.829 Y105.258 E1.17922
G1 X117.499 Y105.258 E1.19011
G1 X117.499 Y106.095 E1.21774
G1 X117.829 Y106.095 E1.22864
G1 X118.159 Y106.667 E1.25043
G1 X117.829 Y107.238 E1.27222
G1 X117.499 Y107.238 E1.28312
G1 X117.499 Y108.075 E1.31075
G1 X117.829 Y108.075 E1.32164
G1 X118.159 Y108.647 E1.34344
G1 X117.829 Y109.218 E1.36523
G1 X117.499 Y109.218 E1.37612
G1 X117.499 Y110.055 E1.40375
G1 X117.829 Y110.055 E1.41465
G1 X118.159 Y110.627 E1.43644
G1 X117.829 Y111.198 E1.45823
G1 X117.169 Y111.198 E1.48002
G1 X116.978 Y110.867 E1.49267
G1 X116.521 Y110.867 E1.50777
G1 X116.659 Y111.107 E1.51693
G1 X116.329 Y111.678 E1.53872
G1 X115.999 Y111.678 E1.54961
G1 X115.999 Y111.927 E1.55781
G1 X116.500 Y111.927 E1.57432
G1 X116.830 Y111.355 E1.59612
G1 X117.490 Y111.355 E1.61791
G1 X117.820 Y111.927 E1.63970
G1 X118.480 Y111.927 E1.66149
G1 X118.810 Y111.355 E1.68328
G1 X119.140 Y111.355 E1.69418
G1 X119.140 Y110.958 E1.70730
G1 X118.810 Y110.958 E1.71819
G1 X118.480 Y110.386 E1.73998
G1 X118.810 Y109.815 E1.76177
G1 X119.140 Y109.815 E1.77267
G1 X119.140 Y108.978 E1.80030
G1 X118.810 Y108.978 E1.81120
G1 X118.480 Y108.406 E1.83299
G1 X118.810 Y107.835 E1.85478
G1 X119.140 Y107.835 E1.86567
G1 X119.140 Y106.998 E1.89331
G1 X118.810 Y106.998 E1.90420
G1 X118.480 Y106.426 E1.92599
G1 X118.810 Y105.855 E1.94778
G1 X119.140 Y105.855 E1.95868
G1 X119.140 Y105.018 E1.98631
G1 X118.810 Y105.018 E1.99721
G1 X118.480 Y104.446 E2.01900
G1 X118.810 Y103.875 E2.04079
G1 X119.140 Y103.875 E2.05168
G1 X119.140 Y103.272 E2.07157
G1 X119.009 Y103.498 E2.08019
G1 X118.349 Y103.498 E2.10198
G1 F600
G1 X118.019 Y102.927 E2.12377
G1 E1.12377 F1800.00000
G92 E0
G1 X84.001 Y103.415 F7800.000
G1 E1.00000 F1800.00000
G1 F600
G1 X84.001 Y103.238 E1.00586
G1 X83.898 Y103.415 E1.01263
G1 X84.001 Y103.415 E1.01602
G1 X82.860 Y102.927 F7800.000
G1 F600
G1 X83.190 Y103.498 E1.03781
G1 X83.623 Y103.498 E1.05209
G1 X83.341 Y103.987 E1.07071
G1 X82.883 Y103.987 E1.08580
G1 X82.831 Y103.895 E1.08929
G1 X82.171 Y103.895 E1.11109
G1 X81.841 Y104.467 E1.13288
G1 X82.171 Y105.038 E1.15467
G1 X82.501 Y105.038 E1.16556
G1 X82.501 Y105.875 E1.19319
G1 X82.171 Y105.875 E1.20409
G1 X81.841 Y106.447 E1.22588
G1 X82.171 Y107.018 E1.24767
G1 X82.501 Y107.018 E1.25857
G1 X82.501 Y107.855 E1.28620
G1 X82.171 Y107.855 E1.29709
G1 X81.841 Y108.427 E1.31889
G1 X82.171 Y108.998 E1.34068
G1 X82.501 Y108.998 E1.35157
G1 X82.501 Y109.835 E1.37920
G1 X82.171 Y109.835 E1.39010
G1 X81.841 Y110.407 E1.41189
G1 X82.171 Y110.978 E1.43368
G1 X82.831 Y110.978 E1.45547
G1 X82.895 Y110.867 E1.45973
G1 X83.352 Y110.867 E1.47482
G1 X83.341 Y110.887 E1.47558
G1 F600
G1 X83.671 Y111.458 E1.49737
G1 X84.001 Y111.458 E1.50827
G1 X84.001 Y111.927 E1.52374
G1 X83.721 Y111.927 E1.53298
G1 X83.391 Y111.355 E1.55477
G1 X82.731 Y111.355 E1.57656
G1 X82.401 Y111.927 E1.59835
G1 X81.741 Y111.927 E1.62014
G1 X81.411 Y111.355 E1.64194
G1 X80.860 Y111.355 E1.66010
G1 X80.860 Y110.739 F7800.000
G1 F600
G1 X81.190 Y110.739 E1.67100
G1 X81.520 Y110.167 E1.69279
G1 X81.190 Y109.595 E1.71458
G1 X80.860 Y109.595 E1.72548
G1 X80.860 Y108.759 F7800.000
G1 F600
G1 X81.190 Y108.759 E1.73637
G1 X81.520 Y108.187 E1.75817
G1 X81.190 Y107.615 E1.77996
G1 X80.860 Y107.615 E1.79085
