; generated by Slic3r 1.3.0 on 2022-06-05 at 22:06:40

; external perimeters extrusion width = 0.44mm (1.67mm^3/s)
; perimeters extrusion width = 0.56mm (3.10mm^3/s)
; infill extrusion width = 0.50mm (5.48mm^3/s)
; solid infill extrusion width = 0.56mm (6.20mm^3/s)
; top infill extrusion width = 0.56mm (5.17mm^3/s)
; support material extrusion width = 0.44mm (4.76mm^3/s)

M107
M190 S50 ; set bed temperature and wait for it to be reached
M104 S205 ; set temperature
G28 ; home all axes
G1 Z5 F5000 ; lift nozzle

; Filament gcode

M109 S205 ; set temperature and wait for it to be reached
G21 ; set units to millimeters
G90 ; use absolute coordinates
M82 ; use absolute distances for extrusion
G92 E0
G1 E-1.00000 F1800.00000
G92 E0
G1 Z0.750 F7800.000
G1 X66.011 Y86.599 F7800.000
G1 E1.00000 F1800.00000
G1 F1080
G1 X66.764 Y86.060 E1.08418
G1 X68.035 Y85.282 E1.21970
G1 X68.980 Y84.807 E1.31587
G1 X70.128 Y84.340 E1.42854
G1 X70.638 Y84.152 E1.47800
G1 X71.371 Y83.938 E1.54743
G1 X72.751 Y83.621 E1.67620
G1 X73.798 Y83.467 E1.77238
G1 X75.334 Y83.366 E1.91235
G1 X114.496 Y81.285 E5.47839
G1 X124.747 Y81.276 E6.41055
G1 X127.006 Y81.673 E6.61909
G1 X128.355 Y82.344 E6.75611
G1 X129.168 Y82.872 E6.84427
G1 X130.847 Y84.435 E7.05281
G1 X131.742 Y86.046 E7.22037
G1 X138.551 Y103.709 E8.94170
G1 X138.993 Y105.960 E9.15024
G1 X138.641 Y108.226 E9.35878
G1 X137.095 Y110.735 E9.62674
G1 X134.430 Y113.447 E9.97251
G1 X133.266 Y114.390 E10.10870
G1 X131.133 Y115.751 E10.33879
G1 X129.015 Y116.631 E10.54733
G1 X127.571 Y116.790 E10.67944
G1 X94.642 Y116.790 E13.67365
G1 X93.967 Y116.756 E13.73509
G1 X73.561 Y114.666 E15.60029
G1 X73.078 Y114.599 E15.64463
G1 X72.621 Y114.507 E15.68706
G1 X71.310 Y114.201 E15.80942
G1 X70.356 Y113.900 E15.90039
G1 X69.266 Y113.462 E16.00725
G1 X68.979 Y113.346 E16.03539
G1 X68.035 Y112.871 E16.13148
G1 X66.682 Y112.042 E16.27580
G1 X65.968 Y111.518 E16.35626
G1 X63.945 Y109.795 E16.59788
G1 X62.502 Y108.013 E16.80642
G1 X61.670 Y104.798 E17.10838
G1 X61.670 Y93.355 E18.14888
G1 X62.067 Y91.096 E18.35743
G1 X63.973 Y88.334 E18.66261
G1 X65.965 Y86.637 E18.90052
G1 E17.90052 F1800.00000
G92 E0
G1 X71.270 Y96.338 F7800.000
G1 E1.00000 F1800.00000
G1 F1080
G1 X72.010 Y96.338 E1.03932
G1 X72.878 Y95.605 E1.09960
G1 X70.537 Y95.605 E1.22387
G1 X69.805 Y94.873 E1.27887
G1 X74.282 Y94.873 E1.51660
G1 E0.51660 F1800.00000
G92 E0
G1 X78.543 Y90.478 F7800.000
G1 E1.00000 F1800.00000
G1 F1080
G1 X72.621 Y90.478 E1.31445
G1 X71.473 Y90.944 E1.38024
G1 X71.035 Y91.210 E1.40746
G1 X80.103 Y91.210 E1.88896
G1 X81.090 Y91.847 E1.95129
G1 X81.196 Y91.943 E1.95890
G1 X69.944 Y91.943 E2.55635
G1 X69.084 Y92.675 E2.61632
G1 X125.158 Y92.675 E5.59364
G1 X125.158 Y93.408 E5.63253
G1 X68.340 Y93.408 E8.64936
G1 X69.073 Y94.140 E8.70435
G1 X125.158 Y94.140 E11.68230
G1 X125.158 Y94.873 E11.72119
G1 X76.805 Y94.873 E14.28854
G1 X77.244 Y95.013 E14.31298
G1 X77.901 Y95.352 E14.35223
G1 X78.237 Y95.605 E14.37460
G1 X125.158 Y95.605 E16.86593
G1 X125.158 Y96.338 E16.90482
G1 X79.002 Y96.338 E19.35554
G1 X79.410 Y96.949 E19.39455
G1 X79.465 Y97.070 E19.40162
G1 X125.158 Y97.070 E21.82778
G1 X125.158 Y97.803 E21.86667
G1 X79.758 Y97.803 E24.27723
G1 X79.897 Y98.340 E24.30668
G1 X79.913 Y98.535 E24.31709
G1 X125.158 Y98.535 E26.71942
G1 X125.158 Y99.268 E26.75831
G1 X79.943 Y99.268 E29.15907
G1 X79.897 Y99.813 E29.18815
G1 X79.849 Y100.000 E29.19839
G1 X125.158 Y100.000 E31.60416
G1 X125.158 Y100.732 E31.64305
G1 X79.621 Y100.732 E34.06089
G1 X79.410 Y101.204 E34.08833
G1 X79.236 Y101.465 E34.10497
G1 X125.158 Y101.465 E36.54327
G1 X125.158 Y102.197 E36.58216
G1 X78.642 Y102.197 E39.05201
G1 X78.492 Y102.356 E39.06363
G1 X77.901 Y102.801 E39.10288
G1 X77.651 Y102.930 E39.11779
G1 X125.158 Y102.930 E41.64023
G1 X125.158 Y103.662 E41.67912
G1 X69.423 Y103.662 E44.63847
G1 X68.690 Y104.395 E44.69347
G1 X125.158 Y104.395 E47.69170
G1 X125.158 Y105.127 E47.73059
G1 X68.673 Y105.127 E50.72974
G1 X69.533 Y105.860 E50.78972
G1 X81.585 Y105.860 E51.42965
G1 X81.090 Y106.306 E51.46506
G1 X80.646 Y106.592 E51.49310
G1 X70.458 Y106.592 E52.03404
G1 X71.473 Y107.208 E52.09709
G1 X71.759 Y107.325 E52.11348
G1 X79.342 Y107.325 E52.51611
G1 X78.538 Y107.677 E52.56272
G1 X77.132 Y108.041 E52.63986
G1 X76.965 Y108.057 E52.64877
G1 X74.131 Y108.057 E52.79923
G1 E51.79923 F1800.00000
G92 E0
G1 X72.463 Y102.197 F7800.000
G1 E1.00000 F1800.00000
G1 F1080
G1 X71.609 Y101.476 E1.05936
G1 X70.888 Y102.197 E1.11352
G1 X72.463 Y102.197 E1.19717
G1 X73.015 Y102.664 E1.23556
G1 X73.466 Y102.930 E1.26335
G1 X70.155 Y102.930 E1.43916
G1 E0.43916 F1800.00000
G92 E0
G1 X81.585 Y105.860 F7800.000
G1 E1.00000 F1800.00000
G1 F1080
G1 X81.833 Y105.637 E1.01769
G1 X81.833 Y105.674 E1.01968
G1 X114.963 Y105.674 E2.77876
G1 X114.963 Y105.860 E2.78860
G1 X125.158 Y105.860 E3.32993
G1 X125.158 Y106.592 E3.36882
G1 X114.963 Y106.592 E3.91015
G1 E2.91015 F1800.00000
G92 E0
G1 X114.963 Y91.943 F7800.000
G1 E1.00000 F1800.00000
G1 F1080
G1 X125.158 Y91.943 E1.54133
G1 X125.158 Y91.210 E1.58022
G1 X114.963 Y91.210 E2.12156
G1 X114.963 Y90.478 E2.16045
G1 X125.158 Y90.478 E2.70178
G1 X125.158 Y89.746 E2.74067
G1 X114.963 Y89.746 E3.28200
G1 X114.963 Y89.312 E3.30502
G1 X125.158 Y89.312 E3.84636
G1 X125.158 Y89.746 E3.86938
G1 X124.996 Y88.377 F7800.000
G1 F1080
G1 X124.996 Y88.213 E3.88430
G1 X123.746 Y88.213 E3.99794
G1 X123.746 Y88.377 E4.01286
G1 X122.496 Y88.377 E4.12651
G1 X122.496 Y88.213 E4.14143
G1 X121.246 Y88.213 E4.25507
G1 X121.246 Y88.377 E4.26999
G1 X119.996 Y88.377 E4.38363
G1 X119.996 Y88.213 E4.39855
G1 X118.747 Y88.213 E4.51220
G1 X118.747 Y88.377 E4.52712
G1 X117.497 Y88.377 E4.64076
G1 X117.497 Y88.213 E4.65568
G1 X116.247 Y88.213 E4.76932
G1 X116.247 Y88.377 E4.78424
G1 X114.997 Y88.377 E4.89788
G1 X114.997 Y88.213 E4.91281
G1 E3.91281 F1800.00000
G92 E0
G1 X114.997 Y107.758 F7800.000
G1 E1.00000 F1800.00000
G1 F1080
G1 X114.997 Y109.246 E1.13525
G1 X116.247 Y109.246 F7800.000
G1 F1080
G1 X116.984 Y109.246 E1.20227
G1 X116.984 Y108.589 E1.26203
G1 X116.247 Y108.589 E1.32906
G1 X116.247 Y109.246 E1.38882
G1 E0.38882 F1800.00000
G92 E0
G1 X112.498 Y109.246 F7800.000
G1 E1.00000 F1800.00000
G1 F1080
G1 X112.498 Y106.609 E1.23975
G1 X111.248 Y106.609 E1.35339
G1 X111.248 Y109.246 E1.59314
G1 X109.998 Y109.246 E1.70678
G1 X109.998 Y106.609 E1.94653
G1 X108.748 Y106.609 E2.06017
G1 X108.748 Y109.246 E2.29992
G1 X107.499 Y109.246 E2.41356
G1 X107.499 Y106.609 E2.65331
G1 X106.249 Y106.609 E2.76695
G1 X106.249 Y109.246 E3.00670
G1 X104.999 Y109.246 E3.12034
G1 X104.999 Y106.609 E3.36009
G1 E2.36009 F1800.00000
G92 E0
G1 X102.500 Y109.246 F7800.000
G1 E1.00000 F1800.00000
G1 F1080
G1 X102.500 Y106.609 E1.23975
G1 X101.250 Y106.609 E1.35339
G1 X101.250 Y109.246 E1.59314
G1 X100.000 Y109.246 E1.70678
G1 X100.000 Y106.609 E1.94653
G1 X98.750 Y106.609 E2.06017
G1 X98.750 Y109.246 E2.29992
G1 X97.500 Y109.246 E2.41356
G1 X97.500 Y106.609 E2.65331
G1 X96.251 Y106.609 E2.76695
G1 X96.251 Y109.246 E3.00670
G1 X95.001 Y109.242 E3.12034
G1 X95.001 Y106.609 E3.35973
G1 X93.751 Y106.609 E3.47337
G1 X93.751 Y107.020 E3.51070
G1 X93.412 Y107.020 E3.54156
G1 X93.412 Y108.243 E3.65276
G1 X93.751 Y108.465 E3.68966
G1 X93.751 Y109.208 E3.75716
G1 X92.931 Y108.670 E3.84630
G1 X92.501 Y108.250 E3.90094
G1 X92.501 Y106.609 E4.05017
G1 X91.252 Y106.609 E4.16381
G1 X91.252 Y107.030 E4.20208
G1 X90.820 Y106.609 E4.25687
G1 X91.252 Y106.609 E4.29607
G1 E3.29607 F1800.00000
G92 E0
G1 X124.996 Y107.758 F7800.000
G1 E1.00000 F1800.00000
G1 F1080
G1 X124.813 Y107.758 E1.01659
G1 X124.813 Y108.589 E1.09208
G1 X124.697 Y108.589 E1.10267
G1 X124.697 Y109.246 E1.16243
G1 X124.996 Y109.246 E1.18961
G1 X124.996 Y107.758 E1.32486
G1 X126.093 Y107.758 E1.42466
G1 X126.093 Y106.585 E1.53139
G1 X126.245 Y106.585 E1.54523
G1 X126.245 Y109.246 E1.78721
G1 X127.180 Y109.246 E1.87217
G1 X127.495 Y109.207 E1.90107
G1 X127.495 Y106.405 E2.15587
G1 X128.745 Y106.405 E2.26951
G1 X128.745 Y109.022 E2.50751
G1 X129.282 Y108.670 E2.56586
G1 X129.995 Y107.974 E2.65648
G1 X129.995 Y106.405 E2.79918
G1 X131.244 Y106.405 E2.91282
G1 X131.244 Y106.754 E2.94457
M106 S255
M104 S200 ; set temperature
M140 S45 ; set bed temperature
G1 E1.94457 F1800.00000
G92 E0
G1 Z1.050 F7800.000
G1 X124.882 Y107.371 F7800.000
G1 E1.00000 F1800.00000
G1 F2508.46
G1 X124.882 Y88.401 E1.88873
G1 X124.128 Y88.401 E1.92406
G1 X124.128 Y107.371 E2.81279
G1 X123.374 Y107.371 E2.84811
G1 X123.374 Y88.401 E3.73685
G1 X122.620 Y88.401 E3.77217
G1 X122.620 Y107.371 E4.66090
G1 X121.866 Y107.371 E4.69623
G1 X121.866 Y88.401 E5.58496
G1 X121.112 Y88.401 E5.62029
G1 X121.112 Y107.371 E6.50902
G1 X120.358 Y107.371 E6.54434
G1 X120.358 Y88.401 E7.43308
G1 X119.604 Y88.401 E7.46840
G1 X119.604 Y107.371 E8.35713
G1 X118.850 Y107.371 E8.39246
G1 X118.850 Y88.401 E9.28119
G1 X118.096 Y88.401 E9.31652
G1 X118.096 Y107.371 E10.20525
G1 X117.342 Y107.371 E10.24057
G1 X117.342 Y88.401 E11.12931
G1 X116.588 Y88.401 E11.16463
G1 X116.588 Y107.371 E12.05336
G1 X115.834 Y107.371 E12.08869
G1 X115.834 Y88.401 E12.97742
G1 X115.080 Y88.401 E13.01275
G1 X115.080 Y107.371 E13.90148
G1 X114.748 Y107.371 E13.91701
G1 X114.748 Y105.669 E13.99677
G1 X114.326 Y105.669 E14.01656
G1 X114.326 Y92.484 E14.63428
G1 X113.572 Y92.484 E14.66960
G1 X113.572 Y105.669 E15.28732
G1 X112.818 Y105.669 E15.32264
G1 X112.818 Y92.484 E15.94036
G1 X112.064 Y92.484 E15.97568
G1 X112.064 Y105.669 E16.59340
G1 X111.310 Y105.669 E16.62872
G1 X111.310 Y92.484 E17.24644
G1 X110.556 Y92.484 E17.28176
G1 X110.556 Y105.669 E17.89948
G1 X109.802 Y105.669 E17.93480
G1 X109.802 Y92.484 E18.55252
G1 X109.048 Y92.484 E18.58784
G1 X109.048 Y105.669 E19.20556
G1 X108.294 Y105.669 E19.24088
G1 X108.294 Y92.484 E19.85860
G1 X107.540 Y92.484 E19.89392
G1 X107.540 Y105.669 E20.51164
G1 X106.786 Y105.669 E20.54697
G1 X106.786 Y92.484 E21.16468
G1 X106.032 Y92.484 E21.20001
G1 X106.032 Y105.669 E21.81772
G1 X105.278 Y105.669 E21.85305
G1 X105.278 Y92.484 E22.47076
G1 X104.524 Y92.484 E22.50609
G1 X104.524 Y105.669 E23.12380
G1 X103.770 Y105.669 E23.15913
G1 X103.770 Y92.484 E23.77684
G1 X103.016 Y92.484 E23.81217
G1 X103.016 Y105.669 E24.42988
G1 X102.262 Y105.669 E24.46521
G1 X102.262 Y92.484 E25.08292
G1 X101.508 Y92.484 E25.11825
G1 X101.508 Y105.669 E25.73597
G1 X100.754 Y105.669 E25.77129
G1 X100.754 Y92.484 E26.38901
G1 X100.000 Y92.484 E26.42433
G1 X100.000 Y105.669 E27.04205
G1 X99.246 Y105.669 E27.07737
G1 X99.246 Y92.484 E27.69509
G1 X98.492 Y92.484 E27.73041
G1 X98.492 Y105.669 E28.34813
G1 X97.738 Y105.669 E28.38345
G1 X97.738 Y92.484 E29.00117
G1 X96.984 Y92.484 E29.03649
G1 X96.984 Y105.669 E29.65421
G1 X96.230 Y105.669 E29.68953
G1 X96.230 Y92.484 E30.30725
G1 X95.476 Y92.484 E30.34257
G1 X95.476 Y105.669 E30.96029
G1 X94.722 Y105.669 E30.99561
G1 X94.722 Y92.484 E31.61333
G1 X93.968 Y92.484 E31.64865
G1 X93.968 Y105.669 E32.26637
G1 X93.214 Y105.669 E32.30169
G1 X93.214 Y92.484 E32.91941
G1 X92.460 Y92.484 E32.95473
G1 X92.460 Y105.669 E33.57245
G1 X91.706 Y105.669 E33.60778
G1 X91.706 Y92.484 E34.22549
G1 X90.952 Y92.484 E34.26082
G1 X90.952 Y105.669 E34.87853
G1 X90.198 Y105.669 E34.91386
G1 X90.198 Y92.484 E35.53157
G1 X89.444 Y92.484 E35.56690
G1 X89.444 Y105.669 E36.18461
G1 X88.690 Y105.669 E36.21994
G1 X88.690 Y92.484 E36.83765
G1 X87.936 Y92.484 E36.87298
G1 X87.936 Y105.669 E37.49069
G1 X87.182 Y105.669 E37.52602
G1 X87.182 Y92.484 E38.14373
G1 X86.428 Y92.484 E38.17906
G1 X86.428 Y105.669 E38.79677
G1 X85.674 Y105.669 E38.83210
G1 X85.674 Y92.484 E39.44981
G1 X84.920 Y92.484 E39.48514
G1 X84.920 Y105.669 E40.10285
G1 X84.166 Y105.669 E40.13818
G1 X84.166 Y92.484 E40.75590
G1 X83.412 Y92.484 E40.79122
G1 X83.412 Y105.669 E41.40894
G1 X82.658 Y105.669 E41.44426
G1 X82.658 Y92.484 E42.06198
G1 X81.904 Y92.484 E42.09730
G1 X81.904 Y105.669 E42.71502
G1 X81.838 Y105.669 E42.71809
G1 X81.838 Y105.625 E42.72016
G1 X81.150 Y106.244 E42.76356
G1 X81.150 Y91.908 E43.43519
G1 X80.396 Y91.406 E43.47765
G1 X80.396 Y106.747 E44.19639
G1 X79.866 Y107.089 E44.22591
G1 X79.642 Y107.187 E44.23740
G1 X79.642 Y100.699 E44.54135
G1 X79.415 Y101.207 E44.56739
G1 X79.004 Y101.822 E44.60207
G1 X78.888 Y101.945 E44.60996
G1 X78.888 Y107.518 E44.87106
G1 X78.537 Y107.672 E44.88904
G1 X78.134 Y107.776 E44.90852
G1 X78.134 Y102.632 E45.14952
G1 X77.904 Y102.806 E45.16303
G1 X77.380 Y103.076 E45.19064
G1 X77.380 Y107.972 E45.41999
G1 X77.131 Y108.036 E45.43205
G1 X76.626 Y108.083 E45.45581
G1 X76.626 Y103.343 E45.67790
G1 X76.541 Y103.370 E45.68210
G1 X75.872 Y103.465 E45.71373
G1 X75.872 Y108.154 E45.93344
G1 X75.685 Y108.172 E45.94224
G1 X75.118 Y108.134 E45.96886
G1 X75.118 Y103.454 E46.18812
G1 X74.364 Y103.313 E46.22406
G1 X74.364 Y108.084 E46.44759
G1 X74.236 Y108.076 E46.45359
G1 X73.610 Y107.932 E46.48369
G1 X73.610 Y103.021 E46.71376
G1 X73.012 Y102.668 E46.74627
G1 X72.856 Y102.536 E46.75585
G1 X72.856 Y107.758 E47.00050
G1 X72.102 Y107.458 E47.03852
G1 X72.102 Y101.900 E47.29894
G1 X71.609 Y101.483 E47.32916
G1 X71.348 Y101.745 E47.34646
G1 X71.348 Y107.126 E47.59859
G1 X70.594 Y106.668 E47.63991
G1 X70.594 Y102.499 E47.83527
G1 X69.840 Y103.253 E47.88522
G1 X69.840 Y106.114 E48.01928
G1 X69.086 Y105.472 E48.06568
G1 X69.086 Y104.007 E48.13432
G1 X68.332 Y104.761 E48.18428
G1 X68.332 Y104.830 E48.18751
G1 X68.295 Y104.798 E48.18980
G1 X68.332 Y104.761 E48.19227
G1 E47.19227 F1800.00000
G92 E0
G1 X68.332 Y93.323 F7800.000
G1 E1.00000 F1800.00000
G1 F2508.46
G1 X68.295 Y93.355 E1.00229
G1 X68.332 Y93.392 E1.00475
G1 X68.332 Y93.323 E1.00798
G1 X69.086 Y92.681 E1.05438
G1 X69.086 Y94.146 E1.12302
G1 X69.840 Y94.900 E1.17298
G1 X69.840 Y92.039 E1.30704
G1 X70.234 Y91.703 E1.33131
G1 X70.594 Y91.485 E1.35102
G1 X70.594 Y95.654 E1.54637
G1 X71.348 Y96.408 E1.59633
G1 X71.348 Y91.027 E1.84845
G1 X71.476 Y90.949 E1.85545
G1 X72.102 Y90.695 E1.88712
G1 X72.102 Y96.253 E2.14754
G1 X72.856 Y95.617 E2.19378
G1 X72.856 Y90.395 E2.43842
G1 X73.610 Y90.221 E2.47467
G1 X73.610 Y95.132 E2.70474
G1 X74.364 Y94.840 E2.74262
G1 X74.364 Y90.069 E2.96615
G1 X75.118 Y90.019 E3.00155
G1 X75.118 Y94.699 E3.22080
G1 X75.872 Y94.688 E3.25613
G1 X75.872 Y89.999 E3.47584
G1 X76.626 Y90.069 E3.51132
G1 X76.626 Y94.810 E3.73341
G1 X77.246 Y95.008 E3.76389
G1 X77.380 Y95.077 E3.77096
G1 X77.380 Y90.181 E4.00032
G1 X78.134 Y90.377 E4.03681
G1 X78.134 Y95.521 E4.27781
G1 X78.495 Y95.793 E4.29898
G1 X78.888 Y96.208 E4.32577
G1 X78.888 Y90.635 E4.58687
G1 X79.642 Y90.966 E4.62544
G1 X79.642 Y97.453 E4.92940
G1 E3.92940 F1800.00000
G92 E0
G1 X93.150 Y108.384 F7800.000
G1 E1.00000 F1800.00000
G1 F2508.46
G1 X93.150 Y106.871 E1.07089
G1 X91.463 Y106.871 E1.14992
G1 X93.096 Y108.465 E1.25683
G1 X94.312 Y109.262 E1.32497
G1 X94.391 Y108.998 E1.33792
G1 X93.669 Y108.725 E1.37408
G1 X93.150 Y108.384 E1.40317
G1 X94.148 Y107.332 F7800.000
G1 F2508.46
G1 X94.384 Y107.332 E1.41426
G1 X94.384 Y108.381 E1.46340
G1 X93.931 Y108.210 E1.48607
G1 X93.724 Y108.074 E1.49769
G1 X93.724 Y107.332 E1.53243
G1 X94.148 Y107.332 E1.55227
G1 X102.930 Y108.984 F7800.000
G1 F2508.46
G1 X102.930 Y106.871 E1.65127
G1 X100.428 Y106.871 E1.76851
G1 X99.678 Y108.170 E1.83879
G1 X96.103 Y108.170 E2.00625
G1 X95.353 Y106.871 E2.07653
G1 X94.958 Y106.871 E2.09502
G1 X94.958 Y108.973 E2.19350
G1 X95.862 Y108.984 E2.23585
G1 X96.103 Y108.567 E2.25841
G1 X99.678 Y108.567 E2.42587
G1 X99.918 Y108.984 E2.44843
G1 X102.930 Y108.984 E2.58953
G1 X103.504 Y109.558 F7800.000
G1 F2508.46
G1 X103.504 Y106.297 E2.74233
