; generated by Slic3r 1.3.0 on 2022-06-08 at 21:21:08

; external perimeters extrusion width = 0.44mm (2.97mm^3/s)
; perimeters extrusion width = 0.42mm (4.01mm^3/s)
; infill extrusion width = 0.42mm (8.02mm^3/s)
; solid infill extrusion width = 0.42mm (8.02mm^3/s)
; top infill extrusion width = 0.42mm (6.68mm^3/s)
; support material extrusion width = 0.44mm (8.50mm^3/s)

M107
M190 S50 ; set bed temperature and wait for it to be reached
M104 S205 ; set temperature
G28 ; home all axes
G1 Z5 F5000 ; lift nozzle

; Filament gcode

M109 S205 ; set temperature and wait for it to be reached
G21 ; set units to millimeters
G90 ; use absolute coordinates
M82 ; use absolute distances for extrusion
G92 E0
G1 E-1.00000 F1800.00000
G92 E0
G1 Z1.350 F7800.000
G1 X65.693 Y87.927 F7800.000
G1 E1.00000 F1800.00000
G1 F1080
G1 X66.551 Y87.306 E1.09623
G1 X67.848 Y86.517 E1.23428
G1 X68.793 Y86.041 E1.33050
G1 X70.199 Y85.469 E1.46861
G1 X71.082 Y85.180 E1.55303
G1 X92.066 Y79.904 E3.52051
G1 X93.681 Y79.704 E3.66850
G1 X128.531 Y79.704 E6.83740
G1 X130.790 Y80.101 E7.04594
G1 X132.024 Y80.699 E7.17058
G1 X133.647 Y81.707 E7.34432
G1 X135.358 Y83.235 E7.55286
G1 X136.352 Y84.993 E7.73657
G1 X138.801 Y91.471 E8.36632
G1 X139.229 Y93.725 E8.57486
G1 X138.834 Y96.069 E8.79104
G1 X131.771 Y115.097 E10.63662
G1 X130.612 Y117.077 E10.84516
G1 X128.848 Y118.542 E11.05370
G1 X125.561 Y119.415 E11.36297
G1 X114.561 Y119.415 E12.36319
G1 X114.116 Y119.400 E12.40361
G1 X74.207 Y116.718 E16.04075
G1 X73.568 Y116.644 E16.09928
G1 X72.363 Y116.444 E16.21032
G1 X71.209 Y116.192 E16.31769
G1 X70.199 Y115.872 E16.41401
G1 X68.793 Y115.300 E16.55204
G1 X67.848 Y114.823 E16.64832
G1 X66.349 Y113.886 E16.80909
G1 X65.594 Y113.329 E16.89439
G1 X63.654 Y111.673 E17.12631
G1 X62.193 Y109.905 E17.33485
G1 X61.331 Y106.780 E17.62963
G1 X61.073 Y95.072 E18.69444
G1 X61.420 Y92.805 E18.90298
G1 X62.520 Y90.793 E19.11153
G1 X63.396 Y89.887 E19.22609
G1 X65.648 Y87.966 E19.49526
G1 E18.49526 F1800.00000
G92 E0
G1 X69.988 Y104.662 F7800.000
G1 E1.00000 F1800.00000
G1 F1080
G1 X73.801 Y104.662 E1.20242
G1 X74.344 Y104.870 E1.23328
G1 X75.068 Y105.014 E1.27253
G1 X75.807 Y105.035 E1.31177
G1 X76.539 Y104.931 E1.35101
G1 X77.243 Y104.707 E1.39026
G1 X77.329 Y104.662 E1.39540
G1 E0.39540 F1800.00000
G92 E0
G1 X72.814 Y109.324 F7800.000
G1 E1.00000 F1800.00000
G1 F1080
G1 X78.244 Y109.324 E1.28830
G1 X78.539 Y109.248 E1.30448
G1 X79.870 Y108.663 E1.38166
G1 X80.049 Y108.547 E1.39298
G1 X71.093 Y108.547 E1.86851
G1 X70.230 Y108.022 E1.92212
G1 X69.935 Y107.770 E1.94275
G1 E0.94275 F1800.00000
G92 E0
G1 X114.963 Y110.101 F7800.000
G1 E1.00000 F1800.00000
G1 F1080
G1 X125.158 Y110.101 E1.54133
G1 X125.158 Y109.324 E1.58259
G1 X114.963 Y109.324 E2.12392
G1 X114.963 Y108.547 E2.16518
G1 X125.158 Y108.547 E2.70651
G1 X125.158 Y107.770 E2.74776
G1 X114.963 Y107.770 E3.28910
G1 X114.963 Y107.241 E3.31718
G1 X81.792 Y107.241 E5.07844
G1 X81.205 Y107.770 E5.12038
G1 X69.935 Y107.770 E5.71880
G1 X69.024 Y106.993 E5.78236
G1 X125.158 Y106.993 E8.76286
G1 X125.158 Y106.216 E8.80411
G1 X68.437 Y106.216 E11.81577
G1 X69.213 Y105.439 E11.87406
G1 X125.158 Y105.439 E14.84455
G1 X125.158 Y104.662 E14.88580
G1 X77.329 Y104.662 E17.42535
G1 X77.932 Y104.350 E17.46140
G1 X125.158 Y104.350 E19.96894
G1 X125.158 Y104.662 E19.98551
G1 E18.98551 F1800.00000
G92 E0
G1 X124.996 Y112.478 F7800.000
G1 E1.00000 F1800.00000
G1 F1080
G1 X124.996 Y111.462 E1.09237
G1 X123.746 Y111.462 E1.20601
G1 X123.746 Y112.478 E1.29838
G1 X122.496 Y112.478 E1.41202
G1 X122.496 Y111.462 E1.50439
G1 X121.246 Y111.462 E1.61803
G1 X121.246 Y112.478 E1.71040
G1 X119.996 Y112.478 E1.82404
G1 X119.996 Y111.462 E1.91641
G1 X118.747 Y111.462 E2.03005
G1 X118.747 Y112.478 E2.12242
G1 X117.497 Y112.478 E2.23606
G1 X117.497 Y111.462 E2.32843
G1 X116.247 Y111.462 E2.44207
G1 X116.247 Y112.478 E2.53444
G1 X114.997 Y112.478 E2.64808
G1 X114.997 Y111.462 E2.74045
G1 E1.74045 F1800.00000
G92 E0
G1 X131.244 Y95.102 F7800.000
G1 E1.00000 F1800.00000
G1 F1080
G1 X131.244 Y93.599 E1.13665
G1 X131.782 Y94.575 E1.23794
G1 X131.644 Y94.702 E1.25493
G1 X131.389 Y94.702 E1.27812
G1 X131.437 Y95.102 E1.31474
G1 X131.244 Y95.102 E1.33221
G1 X131.244 Y93.502 F7800.000
G1 F1080
G1 X131.244 Y92.991 E1.37868
G1 X131.187 Y92.991 E1.38387
G1 X131.176 Y92.892 E1.39296
G1 X131.068 Y92.892 E1.40274
G1 X130.898 Y92.191 E1.46831
G1 X130.692 Y92.191 E1.48704
G1 X130.539 Y91.791 E1.52599
G1 X130.249 Y91.791 E1.55233
G1 X129.995 Y91.328 E1.60033
G1 X129.995 Y96.702 E2.08894
G1 X129.480 Y96.702 E2.13577
G1 X129.047 Y97.102 E2.18936
G1 X128.745 Y97.102 E2.21682
G1 X128.745 Y86.829 E3.15091
G1 X128.442 Y86.642 E3.18328
G1 X127.495 Y86.642 E3.26941
G1 X127.495 Y97.102 E4.22057
G1 X126.245 Y97.102 E4.33422
G1 X126.245 Y86.797 E5.27123
G1 X124.996 Y86.797 E5.38487
G1 X124.996 Y103.415 E6.89593
G1 X123.746 Y103.415 E7.00957
G1 X123.746 Y89.197 E8.30241
G1 X122.870 Y89.197 E8.38202
G1 X122.870 Y86.797 E8.60025
G1 X122.496 Y86.797 E8.63428
G1 X122.496 Y103.415 E10.14534
G1 X121.246 Y103.415 E10.25899
G1 X121.246 Y86.797 E11.77005
G1 X119.996 Y86.797 E11.88369
G1 X119.996 Y103.415 E13.39475
G1 X118.747 Y103.415 E13.50840
G1 X118.747 Y86.797 E15.01946
G1 X117.497 Y86.797 E15.13310
G1 X117.497 Y103.415 E16.64417
G1 X116.247 Y103.415 E16.75781
G1 X116.247 Y86.797 E18.26887
G1 X114.997 Y86.797 E18.38251
G1 X114.997 Y103.415 E19.89358
G1 X113.748 Y103.415 E20.00722
G1 X113.748 Y89.197 E21.30005
G1 X112.870 Y89.197 E21.37982
G1 X112.870 Y86.797 E21.59805
G1 X112.498 Y86.797 E21.63192
G1 X112.498 Y103.415 E23.14299
G1 X111.248 Y103.415 E23.25663
G1 X111.248 Y86.797 E24.76769
G1 X109.998 Y86.797 E24.88133
G1 X109.998 Y103.415 E26.39240
G1 X108.748 Y103.415 E26.50604
G1 X108.748 Y86.797 E28.01710
G1 X107.499 Y86.797 E28.13074
G1 X107.499 Y103.415 E29.64181
G1 X106.249 Y103.415 E29.75545
G1 X106.249 Y86.797 E31.26651
G1 X104.999 Y86.797 E31.38015
G1 X104.999 Y103.415 E32.89122
G1 X103.749 Y103.415 E33.00486
G1 X103.749 Y89.197 E34.29769
G1 X102.870 Y89.197 E34.37762
G1 X102.870 Y86.797 E34.59585
G1 X102.500 Y86.797 E34.62956
G1 X102.500 Y103.415 E36.14063
G1 X101.250 Y103.415 E36.25427
G1 X101.250 Y86.797 E37.76533
G1 X100.000 Y86.797 E37.87897
G1 X100.000 Y103.415 E39.39004
G1 X98.750 Y103.415 E39.50368
G1 X98.750 Y86.797 E41.01474
G1 X97.500 Y86.797 E41.12838
G1 X97.500 Y103.415 E42.63945
G1 X96.251 Y103.415 E42.75309
G1 X96.251 Y86.797 E44.26415
G1 X95.235 Y86.797 E44.35646
G1 X95.208 Y86.642 E44.37082
G1 X95.001 Y86.642 E44.38970
G1 X95.001 Y103.415 E45.91491
G1 X93.751 Y103.415 E46.02855
G1 X93.751 Y89.490 E47.29478
G1 X94.375 Y89.266 E47.35506
G1 X94.375 Y87.179 E47.54489
G1 X93.751 Y87.566 E47.61167
G1 X93.751 Y86.654 E47.69460
G1 X92.501 Y87.429 E47.82833
G1 X92.501 Y87.536 E47.83812
G1 X92.461 Y87.454 E47.84648
G1 X92.501 Y87.429 E47.85075
G1 X92.501 Y87.536 F7800.000
G1 F1080
G1 X92.610 Y87.762 E47.87347
G1 X92.501 Y87.829 E47.88509
G1 X92.501 Y87.936 E47.89488
G1 X92.610 Y88.162 E47.91760
G1 X92.501 Y88.229 E47.92922
G1 X92.501 Y88.336 E47.93900
G1 X92.610 Y88.562 E47.96172
G1 X92.501 Y88.629 E47.97334
G1 X92.501 Y88.736 E47.98312
G1 X92.610 Y88.962 E48.00584
G1 X92.501 Y89.029 E48.01746
G1 X92.501 Y89.136 E48.02725
G1 X92.610 Y89.362 E48.04997
G1 X92.501 Y89.429 E48.06159
G1 X92.501 Y89.536 E48.07137
G1 X92.610 Y89.762 E48.09409
G1 X92.501 Y89.829 E48.10571
G1 X92.501 Y89.936 E48.11549
G1 X92.610 Y90.162 E48.13821
G1 X92.501 Y90.229 E48.14983
G1 X92.501 Y90.336 E48.15962
G1 X92.610 Y90.562 E48.18234
G1 X92.501 Y90.629 E48.19396
G1 X92.501 Y90.736 E48.20374
G1 E47.20374 F1800.00000
G92 E0
G1 X92.501 Y103.415 F7800.000
G1 E1.00000 F1800.00000
G1 F1080
G1 X92.501 Y91.029 E2.12628
G1 X92.322 Y91.140 E2.14550
G1 X91.964 Y91.791 E2.21302
G1 X91.674 Y91.791 E2.23936
G1 X91.521 Y92.191 E2.27831
G1 X91.315 Y92.191 E2.29704
G1 X91.252 Y92.451 E2.32143
G1 X91.252 Y103.415 E3.31835
G1 X90.002 Y103.415 E3.43199
G1 X90.002 Y93.876 E4.29934
G1 X89.885 Y93.984 E4.31382
G1 X88.752 Y93.984 E4.41683
G1 X88.752 Y103.415 E5.27436
G1 X87.502 Y103.415 E5.38800
G1 X87.502 Y93.984 E6.24553
G1 X86.252 Y93.984 E6.35917
G1 X86.252 Y103.415 E7.21670
G1 X85.003 Y103.415 E7.33034
G1 X85.003 Y93.984 E8.18787
G1 X83.753 Y93.984 E8.30151
G1 X83.753 Y103.415 E9.15904
G1 X82.503 Y103.415 E9.27268
G1 X82.503 Y93.984 E10.13021
G1 X81.827 Y93.984 E10.19173
G1 X81.253 Y93.467 E10.26192
G1 X81.253 Y103.415 E11.16645
G1 X80.004 Y103.415 E11.28009
G1 X80.004 Y92.632 E12.26060
G1 X79.913 Y92.573 E12.27046
G1 X78.754 Y92.064 E12.38554
G1 X78.754 Y97.804 E12.90748
G1 X78.431 Y97.462 E12.95031
G1 X77.852 Y97.025 E13.01621
G1 X77.504 Y96.845 E13.05183
G1 X77.504 Y91.706 E13.51909
G1 X77.148 Y91.614 E13.55256
G1 X76.254 Y91.530 E13.63416
G1 X76.254 Y96.435 E14.08013
G1 X75.802 Y96.371 E14.12165
G1 X75.004 Y96.406 E14.19425
G1 X75.004 Y91.522 E14.63833
G1 X74.222 Y91.574 E14.70965
G1 X73.755 Y91.682 E14.75325
G1 X73.755 Y96.767 E15.21568
G1 X73.069 Y97.160 E15.28756
G1 X72.505 Y97.637 E15.35470
G1 X72.505 Y92.020 E15.86540
G1 X71.432 Y92.457 E15.97074
G1 X71.255 Y92.564 E15.98955
G1 X71.255 Y98.050 E16.48834
G1 X70.005 Y96.798 E16.64921
G1 X70.005 Y93.367 E16.96117
G1 X68.756 Y94.434 E17.11057
G1 X68.756 Y95.545 E17.21167
G1 X68.156 Y94.945 E17.28881
G1 X68.756 Y94.434 E17.36045
G1 E16.36045 F1800.00000
G92 E0
G1 X71.255 Y103.415 F7800.000
G1 E1.00000 F1800.00000
G1 F1080
G1 X72.164 Y103.415 E1.08261
G1 X71.604 Y102.941 E1.14930
G1 X71.255 Y103.291 E1.19416
G1 X71.255 Y103.415 E1.20548
M106 S255
M104 S200 ; set temperature
M140 S45 ; set bed temperature
G1 E0.20548 F1800.00000
G92 E0
G1 Z1.650 F7800.000
G1 X68.006 Y106.370 F7800.000
G1 E1.00000 F1800.00000
G1 F2461.44
G1 X68.006 Y106.431 E1.00287
G1 X68.806 Y107.114 E1.05214
G1 X68.806 Y105.568 E1.12454
G1 X69.605 Y104.767 E1.17758
G1 X69.605 Y107.796 E1.31951
G1 X70.104 Y108.222 E1.35022
G1 X70.405 Y108.405 E1.36674
G1 X70.405 Y103.965 E1.57473
G1 X71.205 Y103.164 E1.62778
G1 X71.205 Y108.892 E1.89611
G1 X71.376 Y108.995 E1.90546
G1 X72.005 Y109.252 E1.93730
G1 X72.005 Y103.118 E2.22467
G1 X72.805 Y103.794 E2.27375
G1 X72.805 Y109.568 E2.54425
G1 X73.605 Y109.752 E2.58270
G1 X73.605 Y104.353 E2.83567
G1 X74.212 Y104.711 E2.86869
G1 X74.176 Y104.842 E2.87502
G1 X74.405 Y104.887 E2.88594
G1 X74.405 Y109.904 E3.12096
G1 X75.204 Y109.957 E3.15852
G1 X75.204 Y105.023 E3.38965
G1 X75.807 Y105.040 E3.41791
G1 X76.004 Y105.012 E3.42723
G1 X76.004 Y109.959 E3.65899
G1 X76.804 Y109.884 E3.69662
G1 X76.804 Y104.852 E3.93236
G1 X76.966 Y104.801 E3.94032
G1 X76.930 Y104.652 E3.94748
G1 X77.604 Y104.303 E3.98305
G1 X77.604 Y109.737 E4.23762
G1 X78.404 Y109.529 E4.27633
G1 X78.404 Y103.725 E4.54825
G1 X78.830 Y103.273 E4.57736
G1 X79.204 Y102.714 E4.60889
G1 X79.204 Y109.215 E4.91348
G1 E3.91348 F1800.00000
G92 E0
G1 X79.204 Y97.760 F7800.000
G1 E1.00000 F1800.00000
G1 F2461.44
G1 X79.120 Y97.760 E1.00394
G1 X79.204 Y98.087 E1.01975
G1 X79.204 Y97.760 E1.03507
G1 X80.004 Y97.760 E1.07254
G1 X80.004 Y108.857 E1.59241
G1 X80.803 Y108.340 E1.63703
G1 X80.803 Y97.760 E2.13267
G1 X81.603 Y97.760 E2.17015
G1 X81.603 Y107.725 E2.63700
G1 X81.874 Y107.481 E2.65410
G1 X82.403 Y107.481 E2.67887
G1 X82.403 Y97.760 E3.13427
G1 X83.203 Y97.760 E3.17174
G1 X83.203 Y107.481 E3.62714
G1 X84.003 Y107.481 E3.66461
G1 X84.003 Y97.760 E4.12000
G1 X84.803 Y97.760 E4.15748
G1 X84.803 Y107.481 E4.61287
G1 X85.603 Y107.481 E4.65034
G1 X85.603 Y97.760 E5.10574
G1 X86.402 Y97.760 E5.14321
G1 X86.402 Y107.481 E5.59861
G1 X87.202 Y107.481 E5.63608
G1 X87.202 Y97.760 E6.09148
G1 X88.002 Y97.760 E6.12895
G1 X88.002 Y107.481 E6.58434
G1 X88.802 Y107.481 E6.62182
G1 X88.802 Y97.760 E7.07721
G1 X89.602 Y97.760 E7.11468
G1 X89.602 Y107.481 E7.57008
G1 X90.402 Y107.481 E7.60755
G1 X90.402 Y97.760 E8.06295
G1 X91.202 Y97.760 E8.10042
G1 X91.202 Y107.481 E8.55582
G1 X92.001 Y107.481 E8.59329
G1 X92.001 Y97.760 E9.04868
G1 X92.801 Y97.760 E9.08616
G1 X92.801 Y107.481 E9.54155
G1 X93.601 Y107.481 E9.57902
G1 X93.601 Y97.760 E10.03442
G1 X94.401 Y97.760 E10.07189
G1 X94.401 Y107.481 E10.52729
G1 X95.201 Y107.481 E10.56476
G1 X95.201 Y98.126 E11.00302
G1 X95.435 Y98.126 E11.01401
G1 X95.515 Y97.760 E11.03154
G1 X96.001 Y97.760 E11.05431
G1 X96.001 Y107.481 E11.50971
G1 X96.801 Y107.481 E11.54718
G1 X96.801 Y97.760 E12.00258
G1 X97.600 Y97.760 E12.04005
G1 X97.600 Y107.481 E12.49545
G1 X98.400 Y107.481 E12.53292
G1 X98.400 Y97.760 E12.98831
G1 X99.200 Y97.760 E13.02579
G1 X99.200 Y107.481 E13.48118
G1 X100.000 Y107.481 E13.51866
G1 X100.000 Y97.760 E13.97405
G1 X100.800 Y97.760 E14.01152
G1 X100.800 Y107.481 E14.46692
G1 X101.600 Y107.481 E14.50439
G1 X101.600 Y97.760 E14.95979
G1 X102.400 Y97.760 E14.99726
G1 X102.400 Y107.481 E15.45265
G1 X103.199 Y107.481 E15.49013
G1 X103.199 Y97.760 E15.94552
G1 X103.999 Y97.760 E15.98300
G1 X103.999 Y107.481 E16.43839
G1 X104.799 Y107.481 E16.47586
G1 X104.799 Y97.760 E16.93126
G1 X105.599 Y97.760 E16.96873
G1 X105.599 Y107.481 E17.42413
G1 X106.399 Y107.481 E17.46160
G1 X106.399 Y97.760 E17.91699
G1 X107.199 Y97.760 E17.95447
G1 X107.199 Y107.481 E18.40986
G1 X107.999 Y107.481 E18.44734
G1 X107.999 Y97.760 E18.90273
G1 X108.798 Y97.760 E18.94020
G1 X108.798 Y107.481 E19.39560
G1 X109.598 Y107.481 E19.43307
G1 X109.598 Y97.760 E19.88847
G1 X110.398 Y97.760 E19.92594
G1 X110.398 Y107.481 E20.38133
G1 X111.198 Y107.481 E20.41881
G1 X111.198 Y97.760 E20.87420
G1 X111.998 Y97.760 E20.91167
G1 X111.998 Y107.481 E21.36707
G1 X112.798 Y107.481 E21.40454
G1 X112.798 Y97.760 E21.85994
G1 X113.598 Y97.760 E21.89741
G1 X113.598 Y107.481 E22.35281
G1 X114.397 Y107.481 E22.39028
G1 X114.397 Y97.760 E22.84567
G1 X115.197 Y97.760 E22.88315
G1 X115.197 Y111.640 E23.53340
G1 X115.997 Y111.640 E23.57088
G1 X115.997 Y97.760 E24.22113
G1 X116.797 Y97.760 E24.25860
G1 X116.797 Y111.640 E24.90886
G1 X117.597 Y111.640 E24.94633
G1 X117.597 Y97.760 E25.59659
G1 X118.397 Y97.760 E25.63406
G1 X118.397 Y111.640 E26.28432
G1 X119.197 Y111.640 E26.32179
G1 X119.197 Y97.760 E26.97204
G1 X119.996 Y97.760 E27.00952
G1 X119.996 Y111.640 E27.65977
G1 X120.796 Y111.640 E27.69725
G1 X120.796 Y97.760 E28.34750
G1 X121.596 Y97.760 E28.38498
G1 X121.596 Y111.640 E29.03523
G1 X122.396 Y111.640 E29.07270
G1 X122.396 Y97.760 E29.72296
G1 X123.196 Y97.760 E29.76043
G1 X123.196 Y111.640 E30.41069
G1 X123.996 Y111.640 E30.44816
G1 X123.996 Y97.760 E31.09842
G1 X124.796 Y97.760 E31.13589
G1 X124.796 Y111.640 E31.78615
G1 X125.561 Y112.790 F7800.000
G1 F2461.44
G1 X125.561 Y112.268 E31.81062
G1 X114.561 Y112.268 E32.32596
G1 X114.561 Y112.790 E32.35044
G1 X125.561 Y112.790 E32.86578
G1 E31.86578 F1800.00000
G92 E0
G1 X131.445 Y94.462 F7800.000
G1 E1.00000 F1800.00000
G1 F2461.44
G1 X131.209 Y94.034 E1.02288
G1 X130.330 Y94.034 E1.06406
G1 X128.887 Y96.534 E1.19930
G1 X125.387 Y96.534 E1.36328
G1 X123.943 Y94.034 E1.49853
G1 X120.443 Y94.034 E1.66251
G1 X119.000 Y96.534 E1.79775
G1 X115.500 Y96.534 E1.96173
G1 X114.056 Y94.034 E2.09697
G1 X110.556 Y94.034 E2.26095
G1 X109.113 Y96.534 E2.39620
G1 X105.613 Y96.534 E2.56018
G1 X104.169 Y94.034 E2.69542
G1 X100.669 Y94.034 E2.85940
G1 X99.226 Y96.534 E2.99464
G1 X95.726 Y96.534 E3.15862
G1 X94.282 Y94.034 E3.29386
G1 X90.782 Y94.034 E3.45784
G1 X89.339 Y96.534 E3.59309
G1 X85.839 Y96.534 E3.75707
G1 X84.505 Y94.225 E3.88199
G1 X81.734 Y94.225 E4.01181
G1 X81.523 Y94.034 E4.02516
G1 X80.895 Y94.034 E4.05456
G1 X79.452 Y96.534 E4.18981
G1 X77.425 Y96.534 E4.28474
G1 X77.609 Y96.629 E4.29446
G1 X77.597 Y96.580 E4.29684
